; generated by Slic3r Prusa Edition 1.41.3+linux64 on 2021-05-26 at 14:04:32

; 

; external perimeters extrusion width = 0.45mm
; perimeters extrusion width = 0.45mm
; infill extrusion width = 0.45mm
; solid infill extrusion width = 0.45mm
; top infill extrusion width = 0.40mm
; first layer extrusion width = 0.42mm

M73 P0 R30
M73 Q0 S30
M201 X1000 Y1000 Z1000 E5000 ; sets maximum accelerations, mm/sec^2
M203 X200 Y200 Z12 E120 ; sets maximum feedrates, mm/sec
M204 P1250 R1250 T1250 ; sets acceleration (P, T) and retract acceleration (R), mm/sec^2
M205 X8.00 Y8.00 Z0.40 E1.50 ; sets the jerk limits, mm/sec
M205 S0 T0 ; sets the minimum extruding and travel feed rate, mm/sec
M107 ; disable fan
M115 U3.5.1 ; tell printer latest fw version
M83  ; extruder relative mode
M104 S220 ; set extruder temp
M140 S100 ; set bed temp
M190 S100 ; wait for bed temp
M109 S220 ; wait for extruder temp
G28 W ; home all without mesh bed level
G80 ; mesh bed leveling
G1 Y-3.0 F1000.0 ; go outside print area
G92 E0.0
G1 X60.0 E9.0  F1000.0 ; intro line
M73 Q0 S30
M73 P0 R30
G1 X100.0 E12.5  F1000.0 ; intro line
G92 E0.0
M221 S95
M900 K10; Filament gcode
G21 ; set units to millimeters
G90 ; use absolute coordinates
M83 ; use relative distances for extrusion
;BEFORE_LAYER_CHANGE
G92 E0.0
;0.2
G92 E0
M109 S220
G1 F15000 X9 Y6 Z2
G280
M107
M204 S625
M205 X6 Y6
G1 F600 Z2.27
G1 F4285.7 X30 Y30 Z2.27
M204 S500
M205 X5 Y5
G1 E-0.80000 F2100.00000
G1 Z0.600 F10800.000
G1 F4285.7 X70.22 Y109.78 Z0.2 E-0.8
;layer:0
M204 S500
M205 X5 Y5
M140 S100
M140 S110
G1 F1200 E0.8
";Mesh "
G1 F1200 Z0.2
G1 F1200 X129.78 Y109.78 E1.66768
G1 X129.78 Y50.22 E1.66768
G1 X70.22 Y50.22 E1.66768
G1 X70.22 Y109.78 E1.66768
M204 S625
M205 X6 Y6
G1 F4285.7 X69.86 Y110.14 E0.0
M204 S500
M205 X5 Y5
G1 F1200
G1 F1200 X130.14 Y110.14 E1.68784
G1 X130.14 Y49.86 E1.68784
G1 X69.86 Y49.86 E1.68784
G1 X69.86 Y110.14 E1.68784
M204 S625
M205 X6 Y6
G1 F4285.7 X69.5 Y110.5 E0.0
M204 S500
M205 X5 Y5
G1 F1200
G1 F1200 X130.5 Y110.5 E1.708
G1 X130.5 Y49.5 E1.708
G1 X69.5 Y49.5 E1.708
G1 X69.5 Y110.5 E1.708
M204 S625
M205 X6 Y6
G1 F4285.7 X70.58 Y109.42 E0.0
M204 S500
M205 X5 Y5
;Skine
G1 F4285.7 X70.58 Y109.42 E-1.708
M204 S500
M205 X5 Y5
G1 Z0.2 E0.8
G1 F1200 X129.42 Y109.42 E1.64752
G1 X129.42 Y50.58 E1.64752
G1 X70.58 Y50.58 E1.64752
G1 X70.58 Y109.42 E1.64752
M204 S625
M205 X6 Y6
G1 E0.08
G1 F1200 X129.4 Y109.4 E1.64626
M204 S625
M205 X6 Y6
G1 F4285.7 X129.4 Y109.03 E0
G1 F4200 X70.6 Y109.03 E0
M204 S500
M205 X5 Y5
G1 E0.08
G1 F1200 X129.4 Y109.03 E1.64626
M204 S625
M205 X6 Y6
G1 F4285.7 X129.4 Y108.66 E0
G1 F4200 X70.6 Y108.66 E0
M204 S500
M205 X5 Y5
G1 E0.08
G1 F1200 X129.4 Y108.66 E1.64626
M204 S625
M205 X6 Y6
G1 F4285.7 X129.4 Y108.29 E0
G1 F4200 X70.6 Y108.29 E0
M204 S500
M205 X5 Y5
G1 E0.08
G1 F1200 X129.4 Y108.29 E1.64626
M204 S625
M205 X6 Y6
G1 F4285.7 X129.4 Y107.92 E0
G1 F4200 X70.6 Y107.92 E0
M204 S500
M205 X5 Y5
G1 E0.08
G1 F1200 X129.4 Y107.92 E1.64626
M204 S625
M205 X6 Y6
G1 F4285.7 X129.4 Y107.55 E0
G1 F4200 X70.6 Y107.55 E0
M204 S500
M205 X5 Y5
G1 E0.08
G1 F1200 X129.4 Y107.55 E1.64626
M204 S625
M205 X6 Y6
G1 F4285.7 X129.4 Y107.18 E0
G1 F4200 X70.6 Y107.18 E0
M204 S500
M205 X5 Y5
G1 E0.08
G1 F1200 X129.4 Y107.18 E1.64626
M204 S625
M205 X6 Y6
G1 F4285.7 X129.4 Y106.81 E0
G1 F4200 X70.6 Y106.81 E0
M204 S500
M205 X5 Y5
G1 E0.08
G1 F1200 X129.4 Y106.81 E1.64626
M204 S625
M205 X6 Y6
G1 F4285.7 X129.4 Y106.44 E0
G1 F4200 X70.6 Y106.44 E0
M204 S500
M205 X5 Y5
G1 E0.08
G1 F1200 X129.4 Y106.44 E1.64626
M204 S625
M205 X6 Y6
G1 F4285.7 X129.4 Y106.07 E0
G1 F4200 X70.6 Y106.07 E0
M204 S500
M205 X5 Y5
G1 E0.08
G1 F1200 X129.4 Y106.07 E1.64626
M204 S625
M205 X6 Y6
G1 F4285.7 X129.4 Y105.7 E0
G1 F4200 X70.6 Y105.7 E0
M204 S500
M205 X5 Y5
G1 E0.08
G1 F1200 X129.4 Y105.7 E1.64626
M204 S625
M205 X6 Y6
G1 F4285.7 X129.4 Y105.33 E0
G1 F4200 X70.6 Y105.33 E0
M204 S500
M205 X5 Y5
G1 E0.08
G1 F1200 X129.4 Y105.33 E1.64626
M204 S625
M205 X6 Y6
G1 F4285.7 X129.4 Y104.96 E0
G1 F4200 X70.6 Y104.96 E0
M204 S500
M205 X5 Y5
G1 E0.08
G1 F1200 X129.4 Y104.96 E1.64626
M204 S625
M205 X6 Y6
G1 F4285.7 X129.4 Y104.59 E0
G1 F4200 X70.6 Y104.59 E0
M204 S500
M205 X5 Y5
G1 E0.08
G1 F1200 X129.4 Y104.59 E1.64626
M204 S625
M205 X6 Y6
G1 F4285.7 X129.4 Y104.22 E0
G1 F4200 X70.6 Y104.22 E0
M204 S500
M205 X5 Y5
G1 E0.08
G1 F1200 X129.4 Y104.22 E1.64626
M204 S625
M205 X6 Y6
G1 F4285.7 X129.4 Y103.85 E0
G1 F4200 X70.6 Y103.85 E0
M204 S500
M205 X5 Y5
G1 E0.08
G1 F1200 X129.4 Y103.85 E1.64626
M204 S625
M205 X6 Y6
G1 F4285.7 X129.4 Y103.48 E0
G1 F4200 X70.6 Y103.48 E0
M204 S500
M205 X5 Y5
G1 E0.08
G1 F1200 X129.4 Y103.48 E1.64626
M204 S625
M205 X6 Y6
G1 F4285.7 X129.4 Y103.11 E0
G1 F4200 X70.6 Y103.11 E0
M204 S500
M205 X5 Y5
G1 E0.08
G1 F1200 X129.4 Y103.11 E1.64626
M204 S625
M205 X6 Y6
G1 F4285.7 X129.4 Y102.74 E0
G1 F4200 X70.6 Y102.74 E0
M204 S500
M205 X5 Y5
G1 E0.08
G1 F1200 X129.4 Y102.74 E1.64626
M204 S625
M205 X6 Y6
G1 F4285.7 X129.4 Y102.37 E0
G1 F4200 X70.6 Y102.37 E0
M204 S500
M205 X5 Y5
G1 E0.08
G1 F1200 X129.4 Y102.37 E1.64626
M204 S625
M205 X6 Y6
G1 F4285.7 X129.4 Y102.0 E0
G1 F4200 X70.6 Y102.0 E0
M204 S500
M205 X5 Y5
G1 E0.08
G1 F1200 X129.4 Y102.0 E1.64626
M204 S625
M205 X6 Y6
G1 F4285.7 X129.4 Y101.63 E0
G1 F4200 X70.6 Y101.63 E0
M204 S500
M205 X5 Y5
G1 E0.08
G1 F1200 X129.4 Y101.63 E1.64626
M204 S625
M205 X6 Y6
G1 F4285.7 X129.4 Y101.26 E0
G1 F4200 X70.6 Y101.26 E0
M204 S500
M205 X5 Y5
G1 E0.08
G1 F1200 X129.4 Y101.26 E1.64626
M204 S625
M205 X6 Y6
G1 F4285.7 X129.4 Y100.89 E0
G1 F4200 X70.6 Y100.89 E0
M204 S500
M205 X5 Y5
G1 E0.08
G1 F1200 X129.4 Y100.89 E1.64626
M204 S625
M205 X6 Y6
G1 F4285.7 X129.4 Y100.52 E0
G1 F4200 X70.6 Y100.52 E0
M204 S500
M205 X5 Y5
G1 E0.08
G1 F1200 X129.4 Y100.52 E1.64626
M204 S625
M205 X6 Y6
G1 F4285.7 X129.4 Y100.15 E0
G1 F4200 X70.6 Y100.15 E0
M204 S500
M205 X5 Y5
G1 E0.08
G1 F1200 X129.4 Y100.15 E1.64626
M204 S625
M205 X6 Y6
G1 F4285.7 X129.4 Y99.78 E0
G1 F4200 X70.6 Y99.78 E0
M204 S500
M205 X5 Y5
G1 E0.08
G1 F1200 X129.4 Y99.78 E1.64626
M204 S625
M205 X6 Y6
G1 F4285.7 X129.4 Y99.41 E0
G1 F4200 X70.6 Y99.41 E0
M204 S500
M205 X5 Y5
G1 E0.08
G1 F1200 X129.4 Y99.41 E1.64626
M204 S625
M205 X6 Y6
G1 F4285.7 X129.4 Y99.04 E0
G1 F4200 X70.6 Y99.04 E0
M204 S500
M205 X5 Y5
G1 E0.08
G1 F1200 X129.4 Y99.04 E1.64626
M204 S625
M205 X6 Y6
G1 F4285.7 X129.4 Y98.67 E0
G1 F4200 X70.6 Y98.67 E0
M204 S500
M205 X5 Y5
G1 E0.08
G1 F1200 X129.4 Y98.67 E1.64626
M204 S625
M205 X6 Y6
G1 F4285.7 X129.4 Y98.3 E0
G1 F4200 X70.6 Y98.3 E0
M204 S500
M205 X5 Y5
G1 E0.08
G1 F1200 X129.4 Y98.3 E1.64626
M204 S625
M205 X6 Y6
G1 F4285.7 X129.4 Y97.93 E0
G1 F4200 X70.6 Y97.93 E0
M204 S500
M205 X5 Y5
G1 E0.08
G1 F1200 X129.4 Y97.93 E1.64626
M204 S625
M205 X6 Y6
G1 F4285.7 X129.4 Y97.56 E0
G1 F4200 X70.6 Y97.56 E0
M204 S500
M205 X5 Y5
G1 E0.08
G1 F1200 X129.4 Y97.56 E1.64626
M204 S625
M205 X6 Y6
G1 F4285.7 X129.4 Y97.19 E0
G1 F4200 X70.6 Y97.19 E0
M204 S500
M205 X5 Y5
G1 E0.08
G1 F1200 X129.4 Y97.19 E1.64626
M204 S625
M205 X6 Y6
G1 F4285.7 X129.4 Y96.82 E0
G1 F4200 X70.6 Y96.82 E0
M204 S500
M205 X5 Y5
G1 E0.08
G1 F1200 X129.4 Y96.82 E1.64626
M204 S625
M205 X6 Y6
G1 F4285.7 X129.4 Y96.45 E0
G1 F4200 X70.6 Y96.45 E0
M204 S500
M205 X5 Y5
G1 E0.08
G1 F1200 X129.4 Y96.45 E1.64626
M204 S625
M205 X6 Y6
G1 F4285.7 X129.4 Y96.08 E0
G1 F4200 X70.6 Y96.08 E0
M204 S500
M205 X5 Y5
G1 E0.08
G1 F1200 X129.4 Y96.08 E1.64626
M204 S625
M205 X6 Y6
G1 F4285.7 X129.4 Y95.71 E0
G1 F4200 X70.6 Y95.71 E0
M204 S500
M205 X5 Y5
G1 E0.08
G1 F1200 X129.4 Y95.71 E1.64626
M204 S625
M205 X6 Y6
G1 F4285.7 X129.4 Y95.34 E0
G1 F4200 X70.6 Y95.34 E0
M204 S500
M205 X5 Y5
G1 E0.08
G1 F1200 X129.4 Y95.34 E1.64626
M204 S625
M205 X6 Y6
G1 F4285.7 X129.4 Y94.97 E0
G1 F4200 X70.6 Y94.97 E0
M204 S500
M205 X5 Y5
G1 E0.08
G1 F1200 X129.4 Y94.97 E1.64626
M204 S625
M205 X6 Y6
G1 F4285.7 X129.4 Y94.6 E0
G1 F4200 X70.6 Y94.6 E0
M204 S500
M205 X5 Y5
G1 E0.08
G1 F1200 X129.4 Y94.6 E1.64626
M204 S625
M205 X6 Y6
G1 F4285.7 X129.4 Y94.23 E0
G1 F4200 X70.6 Y94.23 E0
M204 S500
M205 X5 Y5
G1 E0.08
G1 F1200 X129.4 Y94.23 E1.64626
M204 S625
M205 X6 Y6
G1 F4285.7 X129.4 Y93.86 E0
G1 F4200 X70.6 Y93.86 E0
M204 S500
M205 X5 Y5
G1 E0.08
G1 F1200 X129.4 Y93.86 E1.64626
M204 S625
M205 X6 Y6
G1 F4285.7 X129.4 Y93.49 E0
G1 F4200 X70.6 Y93.49 E0
M204 S500
M205 X5 Y5
G1 E0.08
G1 F1200 X129.4 Y93.49 E1.64626
M204 S625
M205 X6 Y6
G1 F4285.7 X129.4 Y93.12 E0
G1 F4200 X70.6 Y93.12 E0
M204 S500
M205 X5 Y5
G1 E0.08
G1 F1200 X129.4 Y93.12 E1.64626
M204 S625
M205 X6 Y6
G1 F4285.7 X129.4 Y92.75 E0
G1 F4200 X70.6 Y92.75 E0
M204 S500
M205 X5 Y5
G1 E0.08
G1 F1200 X129.4 Y92.75 E1.64626
M204 S625
M205 X6 Y6
G1 F4285.7 X129.4 Y92.38 E0
G1 F4200 X70.6 Y92.38 E0
M204 S500
M205 X5 Y5
G1 E0.08
G1 F1200 X129.4 Y92.38 E1.64626
M204 S625
M205 X6 Y6
G1 F4285.7 X129.4 Y92.01 E0
G1 F4200 X70.6 Y92.01 E0
M204 S500
M205 X5 Y5
G1 E0.08
G1 F1200 X129.4 Y92.01 E1.64626
M204 S625
M205 X6 Y6
G1 F4285.7 X129.4 Y91.64 E0
G1 F4200 X70.6 Y91.64 E0
M204 S500
M205 X5 Y5
G1 E0.08
G1 F1200 X129.4 Y91.64 E1.64626
M204 S625
M205 X6 Y6
G1 F4285.7 X129.4 Y91.27 E0
G1 F4200 X70.6 Y91.27 E0
M204 S500
M205 X5 Y5
G1 E0.08
G1 F1200 X129.4 Y91.27 E1.64626
M204 S625
M205 X6 Y6
G1 F4285.7 X129.4 Y90.9 E0
G1 F4200 X70.6 Y90.9 E0
M204 S500
M205 X5 Y5
G1 E0.08
G1 F1200 X129.4 Y90.9 E1.64626
M204 S625
M205 X6 Y6
G1 F4285.7 X129.4 Y90.53 E0
G1 F4200 X70.6 Y90.53 E0
M204 S500
M205 X5 Y5
G1 E0.08
G1 F1200 X129.4 Y90.53 E1.64626
M204 S625
M205 X6 Y6
G1 F4285.7 X129.4 Y90.16 E0
G1 F4200 X70.6 Y90.16 E0
M204 S500
M205 X5 Y5
G1 E0.08
G1 F1200 X129.4 Y90.16 E1.64626
M204 S625
M205 X6 Y6
G1 F4285.7 X129.4 Y89.79 E0
G1 F4200 X70.6 Y89.79 E0
M204 S500
M205 X5 Y5
G1 E0.08
G1 F1200 X129.4 Y89.79 E1.64626
M204 S625
M205 X6 Y6
G1 F4285.7 X129.4 Y89.42 E0
G1 F4200 X70.6 Y89.42 E0
M204 S500
M205 X5 Y5
G1 E0.08
G1 F1200 X129.4 Y89.42 E1.64626
M204 S625
M205 X6 Y6
G1 F4285.7 X129.4 Y89.05 E0
G1 F4200 X70.6 Y89.05 E0
M204 S500
M205 X5 Y5
G1 E0.08
G1 F1200 X129.4 Y89.05 E1.64626
M204 S625
M205 X6 Y6
G1 F4285.7 X129.4 Y88.68 E0
G1 F4200 X70.6 Y88.68 E0
M204 S500
M205 X5 Y5
G1 E0.08
G1 F1200 X129.4 Y88.68 E1.64626
M204 S625
M205 X6 Y6
G1 F4285.7 X129.4 Y88.31 E0
G1 F4200 X70.6 Y88.31 E0
M204 S500
M205 X5 Y5
G1 E0.08
G1 F1200 X129.4 Y88.31 E1.64626
M204 S625
M205 X6 Y6
G1 F4285.7 X129.4 Y87.94 E0
G1 F4200 X70.6 Y87.94 E0
M204 S500
M205 X5 Y5
G1 E0.08
G1 F1200 X129.4 Y87.94 E1.64626
M204 S625
M205 X6 Y6
G1 F4285.7 X129.4 Y87.57 E0
G1 F4200 X70.6 Y87.57 E0
M204 S500
M205 X5 Y5
G1 E0.08
G1 F1200 X129.4 Y87.57 E1.64626
M204 S625
M205 X6 Y6
G1 F4285.7 X129.4 Y87.2 E0
G1 F4200 X70.6 Y87.2 E0
M204 S500
M205 X5 Y5
G1 E0.08
G1 F1200 X129.4 Y87.2 E1.64626
M204 S625
M205 X6 Y6
G1 F4285.7 X129.4 Y86.83 E0
G1 F4200 X70.6 Y86.83 E0
M204 S500
M205 X5 Y5
G1 E0.08
G1 F1200 X129.4 Y86.83 E1.64626
M204 S625
M205 X6 Y6
G1 F4285.7 X129.4 Y86.46 E0
G1 F4200 X70.6 Y86.46 E0
M204 S500
M205 X5 Y5
G1 E0.08
G1 F1200 X129.4 Y86.46 E1.64626
M204 S625
M205 X6 Y6
G1 F4285.7 X129.4 Y86.09 E0
G1 F4200 X70.6 Y86.09 E0
M204 S500
M205 X5 Y5
G1 E0.08
G1 F1200 X129.4 Y86.09 E1.64626
M204 S625
M205 X6 Y6
G1 F4285.7 X129.4 Y85.72 E0
G1 F4200 X70.6 Y85.72 E0
M204 S500
M205 X5 Y5
G1 E0.08
G1 F1200 X129.4 Y85.72 E1.64626
M204 S625
M205 X6 Y6
G1 F4285.7 X129.4 Y85.35 E0
G1 F4200 X70.6 Y85.35 E0
M204 S500
M205 X5 Y5
G1 E0.08
G1 F1200 X129.4 Y85.35 E1.64626
M204 S625
M205 X6 Y6
G1 F4285.7 X129.4 Y84.98 E0
G1 F4200 X70.6 Y84.98 E0
M204 S500
M205 X5 Y5
G1 E0.08
G1 F1200 X129.4 Y84.98 E1.64626
M204 S625
M205 X6 Y6
G1 F4285.7 X129.4 Y84.61 E0
G1 F4200 X70.6 Y84.61 E0
M204 S500
M205 X5 Y5
G1 E0.08
G1 F1200 X129.4 Y84.61 E1.64626
M204 S625
M205 X6 Y6
G1 F4285.7 X129.4 Y84.24 E0
G1 F4200 X70.6 Y84.24 E0
M204 S500
M205 X5 Y5
G1 E0.08
G1 F1200 X129.4 Y84.24 E1.64626
M204 S625
M205 X6 Y6
G1 F4285.7 X129.4 Y83.87 E0
G1 F4200 X70.6 Y83.87 E0
M204 S500
M205 X5 Y5
G1 E0.08
G1 F1200 X129.4 Y83.87 E1.64626
M204 S625
M205 X6 Y6
G1 F4285.7 X129.4 Y83.5 E0
G1 F4200 X70.6 Y83.5 E0
M204 S500
M205 X5 Y5
G1 E0.08
G1 F1200 X129.4 Y83.5 E1.64626
M204 S625
M205 X6 Y6
G1 F4285.7 X129.4 Y83.13 E0
G1 F4200 X70.6 Y83.13 E0
M204 S500
M205 X5 Y5
G1 E0.08
G1 F1200 X129.4 Y83.13 E1.64626
M204 S625
M205 X6 Y6
G1 F4285.7 X129.4 Y82.76 E0
G1 F4200 X70.6 Y82.76 E0
M204 S500
M205 X5 Y5
G1 E0.08
G1 F1200 X129.4 Y82.76 E1.64626
M204 S625
M205 X6 Y6
G1 F4285.7 X129.4 Y82.39 E0
G1 F4200 X70.6 Y82.39 E0
M204 S500
M205 X5 Y5
G1 E0.08
G1 F1200 X129.4 Y82.39 E1.64626
M204 S625
M205 X6 Y6
G1 F4285.7 X129.4 Y82.02 E0
G1 F4200 X70.6 Y82.02 E0
M204 S500
M205 X5 Y5
G1 E0.08
G1 F1200 X129.4 Y82.02 E1.64626
M204 S625
M205 X6 Y6
G1 F4285.7 X129.4 Y81.65 E0
G1 F4200 X70.6 Y81.65 E0
M204 S500
M205 X5 Y5
G1 E0.08
G1 F1200 X129.4 Y81.65 E1.64626
M204 S625
M205 X6 Y6
G1 F4285.7 X129.4 Y81.28 E0
G1 F4200 X70.6 Y81.28 E0
M204 S500
M205 X5 Y5
G1 E0.08
G1 F1200 X129.4 Y81.28 E1.64626
M204 S625
M205 X6 Y6
G1 F4285.7 X129.4 Y80.91 E0
G1 F4200 X70.6 Y80.91 E0
M204 S500
M205 X5 Y5
G1 E0.08
G1 F1200 X129.4 Y80.91 E1.64626
M204 S625
M205 X6 Y6
G1 F4285.7 X129.4 Y80.54 E0
G1 F4200 X70.6 Y80.54 E0
M204 S500
M205 X5 Y5
G1 E0.08
G1 F1200 X129.4 Y80.54 E1.64626
M204 S625
M205 X6 Y6
G1 F4285.7 X129.4 Y80.17 E0
G1 F4200 X70.6 Y80.17 E0
M204 S500
M205 X5 Y5
G1 E0.08
G1 F1200 X129.4 Y80.17 E1.64626
M204 S625
M205 X6 Y6
G1 F4285.7 X129.4 Y79.8 E0
G1 F4200 X70.6 Y79.8 E0
M204 S500
M205 X5 Y5
G1 E0.08
G1 F1200 X129.4 Y79.8 E1.64626
M204 S625
M205 X6 Y6
G1 F4285.7 X129.4 Y79.43 E0
G1 F4200 X70.6 Y79.43 E0
M204 S500
M205 X5 Y5
G1 E0.08
G1 F1200 X129.4 Y79.43 E1.64626
M204 S625
M205 X6 Y6
G1 F4285.7 X129.4 Y79.06 E0
G1 F4200 X70.6 Y79.06 E0
M204 S500
M205 X5 Y5
G1 E0.08
G1 F1200 X129.4 Y79.06 E1.64626
M204 S625
M205 X6 Y6
G1 F4285.7 X129.4 Y78.69 E0
G1 F4200 X70.6 Y78.69 E0
M204 S500
M205 X5 Y5
G1 E0.08
G1 F1200 X129.4 Y78.69 E1.64626
M204 S625
M205 X6 Y6
G1 F4285.7 X129.4 Y78.32 E0
G1 F4200 X70.6 Y78.32 E0
M204 S500
M205 X5 Y5
G1 E0.08
G1 F1200 X129.4 Y78.32 E1.64626
M204 S625
M205 X6 Y6
G1 F4285.7 X129.4 Y77.95 E0
G1 F4200 X70.6 Y77.95 E0
M204 S500
M205 X5 Y5
G1 E0.08
G1 F1200 X129.4 Y77.95 E1.64626
M204 S625
M205 X6 Y6
G1 F4285.7 X129.4 Y77.58 E0
G1 F4200 X70.6 Y77.58 E0
M204 S500
M205 X5 Y5
G1 E0.08
G1 F1200 X129.4 Y77.58 E1.64626
M204 S625
M205 X6 Y6
G1 F4285.7 X129.4 Y77.21 E0
G1 F4200 X70.6 Y77.21 E0
M204 S500
M205 X5 Y5
G1 E0.08
G1 F1200 X129.4 Y77.21 E1.64626
M204 S625
M205 X6 Y6
G1 F4285.7 X129.4 Y76.84 E0
G1 F4200 X70.6 Y76.84 E0
M204 S500
M205 X5 Y5
G1 E0.08
G1 F1200 X129.4 Y76.84 E1.64626
M204 S625
M205 X6 Y6
G1 F4285.7 X129.4 Y76.47 E0
G1 F4200 X70.6 Y76.47 E0
M204 S500
M205 X5 Y5
G1 E0.08
G1 F1200 X129.4 Y76.47 E1.64626
M204 S625
M205 X6 Y6
G1 F4285.7 X129.4 Y76.1 E0
G1 F4200 X70.6 Y76.1 E0
M204 S500
M205 X5 Y5
G1 E0.08
G1 F1200 X129.4 Y76.1 E1.64626
M204 S625
M205 X6 Y6
G1 F4285.7 X129.4 Y75.73 E0
G1 F4200 X70.6 Y75.73 E0
M204 S500
M205 X5 Y5
G1 E0.08
G1 F1200 X129.4 Y75.73 E1.64626
M204 S625
M205 X6 Y6
G1 F4285.7 X129.4 Y75.36 E0
G1 F4200 X70.6 Y75.36 E0
M204 S500
M205 X5 Y5
G1 E0.08
G1 F1200 X129.4 Y75.36 E1.64626
M204 S625
M205 X6 Y6
G1 F4285.7 X129.4 Y74.99 E0
G1 F4200 X70.6 Y74.99 E0
M204 S500
M205 X5 Y5
G1 E0.08
G1 F1200 X129.4 Y74.99 E1.64626
M204 S625
M205 X6 Y6
G1 F4285.7 X129.4 Y74.62 E0
G1 F4200 X70.6 Y74.62 E0
M204 S500
M205 X5 Y5
G1 E0.08
G1 F1200 X129.4 Y74.62 E1.64626
M204 S625
M205 X6 Y6
G1 F4285.7 X129.4 Y74.25 E0
G1 F4200 X70.6 Y74.25 E0
M204 S500
M205 X5 Y5
G1 E0.08
G1 F1200 X129.4 Y74.25 E1.64626
M204 S625
M205 X6 Y6
G1 F4285.7 X129.4 Y73.88 E0
G1 F4200 X70.6 Y73.88 E0
M204 S500
M205 X5 Y5
G1 E0.08
G1 F1200 X129.4 Y73.88 E1.64626
M204 S625
M205 X6 Y6
G1 F4285.7 X129.4 Y73.51 E0
G1 F4200 X70.6 Y73.51 E0
M204 S500
M205 X5 Y5
G1 E0.08
G1 F1200 X129.4 Y73.51 E1.64626
M204 S625
M205 X6 Y6
G1 F4285.7 X129.4 Y73.14 E0
G1 F4200 X70.6 Y73.14 E0
M204 S500
M205 X5 Y5
G1 E0.08
G1 F1200 X129.4 Y73.14 E1.64626
M204 S625
M205 X6 Y6
G1 F4285.7 X129.4 Y72.77 E0
G1 F4200 X70.6 Y72.77 E0
M204 S500
M205 X5 Y5
G1 E0.08
G1 F1200 X129.4 Y72.77 E1.64626
M204 S625
M205 X6 Y6
G1 F4285.7 X129.4 Y72.4 E0
G1 F4200 X70.6 Y72.4 E0
M204 S500
