; generated by Slic3r Prusa Edition 1.41.3+linux64 on 2021-02-03 at 14:46:03

; 

; external perimeters extrusion width = 0.45mm
; perimeters extrusion width = 0.45mm
; infill extrusion width = 0.45mm
; solid infill extrusion width = 0.45mm
; top infill extrusion width = 0.40mm
; first layer extrusion width = 0.42mm

M73 P0 R33
M73 Q0 S33
M201 X1000 Y1000 Z1000 E5000 ; sets maximum accelerations, mm/sec^2
M203 X200 Y200 Z12 E120 ; sets maximum feedrates, mm/sec
M204 P1250 R1250 T1250 ; sets acceleration (P, T) and retract acceleration (R), mm/sec^2
M205 X8.00 Y8.00 Z0.40 E1.50 ; sets the jerk limits, mm/sec
M205 S0 T0 ; sets the minimum extruding and travel feed rate, mm/sec
M107
M115 U3.5.1 ; tell printer latest fw version
M83  ; extruder relative mode
M104 S220 ; set extruder temp
M140 S100 ; set bed temp
M190 S100 ; wait for bed temp
M109 S220 ; wait for extruder temp
G28 W ; home all without mesh bed level
G80 ; mesh bed leveling
G1 Y-3.0 F1000.0 ; go outside print area
G92 E0.0
G1 X60.0 E9.0  F1000.0 ; intro line
M73 Q0 S33
M73 P0 R33
G1 X100.0 E12.5  F1000.0 ; intro line
G92 E0.0
M221 S95
M900 K10; Filament gcode
G21 ; set units to millimeters
G90 ; use absolute coordinates
M83 ; use relative distances for extrusion
;BEFORE_LAYER_CHANGE
G92 E0.0
;0.2


G1 E-0.80000 F2100.00000
G1 Z0.600 F10800.000
;AFTER_LAYER_CHANGE
;0.2
G1 X96.230 Y76.579
G1 Z0.200
G1 E0.80000 F2100.00000
M204 S1000
G1 F1200
G1 X96.987 Y75.897 E0.02874
G1 X97.864 Y75.379 E0.02874
G1 X98.826 Y75.047 E0.02874
G1 X99.841 Y74.912 E0.02889
G1 X150.006 Y74.909 E1.41559
G1 X150.959 Y75.000 E0.02701
G1 X151.878 Y75.268 E0.02701
G1 X152.730 Y75.704 E0.02701
G1 X153.486 Y76.291 E0.02701
G1 X154.116 Y77.005 E0.02686
G1 X154.604 Y77.828 E0.02701
G1 X154.929 Y78.729 E0.02701
G1 X155.080 Y79.674 E0.02701
G1 X155.089 Y130.123 E1.42361
G1 X154.988 Y131.019 E0.02545
G1 X154.728 Y131.888 E0.02560
G1 X154.317 Y132.697 E0.02560
G1 X153.770 Y133.421 E0.02560
G1 X152.986 Y134.123 E0.02968
G1 X152.076 Y134.648 E0.02968
G1 X151.076 Y134.976 E0.02968
G1 X150.031 Y135.090 E0.02968
G1 X99.872 Y135.089 E1.41543
G1 X98.976 Y134.986 E0.02545
G1 X98.107 Y134.725 E0.02560
G1 X97.303 Y134.317 E0.02545
G1 X96.579 Y133.770 E0.02560
G1 X95.877 Y132.986 E0.02968
G1 X95.352 Y132.076 E0.02968
G1 X95.024 Y131.076 E0.02968
G1 X94.910 Y130.031 E0.02968
G1 X94.911 Y79.872 E1.41543
G1 X95.014 Y78.976 E0.02545
G1 X95.275 Y78.107 E0.02560
G1 X95.683 Y77.303 E0.02545
G1 X96.194 Y76.627 E0.02391
G1 F8640
G1 X96.987 Y75.897 E-0.24876
G1 X97.864 Y75.379 E-0.23514
G1 X98.826 Y75.047 E-0.23514
G1 X99.002 Y75.023 E-0.04096
G1 E-0.04000 F2100.00000
G1 Z0.800 F10800.000
G1 X95.615 Y78.184
G1 Z0.200
G1 E0.80000 F2100.00000
G1 F1200
G1 X96.356 Y76.971 E0.04011
G1 X97.450 Y75.994 E0.04139
G1 X98.267 Y75.585 E0.02579
G1 X99.491 Y75.286 E0.03553
G1 X150.486 Y75.290 E1.43904
G1 X151.435 Y75.474 E0.02726
G1 X152.343 Y75.865 E0.02791
G1 X153.562 Y76.888 E0.04491
G1 X154.353 Y78.106 E0.04096
G1 X154.713 Y79.489 E0.04033
G1 X154.713 Y130.457 E1.43827
G1 X154.385 Y131.816 E0.03946
G1 X153.644 Y133.029 E0.04011
G1 X152.550 Y134.006 E0.04139
G1 X151.733 Y134.415 E0.02579
G1 X150.510 Y134.713 E0.03553
G1 X99.543 Y134.713 E1.43821
G1 X98.184 Y134.385 E0.03946
G1 X96.971 Y133.644 E0.04011
G1 X95.994 Y132.550 E0.04139
G1 X95.585 Y131.733 E0.02579
G1 X95.287 Y130.510 E0.03553
G1 X95.287 Y79.543 E1.43821
G1 X95.600 Y78.242 E0.03777
G1 X95.966 Y78.332 F10800.000
G1 F1200
G1 X96.629 Y77.233 E0.03621
G1 X97.644 Y76.319 E0.03854
G1 X98.380 Y75.945 E0.02329
G1 X99.514 Y75.664 E0.03298
G1 X150.468 Y75.667 E1.43785
G1 X151.341 Y75.840 E0.02512
G1 X152.166 Y76.199 E0.02541
G1 X153.297 Y77.158 E0.04183
G1 X153.996 Y78.232 E0.03616
G1 X154.336 Y79.513 E0.03742
G1 X154.336 Y130.434 E1.43691
G1 X154.026 Y131.698 E0.03672
G1 X153.371 Y132.767 E0.03540
G1 X152.356 Y133.681 E0.03854
G1 X151.620 Y134.055 E0.02329
G1 X150.486 Y134.336 E0.03297
G1 X99.566 Y134.336 E1.43690
G1 X98.302 Y134.026 E0.03672
G1 X97.233 Y133.371 E0.03540
G1 X96.319 Y132.356 E0.03854
G1 X95.945 Y131.620 E0.02329
G1 X95.664 Y130.486 E0.03297
G1 X95.664 Y79.566 E1.43690
G1 X95.952 Y78.390 E0.03417
G1 X96.310 Y78.477 F10800.000
G1 F1200
G1 X96.904 Y77.493 E0.03243
G1 X97.839 Y76.642 E0.03568
G1 X98.494 Y76.305 E0.02078
G1 X99.538 Y76.041 E0.03038
G1 X150.448 Y76.044 E1.43664
G1 X151.246 Y76.205 E0.02295
G1 X151.988 Y76.533 E0.02290
G1 X153.030 Y77.426 E0.03872
G1 X153.663 Y78.410 E0.03303
G1 X153.959 Y79.538 E0.03290
G1 X153.959 Y130.412 E1.43561
G1 X153.689 Y131.528 E0.03242
G1 X153.096 Y132.507 E0.03229
G1 X152.161 Y133.358 E0.03568
G1 X151.506 Y133.695 E0.02078
G1 X150.462 Y133.959 E0.03038
G1 X99.588 Y133.959 E1.43560
G1 X98.472 Y133.689 E0.03242
G1 X97.493 Y133.096 E0.03229
G1 X96.642 Y132.161 E0.03568
G1 X96.305 Y131.506 E0.02078
G1 X96.041 Y130.462 E0.03038
G1 X96.041 Y79.588 E1.43560
G1 X96.296 Y78.535 E0.03058
G1 X96.650 Y78.640 F10800.000
G1 F1200
G1 X97.180 Y77.751 E0.02919
G1 X98.036 Y76.964 E0.03282
G1 X98.611 Y76.665 E0.01828
G1 X99.562 Y76.418 E0.02774
G1 X150.429 Y76.421 E1.43539
G1 X151.148 Y76.570 E0.02074
G1 X151.808 Y76.865 E0.02039
G1 X152.762 Y77.692 E0.03564
G1 X153.306 Y78.537 E0.02834
G1 X153.582 Y79.563 E0.02998
G1 X153.582 Y130.390 E1.43427
G1 X153.350 Y131.360 E0.02817
G1 X152.820 Y132.249 E0.02919
G1 X151.964 Y133.036 E0.03282
G1 X151.389 Y133.335 E0.01828
G1 X150.438 Y133.582 E0.02774
G1 X99.610 Y133.582 E1.43429
G1 X98.640 Y133.350 E0.02817
G1 X97.751 Y132.820 E0.02919
G1 X96.964 Y131.964 E0.03282
G1 X96.665 Y131.389 E0.01828
G1 X96.418 Y130.438 E0.02774
G1 X96.418 Y79.610 E1.43429
M73 Q3 S32
M73 P3 R32
G1 X96.636 Y78.698 E0.02647
G1 X96.990 Y78.805 F10800.000
G1 F1200
G1 X97.457 Y78.008 E0.02608
G1 X98.236 Y77.285 E0.02997
G1 X98.729 Y77.023 E0.01577
G1 X99.587 Y76.795 E0.02505
G1 X150.410 Y76.798 E1.43415
G1 X151.013 Y76.923 E0.01739
G1 X151.628 Y77.197 E0.01899
G1 X152.492 Y77.957 E0.03248
G1 X152.972 Y78.714 E0.02528
G1 X153.205 Y79.587 E0.02551
G1 X153.205 Y130.368 E1.43298
G1 X153.010 Y131.195 E0.02397
G1 X152.543 Y131.992 E0.02608
G1 X151.764 Y132.715 E0.02997
G1 X151.271 Y132.977 E0.01577
G1 X150.413 Y133.205 E0.02505
G1 X99.632 Y133.205 E1.43297
G1 X98.805 Y133.010 E0.02397
G1 X98.008 Y132.543 E0.02608
G1 X97.285 Y131.764 E0.02997
G1 X97.023 Y131.271 E0.01577
G1 X96.795 Y130.413 E0.02505
G1 X96.795 Y79.632 E1.43297
G1 X96.976 Y78.864 E0.02228
G1 X97.331 Y78.968 F10800.000
G1 F1200
G1 X97.737 Y78.263 E0.02296
G1 X98.438 Y77.604 E0.02714
G1 X98.851 Y77.380 E0.01327
G1 X99.613 Y77.172 E0.02229
G1 X150.389 Y77.176 E1.43284
G1 X150.914 Y77.287 E0.01513
G1 X151.445 Y77.528 E0.01646
G1 X152.222 Y78.221 E0.02937
G1 X152.616 Y78.841 E0.02075
G1 X152.828 Y79.613 E0.02259
G1 X152.828 Y130.347 E1.43165
G1 X152.669 Y131.032 E0.01985
G1 X152.263 Y131.737 E0.02296
G1 X151.562 Y132.396 E0.02714
G1 X151.149 Y132.620 E0.01327
G1 X150.387 Y132.828 E0.02229
G1 X99.653 Y132.828 E1.43164
G1 X98.968 Y132.669 E0.01985
G1 X98.263 Y132.263 E0.02296
G1 X97.604 Y131.562 E0.02714
G1 X97.380 Y131.149 E0.01327
G1 X97.172 Y130.387 E0.02229
G1 X97.172 Y79.653 E1.43164
G1 X97.318 Y79.026 E0.01816
G1 X97.674 Y79.128 F10800.000
G1 F1200
G1 X98.018 Y78.515 E0.01983
G1 X98.643 Y77.922 E0.02432
G1 X98.976 Y77.737 E0.01076
G1 X99.640 Y77.549 E0.01946
G1 X150.368 Y77.553 E1.43148
G1 X150.811 Y77.650 E0.01281
G1 X151.259 Y77.858 E0.01393
G1 X151.950 Y78.483 E0.02628
G1 X152.262 Y78.971 E0.01636
G1 X152.451 Y79.640 E0.01961
G1 X152.451 Y130.326 E1.43030
G1 X152.326 Y130.872 E0.01581
G1 X151.982 Y131.485 E0.01983
G1 X151.357 Y132.078 E0.02432
G1 X151.024 Y132.263 E0.01076
G1 X150.360 Y132.451 E0.01946
G1 X99.674 Y132.451 E1.43030
G1 X99.128 Y132.326 E0.01581
G1 X98.515 Y131.982 E0.01983
G1 X97.922 Y131.357 E0.02432
G1 X97.737 Y131.024 E0.01076
G1 X97.549 Y130.360 E0.01946
G1 X97.549 Y79.674 E1.43030
G1 X97.660 Y79.186 E0.01411
G1 X98.301 Y78.766 F10800.000
G1 F1200
G1 X98.851 Y78.237 E0.02154
G1 X99.106 Y78.091 E0.00827
G1 X99.668 Y77.926 E0.01654
G1 X150.346 Y77.930 E1.43006
G1 X150.705 Y78.013 E0.01041
G1 X151.071 Y78.185 E0.01141
G1 X151.676 Y78.743 E0.02322
G1 X151.908 Y79.105 E0.01212
G1 X152.074 Y79.668 E0.01657
G1 X152.074 Y130.306 E1.42894
G1 X151.982 Y130.716 E0.01186
G1 X151.699 Y131.234 E0.01667
G1 X151.149 Y131.763 E0.02154
G1 X150.894 Y131.909 E0.00827
G1 X150.332 Y132.074 E0.01654
G1 X99.694 Y132.074 E1.42894
G1 X99.284 Y131.982 E0.01186
G1 X98.766 Y131.699 E0.01667
G1 X98.237 Y131.149 E0.02154
G1 X98.091 Y130.894 E0.00827
G1 X97.926 Y130.332 E0.01654
G1 X97.926 Y79.694 E1.42894
G1 X98.018 Y79.284 E0.01186
G1 X98.272 Y78.819 E0.01498
G1 X98.587 Y79.014 F10800.000
G1 F1200
G1 X99.064 Y78.548 E0.01880
G1 X99.241 Y78.444 E0.00579
G1 X99.698 Y78.303 E0.01350
G1 X150.324 Y78.307 E1.42862
G1 X150.562 Y78.362 E0.00690
G1 X150.882 Y78.513 E0.00999
G1 X151.401 Y79.001 E0.02009
G1 X151.556 Y79.242 E0.00808
G1 X151.697 Y79.698 E0.01346
G1 X151.697 Y130.286 E1.42755
G1 X151.636 Y130.564 E0.00803
G1 X151.413 Y130.986 E0.01347
G1 X150.936 Y131.452 E0.01880
G1 X150.759 Y131.556 E0.00579
G1 X150.302 Y131.697 E0.01350
G1 X99.714 Y131.697 E1.42755
G1 X99.436 Y131.636 E0.00803
G1 X99.014 Y131.413 E0.01347
G1 X98.548 Y130.936 E0.01880
G1 X98.444 Y130.759 E0.00579
G1 X98.303 Y130.302 E0.01350
G1 X98.303 Y79.714 E1.42755
G1 X98.364 Y79.436 E0.00803
G1 X98.559 Y79.067 E0.01178
G1 X98.712 Y79.582 F10800.000
G1 F1200
G1 X98.875 Y79.259 E0.01021
G1 X99.282 Y78.856 E0.01616
G1 X99.383 Y78.794 E0.00333
G1 X99.729 Y78.680 E0.01029
G1 X150.302 Y78.684 E1.42710
G1 X150.419 Y78.711 E0.00339
G1 X150.692 Y78.840 E0.00853
G1 X151.123 Y79.257 E0.01692
G1 X151.207 Y79.385 E0.00431
G1 X151.320 Y79.729 E0.01023
G1 X151.320 Y130.267 E1.42613
G1 X151.288 Y130.418 E0.00436
G1 X151.125 Y130.741 E0.01021
G1 X150.718 Y131.144 E0.01616
G1 X150.617 Y131.206 E0.00333
G1 X150.271 Y131.320 E0.01029
G1 X99.733 Y131.320 E1.42613
M73 Q6 S31
M73 P6 R31
G1 X99.582 Y131.288 E0.00436
G1 X99.259 Y131.125 E0.01021
G1 X98.856 Y130.718 E0.01616
G1 X98.794 Y130.617 E0.00333
G1 X98.680 Y130.271 E0.01029
G1 X98.680 Y79.733 E1.42613
G1 X98.700 Y79.640 E0.00266
G1 X99.064 Y79.718 F10800.000
G1 F1200
G1 X99.167 Y79.500 E0.00682
G1 X99.510 Y79.157 E0.01370
G1 X99.764 Y79.057 E0.00771
G1 X150.250 Y79.057 E1.42464
G1 X150.500 Y79.167 E0.00771
G1 X150.843 Y79.510 E0.01370
G1 X150.943 Y79.764 E0.00771
G1 X150.943 Y130.250 E1.42464
G1 X150.833 Y130.500 E0.00771
G1 X150.490 Y130.843 E0.01370
G1 X150.236 Y130.943 E0.00771
G1 X99.750 Y130.943 E1.42464
G1 X99.500 Y130.833 E0.00771
G1 X99.157 Y130.490 E0.01370
G1 X99.057 Y130.236 E0.00771
G1 X99.057 Y79.778 E1.42386
G1 X99.463 Y79.737 F10800.000
G1 F1200
G1 X99.737 Y79.463 E0.01093
G1 X99.806 Y79.434 E0.00212
G1 X150.194 Y79.434 E1.42188
G1 X150.263 Y79.463 E0.00212
G1 X150.537 Y79.737 E0.01093
G1 X150.566 Y79.806 E0.00212
G1 X150.566 Y130.194 E1.42188
G1 X150.537 Y130.263 E0.00212
G1 X150.263 Y130.537 E0.01093
G1 X150.194 Y130.566 E0.00212
G1 X99.806 Y130.566 E1.42188
G1 X99.737 Y130.537 E0.00212
G1 X99.463 Y130.263 E0.01093
G1 X99.434 Y130.194 E0.00212
G1 X99.440 Y79.792 E1.42227
G1 X99.811 Y79.922 F10800.000
G1 F1200
G1 X99.922 Y79.811 E0.00441
G1 X150.078 Y79.811 E1.41535
G1 X150.189 Y79.922 E0.00441
G1 X150.189 Y130.078 E1.41535
G1 X150.078 Y130.189 E0.00441
G1 X99.922 Y130.189 E1.41535
G1 X99.811 Y130.078 E0.00441
G1 X99.811 Y79.982 E1.41366
; PURGING FINISHED
G1 X100.210 Y80.210 F10800.000
G1 F1200
G1 X149.790 Y80.210 E1.39909
G1 X149.790 Y129.790 E1.39909
G1 X100.210 Y129.790 E1.39909
G1 X100.210 Y80.270 E1.39740
G1 X100.596 Y80.314 F10800.000
G1 X100.587 Y80.587
G1 F1200
G1 X149.413 Y80.587 E1.37781
G1 X149.413 Y129.413 E1.37781
G1 X100.587 Y129.413 E1.37781
G1 X100.587 Y80.647 E1.37612
G1 F8640
G1 X103.879 Y80.643 E-0.76000
G1 E-0.04000 F2100.00000
G1 Z0.800 F10800.000
G1 X101.464 Y129.300
G1 Z0.200
G1 E0.80000 F2100.00000
G1 F1200
G1 X100.870 Y128.705 E0.02378
G1 X100.870 Y128.171 E0.01512
G1 X101.829 Y129.130 E0.03837
G1 X102.364 Y129.130 E0.01512
G1 X100.870 Y127.636 E0.05975
G1 X100.870 Y127.102 E0.01512
G1 X102.898 Y129.130 E0.08112
G1 X103.433 Y129.130 E0.01512
G1 X100.870 Y126.567 E0.10250
G1 X100.870 Y126.033 E0.01512
G1 X103.967 Y129.130 E0.12388
G1 X104.501 Y129.130 E0.01512
G1 X100.870 Y125.499 E0.14526
G1 X100.870 Y124.964 E0.01512
G1 X105.036 Y129.130 E0.16663
G1 X105.570 Y129.130 E0.01512
G1 X100.870 Y124.430 E0.18801
G1 X100.870 Y123.895 E0.01512
G1 X106.105 Y129.130 E0.20939
G1 X106.639 Y129.130 E0.01512
G1 X100.870 Y123.361 E0.23077
G1 X100.870 Y122.826 E0.01512
G1 X107.174 Y129.130 E0.25215
G1 X107.708 Y129.130 E0.01512
G1 X100.870 Y122.292 E0.27352
G1 X100.870 Y121.757 E0.01512
G1 X108.243 Y129.130 E0.29490
G1 X108.777 Y129.130 E0.01512
G1 X100.870 Y121.223 E0.31628
G1 X100.870 Y120.688 E0.01512
G1 X109.312 Y129.130 E0.33766
G1 X109.846 Y129.130 E0.01512
G1 X100.870 Y120.154 E0.35903
M73 Q9 S30
M73 P9 R30
G1 X100.870 Y119.619 E0.01512
G1 X110.381 Y129.130 E0.38041
G1 X110.915 Y129.130 E0.01512
G1 X100.870 Y119.085 E0.40179
G1 X100.870 Y118.550 E0.01512
G1 X111.450 Y129.130 E0.42317
G1 X111.984 Y129.130 E0.01512
G1 X100.870 Y118.016 E0.44454
G1 X100.870 Y117.481 E0.01512
G1 X112.519 Y129.130 E0.46592
G1 X113.053 Y129.130 E0.01512
G1 X100.870 Y116.947 E0.48730
G1 X100.870 Y116.412 E0.01512
G1 X113.588 Y129.130 E0.50868
G1 X114.122 Y129.130 E0.01512
G1 X100.870 Y115.878 E0.53006
G1 X100.870 Y115.343 E0.01512
G1 X114.657 Y129.130 E0.55143
G1 X115.191 Y129.130 E0.01512
G1 X100.870 Y114.809 E0.57281
G1 X100.870 Y114.275 E0.01512
G1 X115.725 Y129.130 E0.59419
G1 X116.260 Y129.130 E0.01512
G1 X100.870 Y113.740 E0.61557
G1 X100.870 Y113.206 E0.01512
G1 X116.794 Y129.130 E0.63694
G1 X117.329 Y129.130 E0.01512
G1 X100.870 Y112.671 E0.65832
G1 X100.870 Y112.137 E0.01512
G1 X117.863 Y129.130 E0.67970
G1 X118.398 Y129.130 E0.01512
G1 X100.870 Y111.602 E0.70108
G1 X100.870 Y111.068 E0.01512
G1 X118.932 Y129.130 E0.72246
G1 X119.467 Y129.130 E0.01512
G1 X100.870 Y110.533 E0.74383
G1 X100.870 Y109.999 E0.01512
G1 X120.001 Y129.130 E0.76521
G1 X120.536 Y129.130 E0.01512
G1 X100.870 Y109.464 E0.78659
G1 X100.870 Y108.930 E0.01512
G1 X121.070 Y129.130 E0.80797
G1 X121.605 Y129.130 E0.01512
G1 X100.870 Y108.395 E0.82934
G1 X100.870 Y107.861 E0.01512
G1 X122.139 Y129.130 E0.85072
G1 X122.674 Y129.130 E0.01512
G1 X100.870 Y107.326 E0.87210
G1 X100.870 Y106.792 E0.01512
G1 X123.208 Y129.130 E0.89348
G1 X123.743 Y129.130 E0.01512
G1 X100.870 Y106.257 E0.91485
G1 X100.870 Y105.723 E0.01512
G1 X124.277 Y129.130 E0.93623
G1 X124.812 Y129.130 E0.01512
G1 X100.870 Y105.188 E0.95761
G1 X100.870 Y104.654 E0.01512
G1 X125.346 Y129.130 E0.97899
G1 X125.881 Y129.130 E0.01512
G1 X100.870 Y104.119 E1.00037
G1 X100.870 Y103.585 E0.01512
G1 X126.415 Y129.130 E1.02174
G1 X126.949 Y129.130 E0.01512
G1 X100.870 Y103.051 E1.04312
G1 X100.870 Y102.516 E0.01512
G1 X127.484 Y129.130 E1.06450
G1 X128.018 Y129.130 E0.01512
G1 X100.870 Y101.982 E1.08588
G1 X100.870 Y101.447 E0.01512
G1 X128.553 Y129.130 E1.10725
G1 X129.087 Y129.130 E0.01512
G1 X100.870 Y100.913 E1.12863
G1 X100.870 Y100.378 E0.01512
G1 X129.622 Y129.130 E1.15001
G1 X130.156 Y129.130 E0.01512
G1 X100.870 Y99.844 E1.17139
G1 X100.870 Y99.309 E0.01512
G1 X130.691 Y129.130 E1.19277
G1 X131.225 Y129.130 E0.01512
G1 X100.870 Y98.775 E1.21414
G1 X100.870 Y98.240 E0.01512
G1 X131.760 Y129.130 E1.23552
M73 Q12 S29
M73 P12 R29
G1 X132.294 Y129.130 E0.01512
G1 X100.870 Y97.706 E1.25690
G1 X100.870 Y97.171 E0.01512
G1 X132.829 Y129.130 E1.27828
G1 X133.363 Y129.130 E0.01512
G1 X100.870 Y96.637 E1.29965
G1 X100.870 Y96.102 E0.01512
G1 X133.898 Y129.130 E1.32103
G1 X134.432 Y129.130 E0.01512
G1 X100.870 Y95.568 E1.34241
G1 X100.870 Y95.033 E0.01512
G1 X134.967 Y129.130 E1.36379
G1 X135.501 Y129.130 E0.01512
G1 X100.870 Y94.499 E1.38516
G1 X100.870 Y93.964 E0.01512
G1 X136.036 Y129.130 E1.40654
G1 X136.570 Y129.130 E0.01512
G1 X100.870 Y93.430 E1.42792
G1 X100.870 Y92.896 E0.01512
G1 X137.104 Y129.130 E1.44930
G1 X137.639 Y129.130 E0.01512
G1 X100.870 Y92.361 E1.47068
G1 X100.870 Y91.827 E0.01512
