; generated by Slic3r Prusa Edition 1.41.3+linux64 on 2021-05-04 at 11:52:30

; 

; external perimeters extrusion width = 0.45mm
; perimeters extrusion width = 0.45mm
; infill extrusion width = 0.45mm
; solid infill extrusion width = 0.45mm
; top infill extrusion width = 0.40mm
; first layer extrusion width = 0.42mm

M73 P0 R18
M73 Q0 S18
M201 X1000 Y1000 Z1000 E5000 ; sets maximum accelerations, mm/sec^2
M203 X200 Y200 Z12 E120 ; sets maximum feedrates, mm/sec
M204 P1250 R1250 T1250 ; sets acceleration (P, T) and retract acceleration (R), mm/sec^2
M205 X8.00 Y8.00 Z0.40 E1.50 ; sets the jerk limits, mm/sec
M205 S0 T0 ; sets the minimum extruding and travel feed rate, mm/sec
M107
M115 U3.5.1 ; tell printer latest fw version
M83  ; extruder relative mode
M104 S220 ; set extruder temp
M140 S100 ; set bed temp
M190 S100 ; wait for bed temp
M109 S220 ; wait for extruder temp
G28 W ; home all without mesh bed level
G80 ; mesh bed leveling
G1 Y-3.0 F1000.0 ; go outside print area
G92 E0.0
G1 X60.0 E9.0  F1000.0 ; intro line
M73 Q0 S18
M73 P0 R18
G1 X100.0 E12.5  F1000.0 ; intro line
G92 E0.0
M221 S95
M900 K10; Filament gcode
G21 ; set units to millimeters
G90 ; use absolute coordinates
M83 ; use relative distances for extrusion
;BEFORE_LAYER_CHANGE
G92 E0.0
;0.2


G1 E-0.80000 F2100.00000
G1 Z0.600 F10800.000
;AFTER_LAYER_CHANGE
;0.2
G1 X99.127 Y77.993
G1 Z0.200
G1 E0.80000 F2100.00000
M204 S1000
G1 F1200
G1 X99.972 Y77.812 E0.02438
G1 X150.004 Y77.811 E1.41183
G1 X150.823 Y77.972 E0.02358
G1 X151.526 Y78.431 E0.02368
G1 X152.003 Y79.117 E0.02358
G1 X152.188 Y79.936 E0.02368
G1 X152.188 Y130.026 E1.41348
G1 X152.026 Y130.827 E0.02307
G1 X151.582 Y131.513 E0.02307
G1 X150.863 Y132.011 E0.02469
G1 X150.002 Y132.189 E0.02479
G1 X99.974 Y132.188 E1.41173
G1 X99.173 Y132.026 E0.02307
G1 X98.487 Y131.582 E0.02307
G1 X97.989 Y130.863 E0.02469
G1 X97.811 Y130.002 E0.02479
G1 X97.812 Y79.974 E1.41173
G1 X97.974 Y79.173 E0.02307
G1 X98.418 Y78.487 E0.02307
G1 X99.078 Y78.027 E0.02269
; PURGING FINISHED
G1 F8640
G1 X99.972 Y77.812 E-0.21237
G1 X102.344 Y77.812 E-0.54763
G1 E-0.04000 F2100.00000
G1 Z0.800 F10800.000
G1 X100.587 Y80.587
G1 Z0.200
G1 E0.80000 F2100.00000
G1 F1200
G1 X149.413 Y80.587 E1.37781
G1 X149.413 Y129.413 E1.37781
G1 X100.587 Y129.413 E1.37781
G1 X100.587 Y80.647 E1.37612
G1 X100.210 Y80.210 F10800.000
G1 F1200
G1 X149.790 Y80.210 E1.39909
G1 X149.790 Y129.790 E1.39909
G1 X100.210 Y129.790 E1.39909
G1 X100.210 Y80.270 E1.39740
G1 X100.596 Y80.314 F10800.000
G1 F8640
G1 X103.501 Y80.266 E-0.76000
G1 E-0.04000 F2100.00000
G1 Z0.800 F10800.000
G1 X101.464 Y129.300
G1 Z0.200
G1 E0.80000 F2100.00000
G1 F1200
G1 X100.870 Y128.705 E0.02378
G1 X100.870 Y128.171 E0.01512
G1 X101.829 Y129.130 E0.03837
G1 X102.364 Y129.130 E0.01512
G1 X100.870 Y127.636 E0.05975
G1 X100.870 Y127.102 E0.01512
G1 X102.898 Y129.130 E0.08112
G1 X103.433 Y129.130 E0.01512
G1 X100.870 Y126.567 E0.10250
G1 X100.870 Y126.033 E0.01512
G1 X103.967 Y129.130 E0.12388
G1 X104.501 Y129.130 E0.01512
G1 X100.870 Y125.499 E0.14526
G1 X100.870 Y124.964 E0.01512
G1 X105.036 Y129.130 E0.16663
G1 X105.570 Y129.130 E0.01512
G1 X100.870 Y124.430 E0.18801
G1 X100.870 Y123.895 E0.01512
G1 X106.105 Y129.130 E0.20939
G1 X106.639 Y129.130 E0.01512
G1 X100.870 Y123.361 E0.23077
G1 X100.870 Y122.826 E0.01512
G1 X107.174 Y129.130 E0.25215
G1 X107.708 Y129.130 E0.01512
G1 X100.870 Y122.292 E0.27352
G1 X100.870 Y121.757 E0.01512
G1 X108.243 Y129.130 E0.29490
G1 X108.777 Y129.130 E0.01512
G1 X100.870 Y121.223 E0.31628
G1 X100.870 Y120.688 E0.01512
G1 X109.312 Y129.130 E0.33766
G1 X109.846 Y129.130 E0.01512
G1 X100.870 Y120.154 E0.35903
G1 X100.870 Y119.619 E0.01512
G1 X110.381 Y129.130 E0.38041
G1 X110.915 Y129.130 E0.01512
G1 X100.870 Y119.085 E0.40179
G1 X100.870 Y118.550 E0.01512
G1 X111.450 Y129.130 E0.42317
G1 X111.984 Y129.130 E0.01512
G1 X100.870 Y118.016 E0.44454
G1 X100.870 Y117.481 E0.01512
G1 X112.519 Y129.130 E0.46592
G1 X113.053 Y129.130 E0.01512
G1 X100.870 Y116.947 E0.48730
G1 X100.870 Y116.412 E0.01512
G1 X113.588 Y129.130 E0.50868
G1 X114.122 Y129.130 E0.01512
G1 X100.870 Y115.878 E0.53006
G1 X100.870 Y115.343 E0.01512
G1 X114.657 Y129.130 E0.55143
G1 X115.191 Y129.130 E0.01512
G1 X100.870 Y114.809 E0.57281
G1 X100.870 Y114.275 E0.01512
G1 X115.725 Y129.130 E0.59419
G1 X116.260 Y129.130 E0.01512
G1 X100.870 Y113.740 E0.61557
G1 X100.870 Y113.206 E0.01512
G1 X116.794 Y129.130 E0.63694
G1 X117.329 Y129.130 E0.01512
G1 X100.870 Y112.671 E0.65832
G1 X100.870 Y112.137 E0.01512
G1 X117.863 Y129.130 E0.67970
G1 X118.398 Y129.130 E0.01512
G1 X100.870 Y111.602 E0.70108
G1 X100.870 Y111.068 E0.01512
G1 X118.932 Y129.130 E0.72246
G1 X119.467 Y129.130 E0.01512
G1 X100.870 Y110.533 E0.74383
M73 Q5 S17
G1 X100.870 Y109.999 E0.01512
G1 X120.001 Y129.130 E0.76521
M73 P5 R17
G1 X120.536 Y129.130 E0.01512
G1 X100.870 Y109.464 E0.78659
G1 X100.870 Y108.930 E0.01512
G1 X121.070 Y129.130 E0.80797
G1 X121.605 Y129.130 E0.01512
G1 X100.870 Y108.395 E0.82934
G1 X100.870 Y107.861 E0.01512
G1 X122.139 Y129.130 E0.85072
G1 X122.674 Y129.130 E0.01512
G1 X100.870 Y107.326 E0.87210
G1 X100.870 Y106.792 E0.01512
G1 X123.208 Y129.130 E0.89348
G1 X123.743 Y129.130 E0.01512
G1 X100.870 Y106.257 E0.91485
G1 X100.870 Y105.723 E0.01512
G1 X124.277 Y129.130 E0.93623
G1 X124.812 Y129.130 E0.01512
G1 X100.870 Y105.188 E0.95761
G1 X100.870 Y104.654 E0.01512
G1 X125.346 Y129.130 E0.97899
G1 X125.881 Y129.130 E0.01512
G1 X100.870 Y104.119 E1.00037
G1 X100.870 Y103.585 E0.01512
G1 X126.415 Y129.130 E1.02174
G1 X126.949 Y129.130 E0.01512
G1 X100.870 Y103.051 E1.04312
G1 X100.870 Y102.516 E0.01512
G1 X127.484 Y129.130 E1.06450
G1 X128.018 Y129.130 E0.01512
G1 X100.870 Y101.982 E1.08588
G1 X100.870 Y101.447 E0.01512
G1 X128.553 Y129.130 E1.10725
G1 X129.087 Y129.130 E0.01512
G1 X100.870 Y100.913 E1.12863
G1 X100.870 Y100.378 E0.01512
G1 X129.622 Y129.130 E1.15001
G1 X130.156 Y129.130 E0.01512
G1 X100.870 Y99.844 E1.17139
G1 X100.870 Y99.309 E0.01512
G1 X130.691 Y129.130 E1.19277
G1 X131.225 Y129.130 E0.01512
G1 X100.870 Y98.775 E1.21414
G1 X100.870 Y98.240 E0.01512
G1 X131.760 Y129.130 E1.23552
G1 X132.294 Y129.130 E0.01512
G1 X100.870 Y97.706 E1.25690
G1 X100.870 Y97.171 E0.01512
G1 X132.829 Y129.130 E1.27828
G1 X133.363 Y129.130 E0.01512
G1 X100.870 Y96.637 E1.29965
G1 X100.870 Y96.102 E0.01512
G1 X133.898 Y129.130 E1.32103
G1 X134.432 Y129.130 E0.01512
G1 X100.870 Y95.568 E1.34241
G1 X100.870 Y95.033 E0.01512
G1 X134.967 Y129.130 E1.36379
G1 X135.501 Y129.130 E0.01512
G1 X100.870 Y94.499 E1.38516
G1 X100.870 Y93.964 E0.01512
G1 X136.036 Y129.130 E1.40654
M73 Q11 S16
G1 X136.570 Y129.130 E0.01512
G1 X100.870 Y93.430 E1.42792
M73 P11 R16
G1 X100.870 Y92.896 E0.01512
G1 X137.104 Y129.130 E1.44930
G1 X137.639 Y129.130 E0.01512
G1 X100.870 Y92.361 E1.47068
G1 X100.870 Y91.827 E0.01512
G1 X138.173 Y129.130 E1.49205
G1 X138.708 Y129.130 E0.01512
G1 X100.870 Y91.292 E1.51343
G1 X100.870 Y90.758 E0.01512
G1 X139.242 Y129.130 E1.53481
G1 X139.777 Y129.130 E0.01512
G1 X100.870 Y90.223 E1.55619
G1 X100.870 Y89.689 E0.01512
G1 X140.311 Y129.130 E1.57756
G1 X140.846 Y129.130 E0.01512
G1 X100.870 Y89.154 E1.59894
G1 X100.870 Y88.620 E0.01512
G1 X141.380 Y129.130 E1.62032
G1 X141.915 Y129.130 E0.01512
G1 X100.870 Y88.085 E1.64170
G1 X100.870 Y87.551 E0.01512
G1 X142.449 Y129.130 E1.66308
G1 X142.984 Y129.130 E0.01512
G1 X100.870 Y87.016 E1.68445
G1 X100.870 Y86.482 E0.01512
G1 X143.518 Y129.130 E1.70583
G1 X144.053 Y129.130 E0.01512
G1 X100.870 Y85.947 E1.72721
G1 X100.870 Y85.413 E0.01512
G1 X144.587 Y129.130 E1.74859
G1 X145.122 Y129.130 E0.01512
G1 X100.870 Y84.878 E1.76996
G1 X100.870 Y84.344 E0.01512
G1 X145.656 Y129.130 E1.79134
G1 X146.191 Y129.130 E0.01512
G1 X100.870 Y83.809 E1.81272
G1 X100.870 Y83.275 E0.01512
G1 X146.725 Y129.130 E1.83410
G1 X147.260 Y129.130 E0.01512
G1 X100.870 Y82.740 E1.85547
M73 Q16 S15
G1 X100.870 Y82.206 E0.01512
G1 X147.794 Y129.130 E1.87685
M73 P17 R15
G1 X148.328 Y129.130 E0.01512
G1 X100.870 Y81.672 E1.89823
G1 X100.870 Y81.137 E0.01512
G1 X148.863 Y129.130 E1.91961
G1 X149.130 Y129.130 E0.00756
G1 X149.130 Y128.863 E0.00756
G1 X101.137 Y80.870 E1.91961
G1 X101.672 Y80.870 E0.01512
G1 X149.130 Y128.328 E1.89823
G1 X149.130 Y127.794 E0.01512
G1 X102.206 Y80.870 E1.87685
G1 X102.741 Y80.870 E0.01512
G1 X149.130 Y127.259 E1.85547
G1 X149.130 Y126.725 E0.01512
G1 X103.275 Y80.870 E1.83409
G1 X103.810 Y80.870 E0.01512
G1 X149.130 Y126.190 E1.81272
G1 X149.130 Y125.656 E0.01512
G1 X104.344 Y80.870 E1.79134
G1 X104.878 Y80.870 E0.01512
G1 X149.130 Y125.122 E1.76996
G1 X149.130 Y124.587 E0.01512
G1 X105.413 Y80.870 E1.74858
G1 X105.947 Y80.870 E0.01512
G1 X149.130 Y124.053 E1.72721
G1 X149.130 Y123.518 E0.01512
G1 X106.482 Y80.870 E1.70583
G1 X107.016 Y80.870 E0.01512
G1 X149.130 Y122.984 E1.68445
G1 X149.130 Y122.449 E0.01512
G1 X107.551 Y80.870 E1.66307
G1 X108.085 Y80.870 E0.01512
G1 X149.130 Y121.915 E1.64169
G1 X149.130 Y121.380 E0.01512
G1 X108.620 Y80.870 E1.62032
G1 X109.154 Y80.870 E0.01512
G1 X149.130 Y120.846 E1.59894
M73 Q22 S14
G1 X149.130 Y120.311 E0.01512
G1 X109.689 Y80.870 E1.57756
M73 P22 R14
G1 X110.223 Y80.870 E0.01512
G1 X149.130 Y119.777 E1.55618
G1 X149.130 Y119.242 E0.01512
G1 X110.758 Y80.870 E1.53481
G1 X111.292 Y80.870 E0.01512
G1 X149.130 Y118.708 E1.51343
G1 X149.130 Y118.173 E0.01512
G1 X111.827 Y80.870 E1.49205
G1 X112.361 Y80.870 E0.01512
G1 X149.130 Y117.639 E1.47067
G1 X149.130 Y117.104 E0.01512
G1 X112.896 Y80.870 E1.44930
G1 X113.430 Y80.870 E0.01512
G1 X149.130 Y116.570 E1.42792
G1 X149.130 Y116.035 E0.01512
G1 X113.965 Y80.870 E1.40654
G1 X114.499 Y80.870 E0.01512
G1 X149.130 Y115.501 E1.38516
G1 X149.130 Y114.967 E0.01512
G1 X115.033 Y80.870 E1.36378
G1 X115.568 Y80.870 E0.01512
G1 X149.130 Y114.432 E1.34241
G1 X149.130 Y113.898 E0.01512
G1 X116.102 Y80.870 E1.32103
G1 X116.637 Y80.870 E0.01512
G1 X149.130 Y113.363 E1.29965
G1 X149.130 Y112.829 E0.01512
G1 X117.171 Y80.870 E1.27827
G1 X117.706 Y80.870 E0.01512
G1 X149.130 Y112.294 E1.25690
G1 X149.130 Y111.760 E0.01512
G1 X118.240 Y80.870 E1.23552
G1 X118.775 Y80.870 E0.01512
G1 X149.130 Y111.225 E1.21414
G1 X149.130 Y110.691 E0.01512
G1 X119.309 Y80.870 E1.19276
G1 X119.844 Y80.870 E0.01512
G1 X149.130 Y110.156 E1.17138
G1 X149.130 Y109.622 E0.01512
G1 X120.378 Y80.870 E1.15001
G1 X120.913 Y80.870 E0.01512
G1 X149.130 Y109.087 E1.12863
G1 X149.130 Y108.553 E0.01512
G1 X121.447 Y80.870 E1.10725
G1 X121.982 Y80.870 E0.01512
G1 X149.130 Y108.018 E1.08587
G1 X149.130 Y107.484 E0.01512
G1 X122.516 Y80.870 E1.06450
G1 X123.051 Y80.870 E0.01512
G1 X149.130 Y106.949 E1.04312
M73 Q27 S13
G1 X149.130 Y106.415 E0.01512
G1 X123.585 Y80.870 E1.02174
M73 P28 R13
G1 X124.120 Y80.870 E0.01512
G1 X149.130 Y105.880 E1.00036
G1 X149.130 Y105.346 E0.01512
G1 X124.654 Y80.870 E0.97899
G1 X125.189 Y80.870 E0.01512
G1 X149.130 Y104.811 E0.95761
G1 X149.130 Y104.277 E0.01512
G1 X125.723 Y80.870 E0.93623
G1 X126.257 Y80.870 E0.01512
G1 X149.130 Y103.743 E0.91485
G1 X149.130 Y103.208 E0.01512
G1 X126.792 Y80.870 E0.89347
G1 X127.326 Y80.870 E0.01512
G1 X149.130 Y102.674 E0.87210
G1 X149.130 Y102.139 E0.01512
G1 X127.861 Y80.870 E0.85072
G1 X128.395 Y80.870 E0.01512
G1 X149.130 Y101.605 E0.82934
G1 X149.130 Y101.070 E0.01512
G1 X128.930 Y80.870 E0.80796
G1 X129.464 Y80.870 E0.01512
G1 X149.130 Y100.536 E0.78659
G1 X149.130 Y100.001 E0.01512
G1 X129.999 Y80.870 E0.76521
G1 X130.533 Y80.870 E0.01512
G1 X149.130 Y99.467 E0.74383
G1 X149.130 Y98.932 E0.01512
G1 X131.068 Y80.870 E0.72245
G1 X131.602 Y80.870 E0.01512
G1 X149.130 Y98.398 E0.70107
G1 X149.130 Y97.863 E0.01512
G1 X132.137 Y80.870 E0.67970
G1 X132.671 Y80.870 E0.01512
G1 X149.130 Y97.329 E0.65832
G1 X149.130 Y96.794 E0.01512
G1 X133.206 Y80.870 E0.63694
G1 X133.740 Y80.870 E0.01512
G1 X149.130 Y96.260 E0.61556
G1 X149.130 Y95.725 E0.01512
G1 X134.275 Y80.870 E0.59419
G1 X134.809 Y80.870 E0.01512
G1 X149.130 Y95.191 E0.57281
G1 X149.130 Y94.656 E0.01512
G1 X135.344 Y80.870 E0.55143
G1 X135.878 Y80.870 E0.01512
G1 X149.130 Y94.122 E0.53005
G1 X149.130 Y93.588 E0.01512
G1 X136.412 Y80.870 E0.50868
G1 X136.947 Y80.870 E0.01512
G1 X149.130 Y93.053 E0.48730
G1 X149.130 Y92.519 E0.01512
G1 X137.481 Y80.870 E0.46592
G1 X138.016 Y80.870 E0.01512
G1 X149.130 Y91.984 E0.44454
G1 X149.130 Y91.450 E0.01512
G1 X138.550 Y80.870 E0.42316
G1 X139.085 Y80.870 E0.01512
G1 X149.130 Y90.915 E0.40179
G1 X149.130 Y90.381 E0.01512
G1 X139.619 Y80.870 E0.38041
G1 X140.154 Y80.870 E0.01512
G1 X149.130 Y89.846 E0.35903
G1 X149.130 Y89.312 E0.01512
G1 X140.688 Y80.870 E0.33765
G1 X141.223 Y80.870 E0.01512
G1 X149.130 Y88.777 E0.31628
G1 X149.130 Y88.243 E0.01512
G1 X141.757 Y80.870 E0.29490
G1 X142.292 Y80.870 E0.01512
G1 X149.130 Y87.708 E0.27352
G1 X149.130 Y87.174 E0.01512
G1 X142.826 Y80.870 E0.25214
G1 X143.361 Y80.870 E0.01512
G1 X149.130 Y86.639 E0.23076
G1 X149.130 Y86.105 E0.01512
G1 X143.895 Y80.870 E0.20939
G1 X144.430 Y80.870 E0.01512
G1 X149.130 Y85.570 E0.18801
G1 X149.130 Y85.036 E0.01512
G1 X144.964 Y80.870 E0.16663
G1 X145.499 Y80.870 E0.01512
G1 X149.130 Y84.501 E0.14525
G1 X149.130 Y83.967 E0.01512
G1 X146.033 Y80.870 E0.12388
G1 X146.568 Y80.870 E0.01512
G1 X149.130 Y83.432 E0.10250
G1 X149.130 Y82.898 E0.01512
G1 X147.102 Y80.870 E0.08112
G1 X147.636 Y80.870 E0.01512
G1 X149.130 Y82.364 E0.05974
G1 X149.130 Y81.829 E0.01512
G1 X148.171 Y80.870 E0.03836
G1 X148.705 Y80.870 E0.01512
G1 X149.300 Y81.464 E0.02377
;BEFORE_LAYER_CHANGE
G92 E0.0
;0.4


G1 F8640
G1 X148.705 Y80.870 E-0.19410
G1 X148.171 Y80.870 E-0.12341
G1 X149.130 Y81.829 E-0.31322
G1 X149.130 Y82.364 E-0.12341
G1 X149.112 Y82.346 E-0.00586
G1 E-0.04000 F2100.00000
G1 Z0.800 F10800.000
;AFTER_LAYER_CHANGE
;0.4
M140 S110 ; set bed temperature
G1 X152.003 Y79.117
G1 Z0.400
G1 E0.80000 F2100.00000
G1 F3000
G1 X152.188 Y79.936 E0.02368
G1 X152.188 Y130.026 E1.41348
G1 X152.026 Y130.827 E0.02307
G1 X151.582 Y131.513 E0.02307
G1 X150.863 Y132.011 E0.02469
G1 X150.002 Y132.189 E0.02479
G1 X99.974 Y132.188 E1.41173
G1 X99.173 Y132.026 E0.02307
G1 X98.487 Y131.582 E0.02307
G1 X97.989 Y130.863 E0.02469
G1 X97.811 Y130.002 E0.02479
G1 X97.812 Y79.974 E1.41173
G1 X97.974 Y79.173 E0.02307
G1 X98.418 Y78.487 E0.02307
G1 X99.127 Y77.993 E0.02438
G1 X99.972 Y77.812 E0.02438
G1 X150.004 Y77.811 E1.41183
G1 X150.823 Y77.972 E0.02358
G1 X151.526 Y78.431 E0.02368
G1 X151.968 Y79.068 E0.02188
; PURGING FINISHED
G1 F8640
G1 X152.188 Y79.936 E-0.20664
G1 X152.188 Y82.332 E-0.55336
G1 E-0.04000 F2100.00000
G1 Z1.000 F10800.000
G1 X149.368 Y80.632
G1 Z0.400
G1 E0.80000 F2100.00000
M204 S800
G1 F3600
G1 X149.368 Y129.368 E1.48469
G1 X100.632 Y129.368 E1.48469
G1 X100.632 Y80.632 E1.48469
G1 X149.308 Y80.632 E1.48286
M204 S1000
G1 X149.775 Y80.225 F10800.000
M204 S800
G1 F2100
G1 X149.775 Y129.775 E1.50949
G1 X100.225 Y129.775 E1.50949
G1 X100.225 Y80.225 E1.50949
G1 X149.715 Y80.225 E1.50766
M73 Q33 S12
M204 S1000
G1 X149.671 Y80.611 F10800.000
G1 F8640
G1 X149.719 Y83.516 E-0.76000
G1 E-0.04000 F2100.00000
G1 Z1.000 F10800.000
G1 X100.754 Y81.580
G1 Z0.400
G1 E0.80000 F2100.00000
M204 S1250
G1 F8077.5
G1 X101.397 Y80.937 E0.02779
G1 X101.975 Y80.937 E0.01766
G1 X100.937 Y81.975 E0.04485
G1 X100.937 Y82.552 E0.01766
G1 X102.552 Y80.937 E0.06983
G1 X103.130 Y80.937 E0.01766
G1 X100.937 Y83.130 E0.09481
G1 X100.937 Y83.708 E0.01766
G1 X103.708 Y80.937 E0.11979
G1 X104.286 Y80.937 E0.01766
G1 X100.937 Y84.286 E0.14477
M73 P33 R12
G1 X100.937 Y84.863 E0.01766
G1 X104.863 Y80.937 E0.16975
G1 X105.441 Y80.937 E0.01766
G1 X100.937 Y85.441 E0.19474
G1 X100.937 Y86.019 E0.01766
G1 X106.019 Y80.937 E0.21972
G1 X106.597 Y80.937 E0.01766
G1 X100.937 Y86.597 E0.24470
G1 X100.937 Y87.175 E0.01766
G1 X107.175 Y80.937 E0.26968
G1 X107.752 Y80.937 E0.01766
G1 X100.937 Y87.752 E0.29466
G1 X100.937 Y88.330 E0.01766
G1 X108.330 Y80.937 E0.31964
G1 X108.908 Y80.937 E0.01766
G1 X100.937 Y88.908 E0.34462
G1 X100.937 Y89.486 E0.01766
G1 X109.486 Y80.937 E0.36960
G1 X110.063 Y80.937 E0.01766
G1 X100.937 Y90.063 E0.39458
