; generated by Slic3r Prusa Edition 1.41.3+linux64 on 2021-02-03 at 12:28:09

; 

; external perimeters extrusion width = 0.45mm
; perimeters extrusion width = 0.45mm
; infill extrusion width = 0.45mm
; solid infill extrusion width = 0.45mm
; top infill extrusion width = 0.40mm
; first layer extrusion width = 0.42mm

M73 P0 R16
M73 Q0 S16
M201 X1000 Y1000 Z1000 E5000 ; sets maximum accelerations, mm/sec^2
M203 X200 Y200 Z12 E120 ; sets maximum feedrates, mm/sec
M204 P1250 R1250 T1250 ; sets acceleration (P, T) and retract acceleration (R), mm/sec^2
M205 X8.00 Y8.00 Z0.40 E1.50 ; sets the jerk limits, mm/sec
M205 S0 T0 ; sets the minimum extruding and travel feed rate, mm/sec
M107
M115 U3.5.1 ; tell printer latest fw version
M83  ; extruder relative mode
M104 S220 ; set extruder temp
M140 S100 ; set bed temp
M190 S100 ; wait for bed temp
M109 S220 ; wait for extruder temp
G28 W ; home all without mesh bed level
G80 ; mesh bed leveling
G1 Y-3.0 F1000.0 ; go outside print area
G92 E0.0
G1 X60.0 E9.0  F1000.0 ; intro line
M73 Q0 S16
M73 P0 R16
G1 X100.0 E12.5  F1000.0 ; intro line
G92 E0.0
M221 S95
M900 K10; Filament gcode
G21 ; set units to millimeters
G90 ; use absolute coordinates
M83 ; use relative distances for extrusion
;BEFORE_LAYER_CHANGE
G92 E0.0
;0.2


G1 E-0.80000 F2100.00000
G1 Z0.600 F10800.000
;AFTER_LAYER_CHANGE
;0.2
G1 X92.895 Y77.511
G1 Z0.200
G1 E0.80000 F2100.00000
M204 S1000
G1 F1200
G1 X93.651 Y76.829 E0.02874
G1 X94.528 Y76.312 E0.02874
G1 X95.491 Y75.979 E0.02874
G1 X96.506 Y75.844 E0.02889
G1 X146.487 Y75.842 E1.41041
G1 X147.440 Y75.933 E0.02701
G1 X148.359 Y76.201 E0.02701
G1 X149.212 Y76.636 E0.02701
G1 X149.968 Y77.223 E0.02701
G1 X150.597 Y77.937 E0.02686
G1 X151.085 Y78.760 E0.02701
G1 X151.410 Y79.661 E0.02701
G1 X151.561 Y80.606 E0.02701
G1 X151.570 Y130.871 E1.41843
G1 X151.469 Y131.767 E0.02545
G1 X151.209 Y132.637 E0.02560
G1 X150.798 Y133.446 E0.02560
G1 X150.251 Y134.170 E0.02560
G1 X149.468 Y134.871 E0.02968
G1 X148.557 Y135.397 E0.02968
G1 X147.557 Y135.724 E0.02968
G1 X146.512 Y135.839 E0.02968
G1 X96.537 Y135.838 E1.41025
G1 X95.641 Y135.735 E0.02545
G1 X94.772 Y135.474 E0.02560
G1 X93.967 Y135.066 E0.02545
G1 X93.244 Y134.518 E0.02560
G1 X92.542 Y133.735 E0.02968
G1 X92.017 Y132.824 E0.02968
G1 X91.689 Y131.825 E0.02968
G1 X91.574 Y130.780 E0.02968
G1 X91.576 Y80.804 E1.41025
G1 X91.678 Y79.908 E0.02545
G1 X91.939 Y79.039 E0.02560
G1 X92.348 Y78.235 E0.02545
G1 X92.859 Y77.559 E0.02391
G1 F8640
G1 X93.651 Y76.829 E-0.24876
G1 X94.528 Y76.312 E-0.23514
G1 X95.491 Y75.979 E-0.23514
G1 X95.667 Y75.956 E-0.04096
G1 E-0.04000 F2100.00000
G1 Z0.800 F10800.000
G1 X92.279 Y79.116
G1 Z0.200
G1 E0.80000 F2100.00000
G1 F1200
G1 X93.021 Y77.904 E0.04011
G1 X94.115 Y76.926 E0.04139
G1 X94.932 Y76.517 E0.02579
G1 X96.155 Y76.219 E0.03553
G1 X146.968 Y76.222 E1.43386
G1 X147.916 Y76.406 E0.02726
G1 X148.824 Y76.797 E0.02791
G1 X150.043 Y77.821 E0.04491
G1 X150.834 Y79.038 E0.04096
G1 X151.195 Y80.421 E0.04033
G1 X151.195 Y131.206 E1.43309
G1 X150.867 Y132.565 E0.03946
G1 X150.125 Y133.777 E0.04011
G1 X149.031 Y134.755 E0.04139
G1 X148.214 Y135.164 E0.02579
G1 X146.991 Y135.462 E0.03553
G1 X96.208 Y135.462 E1.43303
G1 X94.849 Y135.134 E0.03946
G1 X93.636 Y134.392 E0.04011
G1 X92.659 Y133.298 E0.04139
G1 X92.250 Y132.481 E0.02579
G1 X91.951 Y131.258 E0.03553
G1 X91.951 Y80.475 E1.43303
G1 X92.265 Y79.174 E0.03777
G1 X92.631 Y79.264 F10800.000
G1 F1200
G1 X93.294 Y78.165 E0.03621
G1 X94.309 Y77.251 E0.03854
G1 X95.045 Y76.878 E0.02329
G1 X96.179 Y76.596 E0.03298
G1 X146.949 Y76.600 E1.43267
G1 X147.822 Y76.772 E0.02512
G1 X148.648 Y77.131 E0.02541
G1 X149.778 Y78.090 E0.04183
G1 X150.477 Y79.164 E0.03616
G1 X150.818 Y80.446 E0.03742
G1 X150.818 Y131.182 E1.43173
G1 X150.508 Y132.446 E0.03672
G1 X149.852 Y133.516 E0.03540
G1 X148.837 Y134.430 E0.03854
G1 X148.101 Y134.803 E0.02329
G1 X146.967 Y135.085 E0.03297
G1 X96.231 Y135.085 E1.43172
G1 X94.967 Y134.775 E0.03672
G1 X93.898 Y134.119 E0.03540
G1 X92.983 Y133.105 E0.03854
G1 X92.610 Y132.369 E0.02329
G1 X92.328 Y131.235 E0.03297
G1 X92.328 Y80.499 E1.43172
G1 X92.617 Y79.322 E0.03417
G1 X92.975 Y79.409 F10800.000
G1 F1200
G1 X93.569 Y78.425 E0.03243
G1 X94.504 Y77.574 E0.03568
G1 X95.159 Y77.238 E0.02078
G1 X96.203 Y76.973 E0.03038
G1 X146.930 Y76.977 E1.43146
G1 X147.727 Y77.137 E0.02295
G1 X148.469 Y77.465 E0.02290
G1 X149.511 Y78.358 E0.03872
G1 X150.144 Y79.342 E0.03303
G1 X150.441 Y80.470 E0.03290
G1 X150.441 Y131.160 E1.43043
G1 X150.170 Y132.277 E0.03242
G1 X149.577 Y133.256 E0.03229
G1 X148.642 Y134.107 E0.03568
G1 X147.987 Y134.443 E0.02078
G1 X146.944 Y134.708 E0.03038
G1 X96.253 Y134.708 E1.43042
G1 X95.137 Y134.437 E0.03242
G1 X94.158 Y133.845 E0.03229
G1 X93.307 Y132.910 E0.03568
G1 X92.970 Y132.255 E0.02078
G1 X92.705 Y131.211 E0.03038
G1 X92.705 Y80.521 E1.43042
G1 X92.961 Y79.468 E0.03058
G1 X93.315 Y79.572 F10800.000
G1 F1200
G1 X93.845 Y78.683 E0.02919
G1 X94.701 Y77.897 E0.03282
G1 X95.275 Y77.597 E0.01828
G1 X96.227 Y77.350 E0.02774
G1 X146.910 Y77.354 E1.43021
G1 X147.630 Y77.502 E0.02074
G1 X148.289 Y77.797 E0.02039
G1 X149.244 Y78.625 E0.03564
G1 X149.788 Y79.469 E0.02834
G1 X150.063 Y80.495 E0.02998
G1 X150.063 Y131.138 E1.42909
G1 X149.831 Y132.109 E0.02817
G1 X149.301 Y132.998 E0.02919
G1 X148.445 Y133.784 E0.03282
G1 X147.871 Y134.084 E0.01828
G1 X146.919 Y134.331 E0.02774
G1 X96.275 Y134.331 E1.42911
G1 X95.305 Y134.098 E0.02817
G1 X94.416 Y133.569 E0.02919
G1 X93.629 Y132.712 E0.03282
G1 X93.329 Y132.138 E0.01828
G1 X93.083 Y131.187 E0.02774
G1 X93.083 Y80.543 E1.42911
M73 Q6 S15
M73 P6 R15
G1 X93.301 Y79.630 E0.02647
G1 X93.655 Y79.737 F10800.000
G1 F1200
G1 X94.122 Y78.940 E0.02608
G1 X94.901 Y78.217 E0.02997
G1 X95.394 Y77.955 E0.01577
G1 X96.252 Y77.727 E0.02505
G1 X146.891 Y77.731 E1.42897
G1 X147.495 Y77.855 E0.01739
G1 X148.109 Y78.130 E0.01899
G1 X148.974 Y78.889 E0.03248
G1 X149.453 Y79.646 E0.02528
G1 X149.686 Y80.520 E0.02551
G1 X149.686 Y131.117 E1.42780
G1 X149.491 Y131.944 E0.02397
G1 X149.024 Y132.741 E0.02608
G1 X148.245 Y133.464 E0.02997
G1 X147.752 Y133.726 E0.01577
G1 X146.894 Y133.954 E0.02505
G1 X96.297 Y133.954 E1.42780
G1 X95.470 Y133.759 E0.02397
G1 X94.673 Y133.291 E0.02608
G1 X93.950 Y132.513 E0.02997
G1 X93.688 Y132.019 E0.01577
G1 X93.460 Y131.161 E0.02505
G1 X93.460 Y80.564 E1.42780
G1 X93.641 Y79.796 E0.02228
G1 X93.996 Y79.900 F10800.000
G1 F1200
G1 X94.402 Y79.195 E0.02296
G1 X95.103 Y78.537 E0.02714
G1 X95.516 Y78.313 E0.01327
G1 X96.278 Y78.104 E0.02229
G1 X146.870 Y78.108 E1.42766
G1 X147.395 Y78.219 E0.01513
G1 X147.926 Y78.460 E0.01646
G1 X148.703 Y79.153 E0.02937
G1 X149.098 Y79.774 E0.02075
G1 X149.309 Y80.545 E0.02259
G1 X149.309 Y131.096 E1.42647
G1 X149.150 Y131.781 E0.01985
G1 X148.745 Y132.486 E0.02296
G1 X148.043 Y133.144 E0.02714
G1 X147.630 Y133.368 E0.01327
G1 X146.868 Y133.577 E0.02229
G1 X96.318 Y133.577 E1.42647
G1 X95.633 Y133.418 E0.01985
G1 X94.927 Y133.012 E0.02296
G1 X94.269 Y132.311 E0.02714
G1 X94.045 Y131.897 E0.01327
G1 X93.837 Y131.136 E0.02229
G1 X93.837 Y80.585 E1.42647
G1 X93.982 Y79.959 E0.01816
G1 X94.338 Y80.060 F10800.000
G1 F1200
G1 X94.683 Y79.448 E0.01983
G1 X95.308 Y78.854 E0.02432
G1 X95.641 Y78.669 E0.01076
G1 X96.305 Y78.481 E0.01946
G1 X146.849 Y78.485 E1.42630
G1 X147.293 Y78.583 E0.01281
G1 X147.741 Y78.790 E0.01393
G1 X148.431 Y79.415 E0.02628
G1 X148.743 Y79.904 E0.01636
G1 X148.932 Y80.572 E0.01961
G1 X148.932 Y131.075 E1.42512
G1 X148.808 Y131.621 E0.01581
G1 X148.463 Y132.233 E0.01983
G1 X147.839 Y132.827 E0.02432
G1 X147.505 Y133.012 E0.01076
G1 X146.841 Y133.200 E0.01946
G1 X96.339 Y133.200 E1.42512
G1 X95.793 Y133.075 E0.01581
G1 X95.180 Y132.731 E0.01983
G1 X94.586 Y132.106 E0.02432
G1 X94.402 Y131.772 E0.01076
G1 X94.214 Y131.109 E0.01946
G1 X94.214 Y80.606 E1.42512
G1 X94.325 Y80.119 E0.01411
G1 X94.966 Y79.698 F10800.000
G1 F1200
G1 X95.516 Y79.169 E0.02154
G1 X95.771 Y79.024 E0.00827
G1 X96.333 Y78.858 E0.01654
G1 X146.827 Y78.862 E1.42488
G1 X147.187 Y78.945 E0.01041
G1 X147.552 Y79.118 E0.01141
G1 X148.157 Y79.675 E0.02322
G1 X148.389 Y80.037 E0.01212
G1 X148.555 Y80.600 E0.01657
G1 X148.555 Y131.054 E1.42376
G1 X148.464 Y131.465 E0.01186
G1 X148.180 Y131.983 E0.01667
G1 X147.630 Y132.512 E0.02154
G1 X147.375 Y132.657 E0.00827
G1 X146.813 Y132.823 E0.01654
G1 X96.359 Y132.823 E1.42376
G1 X95.949 Y132.731 E0.01186
G1 X95.431 Y132.448 E0.01667
G1 X94.901 Y131.898 E0.02154
G1 X94.756 Y131.643 E0.00827
G1 X94.591 Y131.081 E0.01654
G1 X94.591 Y80.627 E1.42376
G1 X94.682 Y80.216 E0.01186
G1 X94.937 Y79.751 E0.01498
G1 X95.252 Y79.946 F10800.000
G1 F1200
G1 X95.729 Y79.481 E0.01880
G1 X95.905 Y79.377 E0.00579
G1 X96.362 Y79.235 E0.01350
G1 X146.805 Y79.239 E1.42344
G1 X147.043 Y79.294 E0.00690
G1 X147.363 Y79.446 E0.00999
G1 X147.882 Y79.934 E0.02009
G1 X148.037 Y80.174 E0.00808
G1 X148.178 Y80.630 E0.01346
G1 X148.178 Y131.035 E1.42237
G1 X148.118 Y131.313 E0.00803
G1 X147.894 Y131.735 E0.01347
G1 X147.417 Y132.200 E0.01880
G1 X147.241 Y132.304 E0.00579
G1 X146.784 Y132.446 E0.01350
G1 X96.379 Y132.446 E1.42237
G1 X96.101 Y132.385 E0.00803
G1 X95.679 Y132.162 E0.01347
G1 X95.213 Y131.685 E0.01880
G1 X95.109 Y131.508 E0.00579
G1 X94.968 Y131.051 E0.01350
G1 X94.968 Y80.646 E1.42237
G1 X95.028 Y80.368 E0.00803
G1 X95.224 Y79.999 E0.01178
G1 X95.377 Y80.514 F10800.000
G1 F1200
G1 X95.540 Y80.191 E0.01021
G1 X95.947 Y79.788 E0.01616
G1 X96.048 Y79.726 E0.00333
G1 X96.394 Y79.613 E0.01029
G1 X146.783 Y79.616 E1.42192
G1 X146.900 Y79.644 E0.00339
G1 X147.173 Y79.773 E0.00853
G1 X147.604 Y80.189 E0.01692
G1 X147.688 Y80.317 E0.00431
G1 X147.801 Y80.662 E0.01023
G1 X147.801 Y131.016 E1.42095
G1 X147.769 Y131.167 E0.00436
G1 X147.606 Y131.490 E0.01021
G1 X147.199 Y131.893 E0.01616
G1 X147.098 Y131.955 E0.00333
G1 X146.752 Y132.068 E0.01029
G1 X96.397 Y132.068 E1.42095
M73 Q12 S14
M73 P12 R14
G1 X96.246 Y132.037 E0.00436
G1 X95.923 Y131.874 E0.01021
G1 X95.521 Y131.466 E0.01616
G1 X95.459 Y131.366 E0.00333
G1 X95.345 Y131.019 E0.01029
G1 X95.345 Y80.665 E1.42095
G1 X95.364 Y80.573 E0.00266
G1 X95.728 Y80.651 F10800.000
G1 F1200
G1 X95.832 Y80.432 E0.00682
G1 X96.175 Y80.089 E0.01370
G1 X96.429 Y79.990 E0.00771
G1 X146.731 Y79.990 E1.41946
G1 X146.981 Y80.099 E0.00771
G1 X147.324 Y80.442 E0.01370
G1 X147.424 Y80.697 E0.00771
G1 X147.424 Y130.998 E1.41946
G1 X147.314 Y131.249 E0.00771
G1 X146.971 Y131.592 E0.01370
G1 X146.717 Y131.691 E0.00771
G1 X96.415 Y131.691 E1.41946
G1 X96.165 Y131.582 E0.00771
G1 X95.822 Y131.239 E0.01370
G1 X95.722 Y130.984 E0.00771
G1 X95.722 Y80.710 E1.41868
G1 X96.128 Y80.669 F10800.000
G1 F1200
G1 X96.402 Y80.395 E0.01093
G1 X96.471 Y80.367 E0.00212
G1 X146.675 Y80.367 E1.41670
G1 X146.744 Y80.395 E0.00212
G1 X147.018 Y80.669 E0.01093
G1 X147.047 Y80.739 E0.00212
G1 X147.047 Y130.942 E1.41670
G1 X147.018 Y131.012 E0.00212
G1 X146.744 Y131.286 E0.01093
G1 X146.675 Y131.314 E0.00212
G1 X96.471 Y131.314 E1.41670
G1 X96.402 Y131.286 E0.00212
G1 X96.128 Y131.012 E0.01093
G1 X96.099 Y130.942 E0.00212
G1 X96.105 Y80.725 E1.41709
G1 X96.476 Y80.854 F10800.000
G1 F1200
G1 X96.587 Y80.744 E0.00441
G1 X146.559 Y80.744 E1.41017
G1 X146.670 Y80.854 E0.00441
G1 X146.670 Y130.827 E1.41017
G1 X146.559 Y130.937 E0.00441
G1 X96.587 Y130.937 E1.41017
G1 X96.476 Y130.827 E0.00441
G1 X96.476 Y80.914 E1.40848
; PURGING FINISHED
G1 X96.875 Y81.142 F10800.000
G1 F1200
G1 X146.271 Y81.142 E1.39391
G1 X146.271 Y130.539 E1.39391
G1 X96.875 Y130.539 E1.39391
G1 X96.875 Y81.202 E1.39222
G1 X97.261 Y81.246 F10800.000
G1 X97.252 Y81.519
G1 F1200
G1 X145.894 Y81.519 E1.37263
G1 X145.894 Y130.162 E1.37263
G1 X97.252 Y130.162 E1.37263
G1 X97.252 Y81.579 E1.37094
G1 F8640
G1 X100.543 Y81.575 E-0.76000
G1 E-0.04000 F2100.00000
G1 Z0.800 F10800.000
G1 X97.365 Y129.283
G1 Z0.200
G1 E0.80000 F2100.00000
G1 F1200
G1 X97.961 Y129.879 E0.02387
G1 X98.496 Y129.879 E0.01517
G1 X97.535 Y128.917 E0.03853
G1 X97.535 Y128.382 E0.01517
G1 X99.032 Y129.879 E0.05998
G1 X99.567 Y129.879 E0.01517
G1 X97.535 Y127.847 E0.08143
G1 X97.535 Y127.311 E0.01517
G1 X100.102 Y129.879 E0.10288
G1 X100.638 Y129.879 E0.01517
G1 X97.535 Y126.776 E0.12433
G1 X97.535 Y126.240 E0.01517
G1 X101.173 Y129.879 E0.14578
G1 X101.709 Y129.879 E0.01517
G1 X97.535 Y125.705 E0.16724
G1 X97.535 Y125.170 E0.01517
G1 X102.244 Y129.879 E0.18869
G1 X102.779 Y129.879 E0.01517
G1 X97.535 Y124.634 E0.21014
G1 X97.535 Y124.099 E0.01517
G1 X103.315 Y129.879 E0.23159
G1 X103.850 Y129.879 E0.01517
G1 X97.535 Y123.563 E0.25304
G1 X97.535 Y123.028 E0.01517
G1 X104.386 Y129.879 E0.27449
G1 X104.921 Y129.879 E0.01517
G1 X97.535 Y122.493 E0.29595
G1 X97.535 Y121.957 E0.01517
G1 X105.456 Y129.879 E0.31740
G1 X105.992 Y129.879 E0.01517
G1 X97.535 Y121.422 E0.33885
G1 X97.535 Y120.886 E0.01517
G1 X106.527 Y129.879 E0.36030
M73 Q18 S13
G1 X107.063 Y129.879 E0.01517
G1 X97.535 Y120.351 E0.38175
M73 P19 R13
G1 X97.535 Y119.816 E0.01517
G1 X107.598 Y129.879 E0.40321
G1 X108.133 Y129.879 E0.01517
G1 X97.535 Y119.280 E0.42466
G1 X97.535 Y118.745 E0.01517
G1 X108.669 Y129.879 E0.44611
G1 X109.204 Y129.879 E0.01517
G1 X97.535 Y118.209 E0.46756
G1 X97.535 Y117.674 E0.01517
G1 X109.740 Y129.879 E0.48901
G1 X110.275 Y129.879 E0.01517
G1 X97.535 Y117.139 E0.51046
G1 X97.535 Y116.603 E0.01517
G1 X110.810 Y129.879 E0.53192
G1 X111.346 Y129.879 E0.01517
G1 X97.535 Y116.068 E0.55337
G1 X97.535 Y115.532 E0.01517
G1 X111.881 Y129.879 E0.57482
G1 X112.417 Y129.879 E0.01517
G1 X97.535 Y114.997 E0.59627
G1 X97.535 Y114.462 E0.01517
G1 X112.952 Y129.879 E0.61772
G1 X113.487 Y129.879 E0.01517
G1 X97.535 Y113.926 E0.63918
G1 X97.535 Y113.391 E0.01517
G1 X114.023 Y129.879 E0.66063
G1 X114.558 Y129.879 E0.01517
G1 X97.535 Y112.855 E0.68208
G1 X97.535 Y112.320 E0.01517
G1 X115.094 Y129.879 E0.70353
G1 X115.629 Y129.879 E0.01517
G1 X97.535 Y111.785 E0.72498
G1 X97.535 Y111.249 E0.01517
G1 X116.164 Y129.879 E0.74643
G1 X116.700 Y129.879 E0.01517
G1 X97.535 Y110.714 E0.76789
G1 X97.535 Y110.178 E0.01517
G1 X117.235 Y129.879 E0.78934
G1 X117.771 Y129.879 E0.01517
G1 X97.535 Y109.643 E0.81079
G1 X97.535 Y109.108 E0.01517
G1 X118.306 Y129.879 E0.83224
G1 X118.841 Y129.879 E0.01517
G1 X97.535 Y108.572 E0.85369
G1 X97.535 Y108.037 E0.01517
G1 X119.377 Y129.879 E0.87514
G1 X119.912 Y129.879 E0.01517
G1 X97.535 Y107.501 E0.89660
G1 X97.535 Y106.966 E0.01517
G1 X120.448 Y129.879 E0.91805
G1 X120.983 Y129.879 E0.01517
G1 X97.535 Y106.431 E0.93950
G1 X97.535 Y105.895 E0.01517
G1 X121.518 Y129.879 E0.96095
G1 X122.054 Y129.879 E0.01517
G1 X97.535 Y105.360 E0.98240
G1 X97.535 Y104.824 E0.01517
G1 X122.589 Y129.879 E1.00386
G1 X123.125 Y129.879 E0.01517
G1 X97.535 Y104.289 E1.02531
G1 X97.535 Y103.754 E0.01517
G1 X123.660 Y129.879 E1.04676
G1 X124.195 Y129.879 E0.01517
G1 X97.535 Y103.218 E1.06821
G1 X97.535 Y102.683 E0.01517
G1 X124.731 Y129.879 E1.08966
G1 X125.266 Y129.879 E0.01517
G1 X97.535 Y102.147 E1.11111
G1 X97.535 Y101.612 E0.01517
G1 X125.802 Y129.879 E1.13257
G1 X126.337 Y129.879 E0.01517
G1 X97.535 Y101.077 E1.15402
G1 X97.535 Y100.541 E0.01517
G1 X126.872 Y129.879 E1.17547
G1 X127.408 Y129.879 E0.01517
G1 X97.535 Y100.006 E1.19692
G1 X97.535 Y99.470 E0.01517
G1 X127.943 Y129.879 E1.21837
G1 X128.479 Y129.879 E0.01517
G1 X97.535 Y98.935 E1.23982
M73 Q25 S12
G1 X97.535 Y98.400 E0.01517
G1 X129.014 Y129.879 E1.26128
M73 P25 R12
G1 X129.549 Y129.879 E0.01517
G1 X97.535 Y97.864 E1.28273
G1 X97.535 Y97.329 E0.01517
G1 X130.085 Y129.879 E1.30418
G1 X130.620 Y129.879 E0.01517
G1 X97.535 Y96.793 E1.32563
G1 X97.535 Y96.258 E0.01517
G1 X131.156 Y129.879 E1.34708
G1 X131.691 Y129.879 E0.01517
G1 X97.535 Y95.723 E1.36854
G1 X97.535 Y95.187 E0.01517
G1 X132.226 Y129.879 E1.38999
G1 X132.762 Y129.879 E0.01517
G1 X97.535 Y94.652 E1.41144
G1 X97.535 Y94.116 E0.01517
G1 X133.297 Y129.879 E1.43289
G1 X133.833 Y129.879 E0.01517
G1 X97.535 Y93.581 E1.45434
G1 X97.535 Y93.046 E0.01517
G1 X134.368 Y129.879 E1.47579
G1 X134.903 Y129.879 E0.01517
G1 X97.535 Y92.510 E1.49725
G1 X97.535 Y91.975 E0.01517
G1 X135.439 Y129.879 E1.51870
