; generated by Slic3r Prusa Edition 1.41.3+linux64 on 2021-02-02 at 15:31:15

; 

; external perimeters extrusion width = 0.45mm
; perimeters extrusion width = 0.45mm
; infill extrusion width = 0.45mm
; solid infill extrusion width = 0.45mm
; top infill extrusion width = 0.40mm
; first layer extrusion width = 0.42mm

M73 P0 R163
M73 Q0 S163
M201 X1000 Y1000 Z1000 E5000 ; sets maximum accelerations, mm/sec^2
M203 X200 Y200 Z12 E120 ; sets maximum feedrates, mm/sec
M204 P1250 R1250 T1250 ; sets acceleration (P, T) and retract acceleration (R), mm/sec^2
M205 X8.00 Y8.00 Z0.40 E1.50 ; sets the jerk limits, mm/sec
M205 S0 T0 ; sets the minimum extruding and travel feed rate, mm/sec
M107
M115 U3.5.1 ; tell printer latest fw version
M83  ; extruder relative mode
M104 S230 ; set extruder temp
M140 S110 ; set bed temp
M190 S110 ; wait for bed temp
M109 S230 ; wait for extruder temp
G28 W ; home all without mesh bed level
G80 ; mesh bed leveling
G1 Y-3.0 F1000.0 ; go outside print area
G92 E0.0
G1 X60.0 E9.0  F1000.0 ; intro line
M73 Q0 S163
M73 P0 R163
G1 X100.0 E12.5  F1000.0 ; intro line
G92 E0.0
M221 S100
M900 K10; Filament gcode
G21 ; set units to millimeters
G90 ; use absolute coordinates
M83 ; use relative distances for extrusion
;BEFORE_LAYER_CHANGE
G92 E0.0
;0.2


G1 E-0.80000 F2100.00000
G1 Z0.600 F10800.000
;AFTER_LAYER_CHANGE
;0.2
G1 X112.190 Y122.579
G1 Z0.200
G1 E0.80000 F2100.00000
M204 S500
G1 F1200
G1 X113.035 Y122.398 E0.02438
G1 X163.066 Y122.398 E1.41183
G1 X163.886 Y122.558 E0.02358
G1 X164.588 Y123.017 E0.02368
G1 X165.065 Y123.703 E0.02358
G1 X165.250 Y124.522 E0.02368
G1 X165.251 Y174.612 E1.41348
G1 X165.089 Y175.413 E0.02307
G1 X164.644 Y176.099 E0.02307
G1 X163.925 Y176.598 E0.02469
G1 X163.065 Y176.775 E0.02479
G1 X113.037 Y176.775 E1.41173
G1 X112.235 Y176.613 E0.02307
G1 X111.550 Y176.168 E0.02307
G1 X111.051 Y175.449 E0.02469
G1 X110.874 Y174.588 E0.02479
G1 X110.874 Y124.561 E1.41173
G1 X111.036 Y123.759 E0.02307
G1 X111.481 Y123.073 E0.02307
G1 X112.140 Y122.613 E0.02269
; PURGING FINISHED
G1 F8640
G1 X113.035 Y122.398 E-0.21237
G1 X115.406 Y122.398 E-0.54763
G1 E-0.04000 F2100.00000
G1 Z0.800 F10800.000
G1 X114.026 Y125.550
G1 Z0.200
G1 E0.80000 F2100.00000
G1 F1200
G1 X162.098 Y125.550 E1.35653
G1 X162.098 Y173.622 E1.35653
G1 X114.026 Y173.622 E1.35653
G1 X114.026 Y125.610 E1.35484
G1 X113.649 Y125.173 F10800.000
G1 F1200
G1 X162.475 Y125.173 E1.37781
G1 X162.475 Y173.999 E1.37781
G1 X113.649 Y173.999 E1.37781
G1 X113.649 Y125.233 E1.37612
G1 X113.272 Y124.796 F10800.000
G1 F1200
G1 X162.852 Y124.796 E1.39909
G1 X162.852 Y174.376 E1.39909
G1 X113.272 Y174.376 E1.39909
G1 X113.272 Y124.856 E1.39740
G1 X113.659 Y124.900 F10800.000
G1 F8640
G1 X116.564 Y124.852 E-0.76000
G1 E-0.04000 F2100.00000
G1 Z0.800 F10800.000
G1 X114.140 Y172.744
G1 Z0.200
G1 E0.80000 F2100.00000
G1 F1200
G1 X114.735 Y173.339 E0.02383
G1 X115.270 Y173.339 E0.01515
G1 X114.309 Y172.379 E0.03846
G1 X114.309 Y171.844 E0.01515
G1 X115.805 Y173.339 E0.05988
G1 X116.340 Y173.339 E0.01515
G1 X114.309 Y171.309 E0.08130
G1 X114.309 Y170.774 E0.01515
G1 X116.875 Y173.339 E0.10272
G1 X117.410 Y173.339 E0.01515
G1 X114.309 Y170.239 E0.12414
G1 X114.309 Y169.704 E0.01515
G1 X117.945 Y173.339 E0.14556
G1 X118.480 Y173.339 E0.01515
G1 X114.309 Y169.169 E0.16698
G1 X114.309 Y168.634 E0.01515
G1 X119.015 Y173.339 E0.18840
G1 X119.550 Y173.339 E0.01515
G1 X114.309 Y168.099 E0.20982
G1 X114.309 Y167.564 E0.01515
G1 X120.085 Y173.339 E0.23124
G1 X120.620 Y173.339 E0.01515
G1 X114.309 Y167.029 E0.25266
G1 X114.309 Y166.494 E0.01515
G1 X121.155 Y173.339 E0.27408
G1 X121.690 Y173.339 E0.01515
G1 X114.309 Y165.959 E0.29550
G1 X114.309 Y165.424 E0.01515
G1 X122.225 Y173.339 E0.31692
G1 X122.760 Y173.339 E0.01515
G1 X114.309 Y164.889 E0.33834
G1 X114.309 Y164.354 E0.01515
G1 X123.295 Y173.339 E0.35976
G1 X123.830 Y173.339 E0.01515
G1 X114.309 Y163.819 E0.38118
G1 X114.309 Y163.284 E0.01515
G1 X124.365 Y173.339 E0.40260
G1 X124.900 Y173.339 E0.01515
G1 X114.309 Y162.749 E0.42402
G1 X114.309 Y162.214 E0.01515
G1 X125.435 Y173.339 E0.44544
G1 X125.970 Y173.339 E0.01515
G1 X114.309 Y161.679 E0.46686
G1 X114.309 Y161.144 E0.01515
G1 X126.505 Y173.339 E0.48828
G1 X127.040 Y173.339 E0.01515
G1 X114.309 Y160.609 E0.50970
G1 X114.309 Y160.074 E0.01515
G1 X127.575 Y173.339 E0.53112
G1 X128.110 Y173.339 E0.01515
G1 X114.309 Y159.539 E0.55254
M73 Q0 S162
G1 X114.309 Y159.004 E0.01515
G1 X128.645 Y173.339 E0.57396
M73 P0 R162
G1 X129.180 Y173.339 E0.01515
G1 X114.309 Y158.469 E0.59538
G1 X114.309 Y157.934 E0.01515
G1 X129.715 Y173.339 E0.61680
G1 X130.250 Y173.339 E0.01515
G1 X114.309 Y157.399 E0.63822
G1 X114.309 Y156.864 E0.01515
G1 X130.785 Y173.339 E0.65964
G1 X131.320 Y173.339 E0.01515
G1 X114.309 Y156.329 E0.68107
G1 X114.309 Y155.794 E0.01515
G1 X131.855 Y173.339 E0.70249
G1 X132.390 Y173.339 E0.01515
G1 X114.309 Y155.259 E0.72391
G1 X114.309 Y154.723 E0.01515
G1 X132.925 Y173.339 E0.74533
G1 X133.460 Y173.339 E0.01515
G1 X114.309 Y154.188 E0.76675
G1 X114.309 Y153.653 E0.01515
G1 X133.995 Y173.339 E0.78817
G1 X134.530 Y173.339 E0.01515
G1 X114.309 Y153.118 E0.80959
G1 X114.309 Y152.583 E0.01515
G1 X135.065 Y173.339 E0.83101
G1 X135.600 Y173.339 E0.01515
G1 X114.309 Y152.048 E0.85243
G1 X114.309 Y151.513 E0.01515
G1 X136.135 Y173.339 E0.87385
G1 X136.670 Y173.339 E0.01515
G1 X114.309 Y150.978 E0.89527
G1 X114.309 Y150.443 E0.01515
G1 X137.205 Y173.339 E0.91669
G1 X137.740 Y173.339 E0.01515
G1 X114.309 Y149.908 E0.93811
G1 X114.309 Y149.373 E0.01515
G1 X138.275 Y173.339 E0.95953
G1 X138.810 Y173.339 E0.01515
G1 X114.309 Y148.838 E0.98095
G1 X114.309 Y148.303 E0.01515
G1 X139.345 Y173.339 E1.00237
G1 X139.880 Y173.339 E0.01515
G1 X114.309 Y147.768 E1.02379
G1 X114.309 Y147.233 E0.01515
G1 X140.415 Y173.339 E1.04521
G1 X140.950 Y173.339 E0.01515
G1 X114.309 Y146.698 E1.06663
G1 X114.309 Y146.163 E0.01515
G1 X141.485 Y173.339 E1.08805
G1 X142.020 Y173.339 E0.01515
G1 X114.309 Y145.628 E1.10947
G1 X114.309 Y145.093 E0.01515
G1 X142.555 Y173.339 E1.13089
G1 X143.090 Y173.339 E0.01515
G1 X114.309 Y144.558 E1.15231
G1 X114.309 Y144.023 E0.01515
G1 X143.625 Y173.339 E1.17373
G1 X144.160 Y173.339 E0.01515
G1 X114.309 Y143.488 E1.19515
G1 X114.309 Y142.953 E0.01515
G1 X144.695 Y173.339 E1.21657
G1 X145.230 Y173.339 E0.01515
G1 X114.309 Y142.418 E1.23799
G1 X114.309 Y141.883 E0.01515
G1 X145.765 Y173.339 E1.25941
G1 X146.300 Y173.339 E0.01515
G1 X114.309 Y141.348 E1.28083
G1 X114.309 Y140.813 E0.01515
G1 X146.835 Y173.339 E1.30225
G1 X147.370 Y173.339 E0.01515
G1 X114.309 Y140.278 E1.32367
M73 Q1 S161
M73 P1 R161
G1 X114.309 Y139.743 E0.01515
G1 X147.905 Y173.339 E1.34509
G1 X148.440 Y173.339 E0.01515
G1 X114.309 Y139.208 E1.36651
G1 X114.309 Y138.673 E0.01515
G1 X148.975 Y173.339 E1.38793
G1 X149.510 Y173.339 E0.01515
G1 X114.309 Y138.138 E1.40935
G1 X114.309 Y137.603 E0.01515
G1 X150.045 Y173.339 E1.43078
G1 X150.580 Y173.339 E0.01515
G1 X114.309 Y137.068 E1.45220
G1 X114.309 Y136.533 E0.01515
G1 X151.115 Y173.339 E1.47362
G1 X151.650 Y173.339 E0.01515
G1 X114.309 Y135.998 E1.49504
G1 X114.309 Y135.463 E0.01515
G1 X152.185 Y173.339 E1.51646
G1 X152.720 Y173.339 E0.01515
G1 X114.309 Y134.928 E1.53788
G1 X114.309 Y134.393 E0.01515
G1 X153.255 Y173.339 E1.55930
G1 X153.790 Y173.339 E0.01515
G1 X114.309 Y133.858 E1.58072
G1 X114.309 Y133.323 E0.01515
G1 X154.325 Y173.339 E1.60214
G1 X154.860 Y173.339 E0.01515
G1 X114.309 Y132.788 E1.62356
G1 X114.309 Y132.253 E0.01515
G1 X155.395 Y173.339 E1.64498
G1 X155.930 Y173.339 E0.01515
G1 X114.309 Y131.718 E1.66640
G1 X114.309 Y131.183 E0.01515
G1 X156.465 Y173.339 E1.68782
G1 X157.000 Y173.339 E0.01515
G1 X114.309 Y130.648 E1.70924
G1 X114.309 Y130.113 E0.01515
G1 X157.535 Y173.339 E1.73066
G1 X158.070 Y173.339 E0.01515
G1 X114.309 Y129.578 E1.75208
G1 X114.309 Y129.043 E0.01515
G1 X158.605 Y173.339 E1.77350
G1 X159.140 Y173.339 E0.01515
G1 X114.309 Y128.508 E1.79492
M73 Q1 S160
M73 P1 R159
G1 X114.309 Y127.973 E0.01515
G1 X159.675 Y173.339 E1.81634
G1 X160.210 Y173.339 E0.01515
G1 X114.309 Y127.438 E1.83776
G1 X114.309 Y126.903 E0.01515
G1 X160.745 Y173.339 E1.85918
G1 X161.280 Y173.339 E0.01515
G1 X114.309 Y126.368 E1.88060
G1 X114.309 Y125.833 E0.01515
G1 X161.815 Y173.339 E1.90202
G1 X161.815 Y172.804 E0.01515
G1 X114.844 Y125.833 E1.88060
G1 X115.379 Y125.833 E0.01515
G1 X161.815 Y172.269 E1.85918
G1 X161.815 Y171.734 E0.01515
G1 X115.914 Y125.833 E1.83776
G1 X116.449 Y125.833 E0.01515
G1 X161.815 Y171.199 E1.81634
G1 X161.815 Y170.664 E0.01515
G1 X116.984 Y125.833 E1.79492
G1 X117.519 Y125.833 E0.01515
G1 X161.815 Y170.129 E1.77350
G1 X161.815 Y169.594 E0.01515
G1 X118.054 Y125.833 E1.75208
G1 X118.589 Y125.833 E0.01515
G1 X161.815 Y169.059 E1.73066
G1 X161.815 Y168.524 E0.01515
G1 X119.124 Y125.833 E1.70924
G1 X119.659 Y125.833 E0.01515
G1 X161.815 Y167.989 E1.68782
G1 X161.815 Y167.454 E0.01515
G1 X120.194 Y125.833 E1.66640
G1 X120.729 Y125.833 E0.01515
G1 X161.815 Y166.919 E1.64498
G1 X161.815 Y166.384 E0.01515
G1 X121.264 Y125.833 E1.62356
G1 X121.799 Y125.833 E0.01515
G1 X161.815 Y165.849 E1.60214
M73 Q2 S159
M73 P2 R158
G1 X161.815 Y165.314 E0.01515
G1 X122.334 Y125.833 E1.58072
G1 X122.869 Y125.833 E0.01515
G1 X161.815 Y164.779 E1.55930
G1 X161.815 Y164.244 E0.01515
G1 X123.404 Y125.833 E1.53788
G1 X123.939 Y125.833 E0.01515
G1 X161.815 Y163.709 E1.51646
G1 X161.815 Y163.174 E0.01515
G1 X124.474 Y125.833 E1.49504
G1 X125.009 Y125.833 E0.01515
G1 X161.815 Y162.639 E1.47362
G1 X161.815 Y162.104 E0.01515
G1 X125.544 Y125.833 E1.45220
G1 X126.079 Y125.833 E0.01515
G1 X161.815 Y161.569 E1.43078
G1 X161.815 Y161.034 E0.01515
G1 X126.614 Y125.833 E1.40935
G1 X127.149 Y125.833 E0.01515
G1 X161.815 Y160.499 E1.38793
G1 X161.815 Y159.964 E0.01515
G1 X127.684 Y125.833 E1.36651
G1 X128.219 Y125.833 E0.01515
G1 X161.815 Y159.429 E1.34509
G1 X161.815 Y158.894 E0.01515
G1 X128.754 Y125.833 E1.32367
G1 X129.289 Y125.833 E0.01515
G1 X161.815 Y158.359 E1.30225
G1 X161.815 Y157.824 E0.01515
G1 X129.824 Y125.833 E1.28083
G1 X130.359 Y125.833 E0.01515
G1 X161.815 Y157.289 E1.25941
G1 X161.815 Y156.754 E0.01515
G1 X130.894 Y125.833 E1.23799
G1 X131.429 Y125.833 E0.01515
G1 X161.815 Y156.219 E1.21657
G1 X161.815 Y155.684 E0.01515
G1 X131.964 Y125.833 E1.19515
G1 X132.499 Y125.833 E0.01515
G1 X161.815 Y155.149 E1.17373
G1 X161.815 Y154.614 E0.01515
G1 X133.034 Y125.833 E1.15231
G1 X133.569 Y125.833 E0.01515
G1 X161.815 Y154.079 E1.13089
G1 X161.815 Y153.544 E0.01515
G1 X134.105 Y125.833 E1.10947
G1 X134.640 Y125.833 E0.01515
G1 X161.815 Y153.009 E1.08805
G1 X161.815 Y152.474 E0.01515
G1 X135.175 Y125.833 E1.06663
G1 X135.710 Y125.833 E0.01515
G1 X161.815 Y151.939 E1.04521
M73 Q3 S157
M73 P3 R157
G1 X161.815 Y151.404 E0.01515
G1 X136.245 Y125.833 E1.02379
G1 X136.780 Y125.833 E0.01515
G1 X161.815 Y150.869 E1.00237
G1 X161.815 Y150.334 E0.01515
G1 X137.315 Y125.833 E0.98095
G1 X137.850 Y125.833 E0.01515
G1 X161.815 Y149.799 E0.95953
G1 X161.815 Y149.264 E0.01515
G1 X138.385 Y125.833 E0.93811
G1 X138.920 Y125.833 E0.01515
G1 X161.815 Y148.729 E0.91669
G1 X161.815 Y148.194 E0.01515
G1 X139.455 Y125.833 E0.89527
G1 X139.990 Y125.833 E0.01515
G1 X161.815 Y147.659 E0.87385
G1 X161.815 Y147.124 E0.01515
G1 X140.525 Y125.833 E0.85243
G1 X141.060 Y125.833 E0.01515
G1 X161.815 Y146.589 E0.83101
G1 X161.815 Y146.054 E0.01515
G1 X141.595 Y125.833 E0.80959
G1 X142.130 Y125.833 E0.01515
G1 X161.815 Y145.519 E0.78817
G1 X161.815 Y144.984 E0.01515
G1 X142.665 Y125.833 E0.76675
G1 X143.200 Y125.833 E0.01515
G1 X161.815 Y144.449 E0.74533
G1 X161.815 Y143.914 E0.01515
G1 X143.735 Y125.833 E0.72391
G1 X144.270 Y125.833 E0.01515
G1 X161.815 Y143.379 E0.70249
G1 X161.815 Y142.844 E0.01515
G1 X144.805 Y125.833 E0.68107
G1 X145.340 Y125.833 E0.01515
G1 X161.815 Y142.309 E0.65964
G1 X161.815 Y141.774 E0.01515
G1 X145.875 Y125.833 E0.63822
G1 X146.410 Y125.833 E0.01515
G1 X161.815 Y141.239 E0.61680
G1 X161.815 Y140.704 E0.01515
G1 X146.945 Y125.833 E0.59538
G1 X147.480 Y125.833 E0.01515
G1 X161.815 Y140.169 E0.57396
G1 X161.815 Y139.634 E0.01515
G1 X148.015 Y125.833 E0.55254
G1 X148.550 Y125.833 E0.01515
G1 X161.815 Y139.099 E0.53112
G1 X161.815 Y138.564 E0.01515
G1 X149.085 Y125.833 E0.50970
G1 X149.620 Y125.833 E0.01515
G1 X161.815 Y138.029 E0.48828
G1 X161.815 Y137.494 E0.01515
G1 X150.155 Y125.833 E0.46686
G1 X150.690 Y125.833 E0.01515
G1 X161.815 Y136.959 E0.44544
G1 X161.815 Y136.424 E0.01515
G1 X151.225 Y125.833 E0.42402
G1 X151.760 Y125.833 E0.01515
G1 X161.815 Y135.889 E0.40260
G1 X161.815 Y135.354 E0.01515
G1 X152.295 Y125.833 E0.38118
G1 X152.830 Y125.833 E0.01515
G1 X161.815 Y134.819 E0.35976
G1 X161.815 Y134.284 E0.01515
G1 X153.365 Y125.833 E0.33834
G1 X153.900 Y125.833 E0.01515
G1 X161.815 Y133.749 E0.31692
G1 X161.815 Y133.214 E0.01515
G1 X154.435 Y125.833 E0.29550
G1 X154.970 Y125.833 E0.01515
G1 X161.815 Y132.679 E0.27408
G1 X161.815 Y132.144 E0.01515
G1 X155.505 Y125.833 E0.25266
G1 X156.040 Y125.833 E0.01515
G1 X161.815 Y131.609 E0.23124
G1 X161.815 Y131.074 E0.01515
G1 X156.575 Y125.833 E0.20982
G1 X157.110 Y125.833 E0.01515
G1 X161.815 Y130.539 E0.18840
G1 X161.815 Y130.004 E0.01515
G1 X157.645 Y125.833 E0.16698
G1 X158.180 Y125.833 E0.01515
G1 X161.815 Y129.469 E0.14556
G1 X161.815 Y128.934 E0.01515
G1 X158.715 Y125.833 E0.12414
G1 X159.250 Y125.833 E0.01515
G1 X161.815 Y128.399 E0.10272
G1 X161.815 Y127.864 E0.01515
G1 X159.785 Y125.833 E0.08130
G1 X160.320 Y125.833 E0.01515
G1 X161.815 Y127.329 E0.05988
G1 X161.815 Y126.794 E0.01515
G1 X160.855 Y125.833 E0.03846
G1 X161.390 Y125.833 E0.01515
G1 X161.985 Y126.428 E0.02383
;BEFORE_LAYER_CHANGE
G92 E0.0
;0.25


G1 F8640
G1 X161.390 Y125.833 E-0.19436
G1 X160.855 Y125.833 E-0.12353
G1 X161.815 Y126.794 E-0.31365
G1 X161.815 Y127.329 E-0.12353
G1 X161.800 Y127.314 E-0.00492
G1 E-0.04000 F2100.00000
G1 Z0.800 F10800.000
;AFTER_LAYER_CHANGE
;0.25
M104 S235 ; set temperature
M140 S115 ; set bed temperature
G1 X165.065 Y123.703
G1 Z0.250
G1 E0.80000 F2100.00000
G1 F1800
G1 X165.250 Y124.522 E0.00642
G1 X165.251 Y174.612 E0.38354
G1 X165.089 Y175.413 E0.00626
G1 X164.644 Y176.099 E0.00626
G1 X163.925 Y176.598 E0.00670
G1 X163.065 Y176.775 E0.00673
G1 X113.037 Y176.775 E0.38306
G1 X112.235 Y176.613 E0.00626
G1 X111.550 Y176.168 E0.00626
G1 X111.051 Y175.449 E0.00670
G1 X110.874 Y174.588 E0.00673
G1 X110.874 Y124.561 E0.38306
G1 X111.036 Y123.759 E0.00626
G1 X111.481 Y123.073 E0.00626
G1 X112.190 Y122.579 E0.00662
G1 X113.035 Y122.398 E0.00662
G1 X163.066 Y122.398 E0.38309
G1 X163.886 Y122.558 E0.00640
G1 X164.588 Y123.017 E0.00642
G1 X165.031 Y123.654 E0.00594
; PURGING FINISHED
G1 F8640
G1 X165.250 Y124.522 E-0.20664
G1 X165.250 Y126.918 E-0.55336
G1 E-0.04000 F2100.00000
G1 Z0.850 F10800.000
G1 X161.959 Y125.690
G1 Z0.250
G1 E0.80000 F2100.00000
M204 S300
G1 F1800
G1 X161.959 Y173.483 E0.39277
G1 X114.166 Y173.483 E0.39277
G1 X114.166 Y125.690 E0.39277
G1 X161.899 Y125.690 E0.39228
M73 Q3 S156
M73 P3 R156
M204 S500
G1 X162.398 Y125.250 F10800.000
M204 S300
G1 F1800
G1 X162.398 Y173.922 E0.39999
G1 X113.727 Y173.922 E0.39999
G1 X113.727 Y125.250 E0.39999
G1 X162.338 Y125.250 E0.39950
M204 S500
G1 X162.837 Y124.811 F10800.000
M204 S300
G1 F1200
G1 X162.837 Y174.361 E0.40721
G1 X113.287 Y174.361 E0.40721
G1 X113.287 Y124.811 E0.40721
G1 X162.777 Y124.811 E0.40672
M204 S500
G1 X162.734 Y125.198 F10800.000
G1 F8640
G1 X162.781 Y128.103 E-0.76000
G1 E-0.04000 F2100.00000
G1 Z0.850 F10800.000
G1 X115.187 Y125.821
G1 Z0.250
G1 E0.80000 F2100.00000
M204 S800
G1 F1800
G1 X114.495 Y126.513 E0.00804
G1 X114.495 Y127.135 E0.00512
G1 X115.611 Y126.019 E0.01298
G1 X116.233 Y126.019 E0.00512
G1 X114.495 Y127.757 E0.02021
G1 X114.495 Y128.378 E0.00512
G1 X116.855 Y126.019 E0.02745
G1 X117.476 Y126.019 E0.00512
G1 X114.495 Y129.000 E0.03468
G1 X114.495 Y129.622 E0.00512
G1 X118.098 Y126.019 E0.04192
G1 X118.720 Y126.019 E0.00512
G1 X114.495 Y130.244 E0.04915
G1 X114.495 Y130.866 E0.00512
G1 X119.342 Y126.019 E0.05639
G1 X119.964 Y126.019 E0.00512
G1 X114.495 Y131.488 E0.06362
