; generated by Slic3r Prusa Edition 1.41.3+linux64 on 2021-03-04 at 15:20:05

; 

; external perimeters extrusion width = 0.45mm
; perimeters extrusion width = 0.45mm
; infill extrusion width = 0.45mm
; solid infill extrusion width = 0.45mm
; top infill extrusion width = 0.40mm
; first layer extrusion width = 0.42mm

M73 P0 R52
M73 Q0 S52
M201 X1000 Y1000 Z1000 E5000 ; sets maximum accelerations, mm/sec^2
M203 X200 Y200 Z12 E120 ; sets maximum feedrates, mm/sec
M204 P1250 R1250 T1250 ; sets acceleration (P, T) and retract acceleration (R), mm/sec^2
M205 X8.00 Y8.00 Z0.40 E1.50 ; sets the jerk limits, mm/sec
M205 S0 T0 ; sets the minimum extruding and travel feed rate, mm/sec
M107 ; disable fan
M115 U3.5.1 ; tell printer latest fw version
M83  ; extruder relative mode
M104 S220 ; set extruder temp
M140 S100 ; set bed temp
M190 S100 ; wait for bed temp
M109 S220 ; wait for extruder temp
G28 W ; home all without mesh bed level
G80 ; mesh bed leveling
G1 Y-3.0 F1000.0 ; go outside print area
G92 E0.0
G1 X60.0 E9.0  F1000.0 ; intro line
M73 Q0 S52
M73 P0 R52
G1 X100.0 E12.5  F1000.0 ; intro line
G92 E0.0
M221 S95
M900 K10; Filament gcode
G21 ; set units to millimeters
G90 ; use absolute coordinates
M83 ; use relative distances for extrusion
;BEFORE_LAYER_CHANGE
G92 E0.0
;0.2


G1 E-0.80000 F2100.00000 ; retract
G1 Z0.600 F10800.000 ; lift Z
;AFTER_LAYER_CHANGE
;0.2
G1 X88.429 Y68.477 ; move to first skirt point
G1 Z0.200 ; restore layer Z
G1 E0.80000 F2100.00000 ; unretract
M204 S1000 ; adjust acceleration
G1 F1200
G1 X89.137 Y67.989 E0.02428 ; skirt
G1 X89.980 Y67.812 E0.02428 ; skirt
G1 X160.004 Y67.811 E1.97600 ; skirt
G1 X160.827 Y67.974 E0.02368 ; skirt
G1 X161.531 Y68.436 E0.02378 ; skirt
G1 X162.008 Y69.131 E0.02378 ; skirt
G1 X162.188 Y69.954 E0.02378 ; skirt
G1 X162.188 Y140.018 E1.97714 ; skirt
G1 X162.025 Y140.830 E0.02337 ; skirt
G1 X161.571 Y141.523 E0.02337 ; skirt
G1 X160.856 Y142.014 E0.02449 ; skirt
G1 X160.002 Y142.189 E0.02459 ; skirt
G1 X89.982 Y142.188 E1.97590 ; skirt
G1 X89.170 Y142.025 E0.02337 ; skirt
G1 X88.477 Y141.571 E0.02337 ; skirt
G1 X87.986 Y140.856 E0.02449 ; skirt
G1 X87.811 Y140.002 E0.02459 ; skirt
G1 X87.812 Y69.982 E1.97590 ; skirt
G1 X87.975 Y69.170 E0.02337 ; skirt
G1 X88.396 Y68.527 E0.02168 ; skirt
; PURGING FINISHED
G1 F8640
G1 X89.137 Y67.989 E-0.21159 ; wipe and retract
G1 X89.980 Y67.812 E-0.19870 ; wipe and retract
G1 X91.494 Y67.812 E-0.34970 ; wipe and retract
G1 E-0.04000 F2100.00000 ; retract
G1 Z0.800 F10800.000 ; lift Z
G1 X99.036 Y79.213 ; move to first perimeter point
G1 Z0.200 ; restore layer Z
G1 E0.80000 F2100.00000 ; unretract
G1 F1200
G1 X101.101 Y79.565 E0.05911 ; perimeter
G1 X101.145 Y79.036 E0.01498 ; perimeter
G1 X104.548 Y79.036 E0.09602 ; perimeter
G1 X107.656 Y79.565 E0.08897 ; perimeter
G1 X107.701 Y79.036 E0.01498 ; perimeter
G1 X111.103 Y79.036 E0.09602 ; perimeter
G1 X114.212 Y79.565 E0.08897 ; perimeter
G1 X114.256 Y79.036 E0.01498 ; perimeter
G1 X117.659 Y79.036 E0.09602 ; perimeter
G1 X120.767 Y79.565 E0.08897 ; perimeter
G1 X120.812 Y79.036 E0.01498 ; perimeter
G1 X124.214 Y79.036 E0.09602 ; perimeter
G1 X127.322 Y79.565 E0.08897 ; perimeter
G1 X127.367 Y79.036 E0.01498 ; perimeter
G1 X130.770 Y79.036 E0.09602 ; perimeter
G1 X133.878 Y79.565 E0.08896 ; perimeter
G1 X133.922 Y79.036 E0.01498 ; perimeter
G1 X137.325 Y79.036 E0.09602 ; perimeter
G1 X140.433 Y79.565 E0.08897 ; perimeter
G1 X140.478 Y79.036 E0.01498 ; perimeter
G1 X143.880 Y79.036 E0.09602 ; perimeter
G1 X146.988 Y79.565 E0.08897 ; perimeter
G1 X147.033 Y79.036 E0.01498 ; perimeter
G1 X150.964 Y79.036 E0.11093 ; perimeter
G1 X150.964 Y130.685 E1.45748 ; perimeter
G1 X149.495 Y130.435 E0.04205 ; perimeter
G1 X149.450 Y130.964 E0.01498 ; perimeter
G1 X146.048 Y130.964 E0.09602 ; perimeter
G1 X142.940 Y130.435 E0.08897 ; perimeter
G1 X142.895 Y130.964 E0.01498 ; perimeter
G1 X139.492 Y130.964 E0.09602 ; perimeter
G1 X136.384 Y130.435 E0.08896 ; perimeter
G1 X136.340 Y130.964 E0.01498 ; perimeter
G1 X132.937 Y130.964 E0.09602 ; perimeter
G1 X129.829 Y130.435 E0.08897 ; perimeter
G1 X129.784 Y130.964 E0.01498 ; perimeter
G1 X126.382 Y130.964 E0.09602 ; perimeter
G1 X123.274 Y130.435 E0.08897 ; perimeter
G1 X123.229 Y130.964 E0.01498 ; perimeter
G1 X119.826 Y130.964 E0.09602 ; perimeter
G1 X116.718 Y130.435 E0.08897 ; perimeter
G1 X116.674 Y130.964 E0.01498 ; perimeter
G1 X113.271 Y130.964 E0.09602 ; perimeter
G1 X110.163 Y130.435 E0.08897 ; perimeter
G1 X110.118 Y130.964 E0.01498 ; perimeter
G1 X106.716 Y130.964 E0.09602 ; perimeter
G1 X103.608 Y130.435 E0.08897 ; perimeter
G1 X103.563 Y130.964 E0.01498 ; perimeter
G1 X100.160 Y130.964 E0.09601 ; perimeter
G1 X99.036 Y130.773 E0.03219 ; perimeter
G1 X99.036 Y79.273 E1.45326 ; perimeter
G1 X99.413 Y79.660 F10800.000 ; move to first perimeter point
G1 F1200
G1 X101.442 Y80.005 E0.05808 ; perimeter
G1 X101.492 Y79.413 E0.01678 ; perimeter
G1 X104.516 Y79.413 E0.08534 ; perimeter
G1 X107.997 Y80.005 E0.09965 ; perimeter
G1 X108.047 Y79.413 E0.01678 ; perimeter
G1 X111.072 Y79.413 E0.08534 ; perimeter
G1 X114.553 Y80.005 E0.09965 ; perimeter
G1 X114.603 Y79.413 E0.01678 ; perimeter
G1 X117.627 Y79.413 E0.08534 ; perimeter
G1 X121.108 Y80.005 E0.09965 ; perimeter
G1 X121.158 Y79.413 E0.01678 ; perimeter
G1 X124.182 Y79.413 E0.08534 ; perimeter
G1 X127.663 Y80.005 E0.09964 ; perimeter
G1 X127.714 Y79.413 E0.01678 ; perimeter
G1 X130.738 Y79.413 E0.08534 ; perimeter
G1 X134.219 Y80.005 E0.09964 ; perimeter
G1 X134.269 Y79.413 E0.01678 ; perimeter
G1 X137.293 Y79.413 E0.08534 ; perimeter
G1 X140.774 Y80.005 E0.09965 ; perimeter
G1 X140.824 Y79.413 E0.01678 ; perimeter
G1 X143.849 Y79.413 E0.08534 ; perimeter
G1 X147.330 Y80.005 E0.09965 ; perimeter
G1 X147.380 Y79.413 E0.01678 ; perimeter
G1 X150.587 Y79.413 E0.09051 ; perimeter
G1 X150.587 Y130.238 E1.43424 ; perimeter
G1 X149.154 Y129.995 E0.04102 ; perimeter
G1 X149.104 Y130.587 E0.01678 ; perimeter
G1 X146.080 Y130.587 E0.08534 ; perimeter
G1 X142.599 Y129.995 E0.09965 ; perimeter
G1 X142.548 Y130.587 E0.01678 ; perimeter
G1 X139.524 Y130.587 E0.08534 ; perimeter
G1 X136.043 Y129.995 E0.09964 ; perimeter
G1 X135.993 Y130.587 E0.01678 ; perimeter
G1 X132.969 Y130.587 E0.08534 ; perimeter
G1 X129.488 Y129.995 E0.09965 ; perimeter
G1 X129.438 Y130.587 E0.01678 ; perimeter
G1 X126.414 Y130.587 E0.08534 ; perimeter
G1 X122.932 Y129.995 E0.09965 ; perimeter
G1 X122.882 Y130.587 E0.01678 ; perimeter
G1 X119.858 Y130.587 E0.08534 ; perimeter
G1 X116.377 Y129.995 E0.09965 ; perimeter
G1 X116.327 Y130.587 E0.01678 ; perimeter
G1 X113.303 Y130.587 E0.08534 ; perimeter
G1 X109.822 Y129.995 E0.09964 ; perimeter
G1 X109.772 Y130.587 E0.01678 ; perimeter
G1 X106.747 Y130.587 E0.08534 ; perimeter
G1 X103.266 Y129.995 E0.09964 ; perimeter
G1 X103.216 Y130.587 E0.01678 ; perimeter
G1 X100.192 Y130.587 E0.08534 ; perimeter
G1 X99.413 Y130.455 E0.02230 ; perimeter
G1 X99.413 Y79.720 E1.43167 ; perimeter
G1 F8640
G1 X101.442 Y80.005 E-0.47312 ; wipe and retract
G1 X101.492 Y79.413 E-0.13730 ; wipe and retract
G1 X102.140 Y79.413 E-0.14959 ; wipe and retract
G1 E-0.04000 F2100.00000 ; retract
G1 Z0.800 F10800.000 ; lift Z
G1 X99.790 Y123.624 ; move to first perimeter point
G1 Z0.200 ; restore layer Z
G1 E0.80000 F2100.00000 ; unretract
G1 F1200
G1 X135.687 Y129.734 E1.02754 ; perimeter
G1 X135.647 Y130.210 E0.01348 ; perimeter
G1 X133.001 Y130.210 E0.07466 ; perimeter
G1 X99.790 Y124.557 E0.95065 ; perimeter
G1 X99.790 Y123.684 E0.02464 ; perimeter
G1 X99.654 Y123.248 F10800.000 ; move inwards before travel
G1 F8640
G1 X103.036 Y124.231 E-0.76000 ; wipe and retract
G1 E-0.04000 F2100.00000 ; retract
G1 Z0.800 F10800.000 ; lift Z
G1 X99.790 Y124.740 ; move to first perimeter point
G1 Z0.200 ; restore layer Z
G1 E0.80000 F2100.00000 ; unretract
G1 F1200
G1 X129.131 Y129.734 E0.83989 ; perimeter
G1 X129.091 Y130.210 E0.01348 ; perimeter
G1 X126.445 Y130.210 E0.07466 ; perimeter
G1 X99.790 Y125.673 E0.76301 ; perimeter
G1 X99.790 Y124.800 E0.02464 ; perimeter
G1 X99.655 Y124.363 F10800.000 ; move inwards before travel
G1 F8640
G1 X103.036 Y125.345 E-0.76000 ; wipe and retract
G1 E-0.04000 F2100.00000 ; retract
G1 Z0.800 F10800.000 ; lift Z
G1 X99.790 Y125.855 ; move to first perimeter point
G1 Z0.200 ; restore layer Z
G1 E0.80000 F2100.00000 ; unretract
G1 F1200
G1 X122.576 Y129.734 E0.65224 ; perimeter
G1 X122.536 Y130.210 E0.01348 ; perimeter
G1 X119.890 Y130.210 E0.07466 ; perimeter
G1 X99.790 Y126.789 E0.57536 ; perimeter
G1 X99.790 Y125.915 E0.02464 ; perimeter
G1 X99.657 Y125.478 F10800.000 ; move inwards before travel
G1 F8640
G1 X103.036 Y126.459 E-0.76000 ; wipe and retract
G1 E-0.04000 F2100.00000 ; retract
G1 Z0.800 F10800.000 ; lift Z
G1 X99.790 Y126.971 ; move to first perimeter point
G1 Z0.200 ; restore layer Z
G1 E0.80000 F2100.00000 ; unretract
G1 F1200
G1 X116.021 Y129.734 E0.46460 ; perimeter
G1 X115.980 Y130.210 E0.01348 ; perimeter
G1 X113.335 Y130.210 E0.07466 ; perimeter
G1 X99.790 Y127.904 E0.38771 ; perimeter
G1 X99.790 Y127.031 E0.02464 ; perimeter
G1 X99.659 Y126.593 F10800.000 ; move inwards before travel
G1 F8640
G1 X103.037 Y127.572 E-0.76000 ; wipe and retract
G1 E-0.04000 F2100.00000 ; retract
G1 Z0.800 F10800.000 ; lift Z
G1 X99.790 Y128.087 ; move to first perimeter point
G1 Z0.200 ; restore layer Z
G1 E0.80000 F2100.00000 ; unretract
G1 F1200
G1 X109.465 Y129.734 E0.27695 ; perimeter
G1 X109.425 Y130.210 E0.01348 ; perimeter
G1 X106.779 Y130.210 E0.07466 ; perimeter
G1 X99.790 Y129.020 E0.20007 ; perimeter
G1 X99.790 Y128.147 E0.02464 ; perimeter
G1 X99.667 Y127.707 F10800.000 ; move inwards before travel
G1 F8640
G1 X103.038 Y128.680 E-0.76000 ; wipe and retract
G1 E-0.04000 F2100.00000 ; retract
G1 Z0.800 F10800.000 ; lift Z
G1 X99.790 Y129.203 ; move to first perimeter point
G1 Z0.200 ; restore layer Z
G1 E0.80000 F2100.00000 ; unretract
G1 F1200
G1 X102.910 Y129.734 E0.08931 ; perimeter
G1 X102.870 Y130.210 E0.01348 ; perimeter
G1 X100.224 Y130.210 E0.07466 ; perimeter
G1 X99.790 Y130.136 E0.01242 ; perimeter
G1 X99.790 Y129.263 E0.02464 ; perimeter
G1 X99.781 Y128.803 F10800.000 ; move inwards before travel
G1 F8640
G1 X102.910 Y129.734 E-0.72856 ; wipe and retract
G1 X102.898 Y129.870 E-0.03144 ; wipe and retract
G1 E-0.04000 F2100.00000 ; retract
G1 Z0.800 F10800.000 ; lift Z
G1 X99.790 Y123.441 ; move to first perimeter point
G1 Z0.200 ; restore layer Z
G1 E0.80000 F2100.00000 ; unretract
G1 F1200
G1 X99.790 Y122.508 E0.02633 ; perimeter
G1 X142.242 Y129.734 E1.21518 ; perimeter
G1 X142.202 Y130.210 E0.01348 ; perimeter
G1 X139.556 Y130.210 E0.07466 ; perimeter
G1 X99.849 Y123.451 E1.13660 ; perimeter
M73 Q2 S51
M73 P2 R51
G1 X99.391 Y123.420 F10800.000 ; move inwards before travel
G1 F8640
G1 X99.790 Y122.508 E-0.21824 ; wipe and retract
G1 X102.103 Y122.902 E-0.54176 ; wipe and retract
G1 E-0.04000 F2100.00000 ; retract
G1 Z0.800 F10800.000 ; lift Z
G1 X99.790 Y122.325 ; move to first perimeter point
G1 Z0.200 ; restore layer Z
G1 E0.80000 F2100.00000 ; unretract
G1 F1200
G1 X99.790 Y121.392 E0.02633 ; perimeter
G1 X148.798 Y129.734 E1.40283 ; perimeter
G1 X148.757 Y130.210 E0.01348 ; perimeter
G1 X146.112 Y130.210 E0.07466 ; perimeter
G1 X99.849 Y122.335 E1.32425 ; perimeter
G1 X99.391 Y122.304 F10800.000 ; move inwards before travel
G1 F8640
G1 X99.790 Y121.392 E-0.21824 ; wipe and retract
G1 X102.103 Y121.786 E-0.54176 ; wipe and retract
G1 E-0.04000 F2100.00000 ; retract
G1 Z0.800 F10800.000 ; lift Z
G1 X99.790 Y121.210 ; move to first perimeter point
G1 Z0.200 ; restore layer Z
G1 E0.80000 F2100.00000 ; unretract
G1 F1200
G1 X99.790 Y120.276 E0.02634 ; perimeter
G1 X150.210 Y128.859 E1.44326 ; perimeter
G1 X150.210 Y129.792 E0.02633 ; perimeter
G1 X99.849 Y121.220 E1.44157 ; perimeter
G1 X99.391 Y121.190 F10800.000 ; move inwards before travel
G1 F8640
G1 X99.790 Y120.276 E-0.21824 ; wipe and retract
G1 X102.103 Y120.670 E-0.54176 ; wipe and retract
G1 E-0.04000 F2100.00000 ; retract
G1 Z0.800 F10800.000 ; lift Z
G1 X99.790 Y120.094 ; move to first perimeter point
G1 Z0.200 ; restore layer Z
G1 E0.80000 F2100.00000 ; unretract
G1 F1200
G1 X99.790 Y119.161 E0.02633 ; perimeter
G1 X150.210 Y127.743 E1.44326 ; perimeter
G1 X150.210 Y128.676 E0.02634 ; perimeter
G1 X99.849 Y120.104 E1.44157 ; perimeter
G1 X99.391 Y120.074 F10800.000 ; move inwards before travel
G1 F8640
G1 X99.790 Y119.161 E-0.21824 ; wipe and retract
G1 X102.103 Y119.554 E-0.54176 ; wipe and retract
G1 E-0.04000 F2100.00000 ; retract
G1 Z0.800 F10800.000 ; lift Z
G1 X99.790 Y118.978 ; move to first perimeter point
G1 Z0.200 ; restore layer Z
G1 E0.80000 F2100.00000 ; unretract
G1 F1200
G1 X99.790 Y118.045 E0.02634 ; perimeter
G1 X150.210 Y126.627 E1.44326 ; perimeter
G1 X150.210 Y127.560 E0.02633 ; perimeter
G1 X99.849 Y118.988 E1.44157 ; perimeter
G1 X99.391 Y118.958 F10800.000 ; move inwards before travel
G1 F8640
G1 X99.790 Y118.045 E-0.21824 ; wipe and retract
G1 X102.103 Y118.438 E-0.54176 ; wipe and retract
G1 E-0.04000 F2100.00000 ; retract
G1 Z0.800 F10800.000 ; lift Z
G1 X99.790 Y117.862 ; move to first perimeter point
G1 Z0.200 ; restore layer Z
G1 E0.80000 F2100.00000 ; unretract
G1 F1200
G1 X99.790 Y116.929 E0.02634 ; perimeter
G1 X150.210 Y125.511 E1.44326 ; perimeter
G1 X150.210 Y126.444 E0.02634 ; perimeter
G1 X99.849 Y117.872 E1.44157 ; perimeter
G1 X99.391 Y117.842 F10800.000 ; move inwards before travel
G1 F8640
G1 X99.790 Y116.929 E-0.21824 ; wipe and retract
G1 X102.103 Y117.323 E-0.54176 ; wipe and retract
G1 E-0.04000 F2100.00000 ; retract
G1 Z0.800 F10800.000 ; lift Z
G1 X99.790 Y116.746 ; move to first perimeter point
G1 Z0.200 ; restore layer Z
G1 E0.80000 F2100.00000 ; unretract
G1 F1200
G1 X99.790 Y115.813 E0.02633 ; perimeter
G1 X150.210 Y124.395 E1.44326 ; perimeter
G1 X150.210 Y125.328 E0.02633 ; perimeter
G1 X99.849 Y116.756 E1.44157 ; perimeter
G1 X99.391 Y116.726 F10800.000 ; move inwards before travel
G1 F8640
G1 X99.790 Y115.813 E-0.21824 ; wipe and retract
G1 X102.103 Y116.207 E-0.54176 ; wipe and retract
G1 E-0.04000 F2100.00000 ; retract
G1 Z0.800 F10800.000 ; lift Z
G1 X99.790 Y115.630 ; move to first perimeter point
G1 Z0.200 ; restore layer Z
G1 E0.80000 F2100.00000 ; unretract
G1 F1200
G1 X99.790 Y114.697 E0.02633 ; perimeter
G1 X150.210 Y123.279 E1.44326 ; perimeter
G1 X150.210 Y124.213 E0.02633 ; perimeter
G1 X99.849 Y115.641 E1.44157 ; perimeter
G1 X99.391 Y115.610 F10800.000 ; move inwards before travel
G1 F8640
G1 X99.790 Y114.697 E-0.21824 ; wipe and retract
G1 X102.103 Y115.091 E-0.54176 ; wipe and retract
G1 E-0.04000 F2100.00000 ; retract
G1 Z0.800 F10800.000 ; lift Z
G1 X99.790 Y114.515 ; move to first perimeter point
G1 Z0.200 ; restore layer Z
G1 E0.80000 F2100.00000 ; unretract
G1 F1200
G1 X99.790 Y113.581 E0.02634 ; perimeter
G1 X150.210 Y122.164 E1.44326 ; perimeter
G1 X150.210 Y123.097 E0.02633 ; perimeter
G1 X99.849 Y114.525 E1.44157 ; perimeter
G1 X99.391 Y114.495 F10800.000 ; move inwards before travel
G1 F8640
G1 X99.790 Y113.581 E-0.21824 ; wipe and retract
G1 X102.103 Y113.975 E-0.54176 ; wipe and retract
G1 E-0.04000 F2100.00000 ; retract
G1 Z0.800 F10800.000 ; lift Z
G1 X99.790 Y113.399 ; move to first perimeter point
G1 Z0.200 ; restore layer Z
G1 E0.80000 F2100.00000 ; unretract
G1 F1200
G1 X99.790 Y112.466 E0.02633 ; perimeter
G1 X150.210 Y121.048 E1.44326 ; perimeter
G1 X150.210 Y121.981 E0.02634 ; perimeter
G1 X99.849 Y113.409 E1.44157 ; perimeter
G1 X99.391 Y113.379 F10800.000 ; move inwards before travel
G1 F8640
G1 X99.790 Y112.466 E-0.21822 ; wipe and retract
G1 X102.103 Y112.859 E-0.54178 ; wipe and retract
G1 E-0.04000 F2100.00000 ; retract
G1 Z0.800 F10800.000 ; lift Z
G1 X99.790 Y112.283 ; move to first perimeter point
G1 Z0.200 ; restore layer Z
G1 E0.80000 F2100.00000 ; unretract
G1 F1200
G1 X99.790 Y111.350 E0.02633 ; perimeter
G1 X150.210 Y119.932 E1.44326 ; perimeter
G1 X150.210 Y120.865 E0.02633 ; perimeter
G1 X99.849 Y112.293 E1.44157 ; perimeter
