; generated by Slic3r Prusa Edition 1.41.3+linux64 on 2021-03-08 at 14:40:43

; 

; external perimeters extrusion width = 0.45mm
; perimeters extrusion width = 0.45mm
; infill extrusion width = 0.45mm
; solid infill extrusion width = 0.45mm
; top infill extrusion width = 0.40mm
; first layer extrusion width = 0.42mm

M73 P0 R67
M73 Q0 S67
M201 X1000 Y1000 Z1000 E5000 ; sets maximum accelerations, mm/sec^2
M203 X200 Y200 Z12 E120 ; sets maximum feedrates, mm/sec
M204 P1250 R1250 T1250 ; sets acceleration (P, T) and retract acceleration (R), mm/sec^2
M205 X8.00 Y8.00 Z0.40 E1.50 ; sets the jerk limits, mm/sec
M205 S0 T0 ; sets the minimum extruding and travel feed rate, mm/sec
M107
M115 U3.5.1 ; tell printer latest fw version
M83  ; extruder relative mode
M104 S220 ; set extruder temp
M140 S110 ; set bed temp
M190 S110 ; wait for bed temp
M109 S220 ; wait for extruder temp
G28 W ; home all without mesh bed level
G80 ; mesh bed leveling
G1 Y-3.0 F1000.0 ; go outside print area
G92 E0.0
G1 X60.0 E9.0  F1000.0 ; intro line
M73 Q0 S67
M73 P0 R67
G1 X100.0 E12.5  F1000.0 ; intro line
G92 E0.0
M221 S95
M900 K10; Filament gcode
G21 ; set units to millimeters
G90 ; use absolute coordinates
M83 ; use relative distances for extrusion
;BEFORE_LAYER_CHANGE
G92 E0.0
;0.2


G1 E-0.80000 F2100.00000
G1 Z0.600 F10800.000
;AFTER_LAYER_CHANGE
;0.2
G1 X87.036 Y65.861
G1 Z0.200
G1 E0.80000 F2100.00000
M204 S1000
G1 F1200
G1 X87.919 Y65.354 E0.02874
G1 X88.880 Y65.034 E0.02858
G1 X89.891 Y64.911 E0.02874
G1 X160.006 Y64.909 E1.97855
G1 X160.970 Y65.003 E0.02733
G1 X161.893 Y65.275 E0.02717
G1 X162.754 Y65.719 E0.02733
G1 X163.515 Y66.318 E0.02733
G1 X164.145 Y67.045 E0.02717
G1 X164.630 Y67.884 E0.02733
G1 X164.947 Y68.799 E0.02733
G1 X165.085 Y69.757 E0.02733
G1 X165.090 Y140.095 E1.98484
G1 X164.988 Y141.019 E0.02623
G1 X164.719 Y141.909 E0.02623
G1 X164.293 Y142.735 E0.02623
G1 X163.725 Y143.470 E0.02623
G1 X162.946 Y144.152 E0.02921
G1 X162.040 Y144.664 E0.02936
G1 X161.054 Y144.980 E0.02921
G1 X160.020 Y145.091 E0.02936
G1 X89.905 Y145.090 E1.97855
G1 X88.981 Y144.988 E0.02623
G1 X88.091 Y144.719 E0.02623
G1 X87.265 Y144.293 E0.02623
G1 X86.530 Y143.725 E0.02623
G1 X85.848 Y142.946 E0.02921
G1 X85.336 Y142.040 E0.02936
G1 X85.020 Y141.054 E0.02921
G1 X84.909 Y140.020 E0.02936
G1 X84.910 Y69.905 E1.97855
G1 X85.012 Y68.981 E0.02623
G1 X85.281 Y68.091 E0.02623
G1 X85.707 Y67.265 E0.02623
G1 X86.275 Y66.530 E0.02623
G1 X86.991 Y65.901 E0.02689
G1 F8640
G1 X87.919 Y65.354 E-0.24873
G1 X88.880 Y65.034 E-0.23386
G1 X89.891 Y64.911 E-0.23514
G1 X90.074 Y64.911 E-0.04227
G1 E-0.04000 F2100.00000
G1 Z0.800 F10800.000
G1 X85.615 Y68.184
G1 Z0.200
G1 E0.80000 F2100.00000
G1 F1200
G1 X86.356 Y66.971 E0.04011
G1 X87.450 Y65.994 E0.04139
G1 X88.267 Y65.585 E0.02579
G1 X89.491 Y65.287 E0.03553
G1 X160.486 Y65.290 E2.00342
G1 X161.435 Y65.474 E0.02726
G1 X162.343 Y65.865 E0.02791
G1 X163.562 Y66.888 E0.04491
G1 X164.353 Y68.106 E0.04096
G1 X164.713 Y69.489 E0.04033
G1 X164.713 Y140.457 E2.00264
G1 X164.385 Y141.816 E0.03946
G1 X163.644 Y143.029 E0.04011
G1 X162.550 Y144.006 E0.04139
G1 X161.733 Y144.415 E0.02579
G1 X160.510 Y144.713 E0.03553
G1 X89.543 Y144.713 E2.00259
G1 X88.184 Y144.385 E0.03946
G1 X86.971 Y143.644 E0.04011
G1 X85.994 Y142.550 E0.04139
G1 X85.585 Y141.733 E0.02579
G1 X85.287 Y140.510 E0.03553
G1 X85.287 Y69.543 E2.00259
G1 X85.600 Y68.242 E0.03777
G1 X85.966 Y68.332 F10800.000
G1 F1200
G1 X86.629 Y67.233 E0.03621
G1 X87.644 Y66.319 E0.03854
G1 X88.380 Y65.945 E0.02329
G1 X89.514 Y65.664 E0.03298
G1 X160.468 Y65.667 E2.00223
G1 X161.341 Y65.840 E0.02512
G1 X162.166 Y66.199 E0.02541
G1 X163.297 Y67.158 E0.04183
G1 X163.996 Y68.232 E0.03616
G1 X164.336 Y69.513 E0.03742
G1 X164.336 Y140.434 E2.00129
G1 X164.026 Y141.698 E0.03672
G1 X163.371 Y142.767 E0.03540
G1 X162.356 Y143.681 E0.03854
G1 X161.620 Y144.055 E0.02329
G1 X160.486 Y144.336 E0.03297
G1 X89.566 Y144.336 E2.00128
G1 X88.302 Y144.026 E0.03672
G1 X87.233 Y143.371 E0.03540
G1 X86.319 Y142.356 E0.03854
G1 X85.945 Y141.620 E0.02329
G1 X85.664 Y140.486 E0.03297
G1 X85.664 Y69.566 E2.00128
G1 X85.952 Y68.390 E0.03417
G1 X86.310 Y68.477 F10800.000
G1 F1200
G1 X86.904 Y67.493 E0.03243
G1 X87.839 Y66.642 E0.03568
G1 X88.494 Y66.305 E0.02078
G1 X89.538 Y66.041 E0.03038
G1 X160.448 Y66.044 E2.00102
G1 X161.246 Y66.205 E0.02295
G1 X161.988 Y66.533 E0.02290
G1 X163.030 Y67.426 E0.03872
G1 X163.663 Y68.410 E0.03303
G1 X163.959 Y69.538 E0.03290
G1 X163.959 Y140.412 E1.99998
G1 X163.689 Y141.528 E0.03242
G1 X163.096 Y142.507 E0.03229
G1 X162.161 Y143.358 E0.03568
G1 X161.506 Y143.695 E0.02078
G1 X160.462 Y143.959 E0.03038
G1 X89.588 Y143.959 E1.99998
M73 Q1 S66
M73 P1 R66
G1 X88.472 Y143.689 E0.03242
G1 X87.493 Y143.096 E0.03229
G1 X86.642 Y142.161 E0.03568
G1 X86.305 Y141.506 E0.02078
G1 X86.041 Y140.462 E0.03038
G1 X86.041 Y69.588 E1.99998
G1 X86.296 Y68.535 E0.03058
G1 X86.650 Y68.640 F10800.000
G1 F1200
G1 X87.180 Y67.751 E0.02919
G1 X88.036 Y66.964 E0.03282
G1 X88.611 Y66.665 E0.01828
G1 X89.562 Y66.418 E0.02774
G1 X160.429 Y66.421 E1.99977
G1 X161.148 Y66.570 E0.02074
G1 X161.808 Y66.865 E0.02039
G1 X162.762 Y67.692 E0.03564
G1 X163.306 Y68.537 E0.02834
G1 X163.582 Y69.563 E0.02998
G1 X163.582 Y140.390 E1.99865
G1 X163.350 Y141.360 E0.02817
G1 X162.820 Y142.249 E0.02919
G1 X161.964 Y143.036 E0.03282
G1 X161.389 Y143.335 E0.01828
G1 X160.438 Y143.582 E0.02774
G1 X89.610 Y143.582 E1.99867
G1 X88.640 Y143.350 E0.02817
G1 X87.751 Y142.820 E0.02919
G1 X86.964 Y141.964 E0.03282
G1 X86.665 Y141.389 E0.01828
G1 X86.418 Y140.438 E0.02774
G1 X86.418 Y69.610 E1.99867
G1 X86.636 Y68.698 E0.02647
G1 X86.990 Y68.805 F10800.000
G1 F1200
G1 X87.457 Y68.008 E0.02608
G1 X88.236 Y67.285 E0.02997
G1 X88.729 Y67.023 E0.01577
G1 X89.587 Y66.795 E0.02505
G1 X160.410 Y66.798 E1.99852
G1 X161.013 Y66.923 E0.01739
G1 X161.628 Y67.197 E0.01899
G1 X162.492 Y67.957 E0.03248
G1 X162.972 Y68.714 E0.02528
G1 X163.205 Y69.587 E0.02551
G1 X163.205 Y140.368 E1.99735
G1 X163.010 Y141.195 E0.02397
G1 X162.543 Y141.992 E0.02608
G1 X161.764 Y142.715 E0.02997
G1 X161.271 Y142.977 E0.01577
G1 X160.413 Y143.205 E0.02505
G1 X89.632 Y143.205 E1.99735
G1 X88.805 Y143.010 E0.02397
G1 X88.008 Y142.543 E0.02608
G1 X87.285 Y141.764 E0.02997
G1 X87.023 Y141.271 E0.01577
G1 X86.795 Y140.413 E0.02505
G1 X86.795 Y69.632 E1.99735
G1 X86.976 Y68.864 E0.02228
G1 X87.331 Y68.968 F10800.000
G1 F1200
G1 X87.737 Y68.263 E0.02296
G1 X88.438 Y67.604 E0.02714
G1 X88.851 Y67.380 E0.01327
G1 X89.613 Y67.172 E0.02229
G1 X160.389 Y67.176 E1.99722
G1 X160.914 Y67.287 E0.01513
G1 X161.445 Y67.528 E0.01646
G1 X162.222 Y68.221 E0.02937
G1 X162.616 Y68.841 E0.02075
G1 X162.828 Y69.613 E0.02259
G1 X162.828 Y140.347 E1.99602
G1 X162.669 Y141.032 E0.01985
G1 X162.263 Y141.737 E0.02296
G1 X161.562 Y142.396 E0.02714
G1 X161.149 Y142.620 E0.01327
G1 X160.387 Y142.828 E0.02229
G1 X89.653 Y142.828 E1.99602
G1 X88.968 Y142.669 E0.01985
G1 X88.263 Y142.263 E0.02296
G1 X87.604 Y141.562 E0.02714
G1 X87.380 Y141.149 E0.01327
G1 X87.172 Y140.387 E0.02229
G1 X87.172 Y69.653 E1.99602
G1 X87.318 Y69.026 E0.01816
G1 X87.674 Y69.128 F10800.000
G1 F1200
G1 X88.018 Y68.515 E0.01983
G1 X88.643 Y67.922 E0.02432
G1 X88.976 Y67.737 E0.01076
G1 X89.640 Y67.549 E0.01946
G1 X160.368 Y67.553 E1.99586
G1 X160.811 Y67.650 E0.01281
G1 X161.259 Y67.858 E0.01393
G1 X161.950 Y68.483 E0.02628
G1 X162.262 Y68.971 E0.01636
G1 X162.451 Y69.640 E0.01961
G1 X162.451 Y140.326 E1.99468
G1 X162.326 Y140.872 E0.01581
G1 X161.982 Y141.485 E0.01983
G1 X161.357 Y142.078 E0.02432
G1 X161.024 Y142.263 E0.01076
G1 X160.360 Y142.451 E0.01946
G1 X89.674 Y142.451 E1.99468
M73 Q3 S65
M73 P3 R65
G1 X89.128 Y142.326 E0.01581
G1 X88.515 Y141.982 E0.01983
G1 X87.922 Y141.357 E0.02432
G1 X87.737 Y141.024 E0.01076
G1 X87.549 Y140.360 E0.01946
G1 X87.549 Y69.674 E1.99468
G1 X87.660 Y69.186 E0.01411
G1 X88.301 Y68.766 F10800.000
G1 F1200
G1 X88.851 Y68.237 E0.02154
G1 X89.106 Y68.091 E0.00827
G1 X89.668 Y67.926 E0.01654
G1 X160.346 Y67.930 E1.99444
G1 X160.705 Y68.013 E0.01041
G1 X161.071 Y68.185 E0.01141
G1 X161.676 Y68.743 E0.02322
G1 X161.908 Y69.105 E0.01212
G1 X162.074 Y69.668 E0.01657
G1 X162.074 Y140.306 E1.99332
G1 X161.982 Y140.716 E0.01186
G1 X161.699 Y141.234 E0.01667
G1 X161.149 Y141.763 E0.02154
G1 X160.894 Y141.909 E0.00827
G1 X160.332 Y142.074 E0.01654
G1 X89.694 Y142.074 E1.99332
G1 X89.284 Y141.982 E0.01186
G1 X88.766 Y141.699 E0.01667
G1 X88.237 Y141.149 E0.02154
G1 X88.091 Y140.894 E0.00827
G1 X87.926 Y140.332 E0.01654
G1 X87.926 Y69.694 E1.99332
G1 X88.018 Y69.284 E0.01186
G1 X88.272 Y68.819 E0.01498
G1 X88.587 Y69.014 F10800.000
G1 F1200
G1 X89.064 Y68.548 E0.01880
G1 X89.241 Y68.444 E0.00579
G1 X89.698 Y68.303 E0.01350
G1 X160.324 Y68.307 E1.99300
G1 X160.562 Y68.362 E0.00690
G1 X160.882 Y68.513 E0.00999
G1 X161.401 Y69.001 E0.02009
G1 X161.556 Y69.242 E0.00808
G1 X161.697 Y69.698 E0.01346
G1 X161.697 Y140.286 E1.99193
G1 X161.636 Y140.564 E0.00803
G1 X161.413 Y140.986 E0.01347
G1 X160.936 Y141.452 E0.01880
G1 X160.759 Y141.556 E0.00579
G1 X160.302 Y141.697 E0.01350
G1 X89.714 Y141.697 E1.99193
G1 X89.436 Y141.636 E0.00803
G1 X89.014 Y141.413 E0.01347
G1 X88.548 Y140.936 E0.01880
G1 X88.444 Y140.759 E0.00579
G1 X88.303 Y140.302 E0.01350
G1 X88.303 Y69.714 E1.99193
G1 X88.364 Y69.436 E0.00803
G1 X88.559 Y69.067 E0.01178
G1 X88.712 Y69.582 F10800.000
G1 F1200
G1 X88.875 Y69.259 E0.01021
G1 X89.282 Y68.856 E0.01616
G1 X89.383 Y68.794 E0.00333
G1 X89.729 Y68.680 E0.01029
G1 X160.302 Y68.684 E1.99148
G1 X160.419 Y68.711 E0.00339
G1 X160.692 Y68.840 E0.00853
G1 X161.123 Y69.257 E0.01692
G1 X161.207 Y69.385 E0.00431
G1 X161.320 Y69.729 E0.01023
G1 X161.320 Y140.267 E1.99050
G1 X161.288 Y140.418 E0.00436
G1 X161.125 Y140.741 E0.01021
G1 X160.718 Y141.144 E0.01616
G1 X160.617 Y141.206 E0.00333
G1 X160.271 Y141.320 E0.01029
G1 X89.733 Y141.320 E1.99050
G1 X89.582 Y141.288 E0.00436
G1 X89.259 Y141.125 E0.01021
G1 X88.856 Y140.718 E0.01616
G1 X88.794 Y140.617 E0.00333
G1 X88.680 Y140.271 E0.01029
G1 X88.680 Y69.733 E1.99050
G1 X88.700 Y69.640 E0.00266
G1 X89.064 Y69.718 F10800.000
G1 F1200
G1 X89.167 Y69.500 E0.00682
G1 X89.510 Y69.157 E0.01370
G1 X89.764 Y69.057 E0.00771
G1 X160.250 Y69.057 E1.98902
G1 X160.500 Y69.167 E0.00771
G1 X160.843 Y69.510 E0.01370
G1 X160.943 Y69.764 E0.00771
G1 X160.943 Y140.250 E1.98902
G1 X160.833 Y140.500 E0.00771
G1 X160.490 Y140.843 E0.01370
G1 X160.236 Y140.943 E0.00771
G1 X89.750 Y140.943 E1.98902
G1 X89.500 Y140.833 E0.00771
G1 X89.157 Y140.490 E0.01370
G1 X89.057 Y140.236 E0.00771
G1 X89.057 Y69.778 E1.98824
M73 Q4 S64
M73 P4 R64
G1 X89.463 Y69.737 F10800.000
G1 F1200
G1 X89.737 Y69.463 E0.01093
G1 X89.806 Y69.434 E0.00212
G1 X160.194 Y69.434 E1.98625
G1 X160.263 Y69.463 E0.00212
G1 X160.537 Y69.737 E0.01093
G1 X160.566 Y69.806 E0.00212
G1 X160.566 Y140.194 E1.98625
G1 X160.537 Y140.263 E0.00212
G1 X160.263 Y140.537 E0.01093
G1 X160.194 Y140.566 E0.00212
G1 X89.806 Y140.566 E1.98625
G1 X89.737 Y140.537 E0.00212
G1 X89.463 Y140.263 E0.01093
G1 X89.434 Y140.194 E0.00212
G1 X89.440 Y69.792 E1.98664
G1 X89.811 Y69.922 F10800.000
G1 F1200
G1 X89.922 Y69.811 E0.00441
G1 X160.078 Y69.811 E1.97973
G1 X160.189 Y69.922 E0.00441
G1 X160.189 Y140.078 E1.97973
G1 X160.078 Y140.189 E0.00441
G1 X89.922 Y140.189 E1.97973
G1 X89.811 Y140.078 E0.00441
G1 X89.811 Y69.982 E1.97804
; PURGING FINISHED
G1 X90.210 Y70.210 F10800.000
G1 F1200
G1 X159.790 Y70.210 E1.96347
G1 X159.790 Y139.790 E1.96347
G1 X90.210 Y139.790 E1.96347
G1 X90.210 Y70.270 E1.96178
G1 X90.596 Y70.314 F10800.000
G1 X90.587 Y70.587
G1 F1200
G1 X159.413 Y70.587 E1.94219
G1 X159.413 Y139.413 E1.94219
G1 X90.587 Y139.413 E1.94219
G1 X90.587 Y70.647 E1.94049
G1 F8640
G1 X93.879 Y70.644 E-0.76000
G1 E-0.04000 F2100.00000
G1 Z0.800 F10800.000
G1 X147.726 Y79.790
G1 Z0.200
G1 E0.80000 F2100.00000
G1 F1200
G1 X150.210 Y79.790 E0.07009
G1 X150.210 Y80.696 E0.02556
G1 X147.686 Y80.266 E0.07225
G1 X147.721 Y79.850 E0.01179
G1 X147.568 Y79.423 F10800.000
G1 F8640
G1 X150.210 Y79.790 E-0.57483
G1 X150.210 Y80.592 E-0.18517
G1 E-0.04000 F2100.00000
G1 Z0.800 F10800.000
G1 X141.171 Y79.790
G1 Z0.200
G1 E0.80000 F2100.00000
G1 F1200
G1 X143.817 Y79.790 E0.07466
G1 X150.210 Y80.878 E0.18301
G1 X150.210 Y81.811 E0.02634
G1 X141.131 Y80.266 E0.25989
G1 X141.166 Y79.850 E0.01179
G1 X140.997 Y79.430 F10800.000
G1 F8640
G1 X143.817 Y79.790 E-0.61224
G1 X144.448 Y79.897 E-0.14776
G1 E-0.04000 F2100.00000
G1 Z0.800 F10800.000
G1 X134.615 Y79.790
G1 Z0.200
G1 E0.80000 F2100.00000
G1 F1200
G1 X137.261 Y79.790 E0.07466
G1 X150.210 Y81.994 E0.37065
M73 Q6 S63
M73 P6 R63
G1 X150.210 Y82.927 E0.02634
G1 X134.575 Y80.266 E0.44754
G1 X134.610 Y79.850 E0.01179
G1 X134.439 Y79.431 F10800.000
G1 F8640
G1 X137.261 Y79.790 E-0.61224
G1 X137.892 Y79.897 E-0.14776
G1 E-0.04000 F2100.00000
G1 Z0.800 F10800.000
G1 X128.060 Y79.790
G1 Z0.200
G1 E0.80000 F2100.00000
G1 F1200
G1 X130.706 Y79.790 E0.07466
G1 X150.210 Y83.110 E0.55830
G1 X150.210 Y84.043 E0.02633
G1 X128.020 Y80.266 E0.63519
G1 X128.055 Y79.850 E0.01179
G1 X127.882 Y79.432 F10800.000
G1 F8640
G1 X130.706 Y79.790 E-0.61226
G1 X131.337 Y79.897 E-0.14774
G1 E-0.04000 F2100.00000
G1 Z0.800 F10800.000
G1 X121.505 Y79.790
G1 Z0.200
G1 E0.80000 F2100.00000
G1 F1200
G1 X124.151 Y79.790 E0.07466
G1 X150.210 Y84.226 E0.74595
G1 X150.210 Y85.159 E0.02634
G1 X121.465 Y80.266 E0.82283
G1 X121.500 Y79.850 E0.01179
G1 X121.327 Y79.432 F10800.000
G1 F8640
G1 X124.151 Y79.790 E-0.61223
G1 X124.781 Y79.897 E-0.14777
G1 E-0.04000 F2100.00000
G1 Z0.800 F10800.000
G1 X114.949 Y79.790
G1 Z0.200
G1 E0.80000 F2100.00000
G1 F1200
G1 X117.595 Y79.790 E0.07466
G1 X150.210 Y85.342 E0.93359
G1 X150.210 Y86.275 E0.02633
G1 X114.909 Y80.266 E1.01048
G1 X114.944 Y79.850 E0.01179
G1 X114.771 Y79.432 F10800.000
G1 F8640
G1 X117.595 Y79.790 E-0.61224
G1 X118.226 Y79.897 E-0.14776
G1 E-0.04000 F2100.00000
G1 Z0.800 F10800.000
G1 X108.394 Y79.790
G1 Z0.200
G1 E0.80000 F2100.00000
G1 F1200
G1 X111.040 Y79.790 E0.07466
G1 X150.210 Y86.457 E1.12124
G1 X150.210 Y87.391 E0.02633
G1 X108.354 Y80.266 E1.19812
G1 X108.389 Y79.850 E0.01179
G1 X108.215 Y79.432 F10800.000
G1 F8640
G1 X111.040 Y79.790 E-0.61224
G1 X111.671 Y79.897 E-0.14776
G1 E-0.04000 F2100.00000
G1 Z0.800 F10800.000
G1 X101.839 Y79.790
G1 Z0.200
G1 E0.80000 F2100.00000
G1 F1200
G1 X104.484 Y79.790 E0.07466
G1 X150.210 Y87.573 E1.30888
G1 X150.210 Y88.506 E0.02633
G1 X101.798 Y80.266 E1.38577
G1 X101.834 Y79.850 E0.01179
G1 X101.660 Y79.432 F10800.000
G1 F8640
G1 X104.484 Y79.790 E-0.61224
G1 X105.115 Y79.897 E-0.14776
G1 E-0.04000 F2100.00000
G1 Z0.800 F10800.000
G1 X101.637 Y79.571
G1 X101.068 Y79.523
G1 X100.771 Y81.269
G1 X99.790 Y81.040
G1 Z0.200
G1 E0.80000 F2100.00000
G1 F1200
G1 X99.790 Y80.107 E0.02634
G1 X150.210 Y88.689 E1.44326
G1 X150.210 Y89.622 E0.02633
G1 X99.849 Y81.050 E1.44157
G1 X99.391 Y81.020 F10800.000
G1 X99.819 Y81.228
G1 F1200
G1 X150.210 Y89.805 E1.44243
G1 X150.210 Y90.738 E0.02633
G1 X99.790 Y82.156 E1.44326
G1 X99.790 Y81.253 E0.02547
G1 X99.682 Y80.852 F10800.000
G1 F8640
G1 X103.035 Y81.804 E-0.76000
G1 E-0.04000 F2100.00000
G1 Z0.800 F10800.000
G1 X99.790 Y82.338
G1 Z0.200
G1 E0.80000 F2100.00000
G1 F1200
G1 X150.210 Y90.921 E1.44326
G1 X150.210 Y91.854 E0.02634
G1 X99.790 Y83.272 E1.44326
G1 X99.790 Y82.398 E0.02464
G1 X99.653 Y81.963 F10800.000
G1 F8640
G1 X103.035 Y82.947 E-0.76000
G1 E-0.04000 F2100.00000
G1 Z0.800 F10800.000
G1 X99.790 Y83.454
G1 Z0.200
G1 E0.80000 F2100.00000
G1 F1200
G1 X150.210 Y92.036 E1.44326
G1 X150.210 Y92.970 E0.02633
G1 X99.790 Y84.387 E1.44326
G1 X99.790 Y83.514 E0.02464
G1 X99.653 Y83.078 F10800.000
G1 F8640
G1 X103.035 Y84.063 E-0.76000
G1 E-0.04000 F2100.00000
G1 Z0.800 F10800.000
G1 X99.790 Y84.570
G1 Z0.200
G1 E0.80000 F2100.00000
G1 F1200
G1 X150.210 Y93.152 E1.44326
G1 X150.210 Y94.085 E0.02633
G1 X99.790 Y85.503 E1.44326
G1 X99.790 Y84.630 E0.02464
G1 X99.653 Y84.194 F10800.000
G1 F8640
G1 X103.035 Y85.179 E-0.76000
G1 E-0.04000 F2100.00000
G1 Z0.800 F10800.000
G1 X99.790 Y85.686
