; generated by Slic3r Prusa Edition 1.41.3+linux64 on 2021-02-02 at 17:43:54

; 

; external perimeters extrusion width = 0.45mm
; perimeters extrusion width = 0.45mm
; infill extrusion width = 0.45mm
; solid infill extrusion width = 0.45mm
; top infill extrusion width = 0.40mm
; first layer extrusion width = 0.42mm

M73 P0 R16
M73 Q0 S16
M201 X1000 Y1000 Z1000 E5000 ; sets maximum accelerations, mm/sec^2
M203 X200 Y200 Z12 E120 ; sets maximum feedrates, mm/sec
M204 P1250 R1250 T1250 ; sets acceleration (P, T) and retract acceleration (R), mm/sec^2
M205 X8.00 Y8.00 Z0.40 E1.50 ; sets the jerk limits, mm/sec
M205 S0 T0 ; sets the minimum extruding and travel feed rate, mm/sec
M107
M115 U3.5.1 ; tell printer latest fw version
M83  ; extruder relative mode
M104 S220 ; set extruder temp
M140 S100 ; set bed temp
M190 S100 ; wait for bed temp
M109 S220 ; wait for extruder temp
G28 W ; home all without mesh bed level
G80 ; mesh bed leveling
G1 Y-3.0 F1000.0 ; go outside print area
G92 E0.0
G1 X60.0 E9.0  F1000.0 ; intro line
M73 Q0 S16
M73 P0 R16
G1 X100.0 E12.5  F1000.0 ; intro line
G92 E0.0
M221 S95
M900 K10; Filament gcode
G21 ; set units to millimeters
G90 ; use absolute coordinates
M83 ; use relative distances for extrusion
;BEFORE_LAYER_CHANGE
G92 E0.0
;0.2


G1 E-0.80000 F2100.00000
G1 Z0.600 F10800.000
;AFTER_LAYER_CHANGE
;0.2
G1 X54.868 Y82.073
G1 Z0.200
G1 E0.80000 F2100.00000
M204 S1000
G1 F1200
G1 X56.185 Y81.524 E0.04025
G1 X57.586 Y81.255 E0.04025
G1 X83.201 Y81.229 E0.72282
G1 X84.434 Y81.340 E0.03494
G1 X85.628 Y81.667 E0.03494
G1 X86.740 Y82.197 E0.03476
G1 X87.746 Y82.918 E0.03494
G1 X88.609 Y83.806 E0.03494
G1 X89.298 Y84.827 E0.03476
G1 X89.799 Y85.960 E0.03494
G1 X90.092 Y87.163 E0.03494
G1 X90.170 Y88.190 E0.02907
G1 X90.163 Y113.524 E0.71492
G1 X90.031 Y114.592 E0.03035
G1 X89.737 Y115.626 E0.03035
G1 X89.287 Y116.603 E0.03035
G1 X88.688 Y117.504 E0.03054
G1 X87.628 Y118.590 E0.04282
G1 X86.359 Y119.422 E0.04282
G1 X84.939 Y119.959 E0.04282
G1 X83.431 Y120.177 E0.04300
G1 X57.849 Y120.172 E0.72191
G1 X56.788 Y120.037 E0.03017
G1 X55.761 Y119.742 E0.03017
G1 X54.790 Y119.294 E0.03017
G1 X53.895 Y118.698 E0.03035
G1 X52.809 Y117.638 E0.04282
G1 X51.977 Y116.369 E0.04282
G1 X51.440 Y114.950 E0.04282
G1 X51.222 Y113.442 E0.04300
G1 X51.227 Y87.859 E0.72191
G1 X51.362 Y86.798 E0.03017
G1 X51.657 Y85.771 E0.03017
G1 X52.105 Y84.801 E0.03017
G1 X52.701 Y83.905 E0.03035
G1 X53.691 Y82.877 E0.04025
G1 X54.819 Y82.106 E0.03856
G1 F8640
G1 X56.185 Y81.524 E-0.34296
G1 X57.586 Y81.255 E-0.32939
G1 X57.966 Y81.255 E-0.08765
G1 E-0.04000 F2100.00000
G1 Z0.800 F10800.000
G1 X53.050 Y84.033
G1 Z0.200
G1 E0.80000 F2100.00000
G1 F1200
G1 X54.698 Y82.564 E0.06230
G1 X55.922 Y81.980 E0.03826
G1 X57.574 Y81.606 E0.04780
G1 X83.770 Y81.609 E0.73922
G1 X85.119 Y81.857 E0.03871
G1 X86.401 Y82.388 E0.03915
G1 X88.067 Y83.731 E0.06038
G1 X89.231 Y85.459 E0.05879
G1 X89.787 Y87.524 E0.06036
G1 X89.793 Y113.773 E0.74072
G1 X89.356 Y115.660 E0.05465
G1 X88.339 Y117.377 E0.05631
G1 X86.691 Y118.846 E0.06230
G1 X85.467 Y119.429 E0.03826
G1 X83.815 Y119.804 E0.04779
G1 X57.626 Y119.804 E0.73903
G1 X55.739 Y119.366 E0.05465
G1 X54.022 Y118.349 E0.05631
G1 X52.553 Y116.701 E0.06230
G1 X51.970 Y115.477 E0.03826
G1 X51.595 Y113.825 E0.04779
G1 X51.595 Y87.636 E0.73903
G1 X52.033 Y85.749 E0.05465
G1 X53.019 Y84.084 E0.05462
G1 X53.343 Y84.278 F10800.000
G1 F1200
G1 X54.885 Y82.892 E0.05852
G1 X56.027 Y82.343 E0.03576
G1 X57.596 Y81.983 E0.04541
G1 X83.753 Y81.987 E0.73812
G1 X85.030 Y82.224 E0.03667
G1 X86.230 Y82.725 E0.03670
G1 X87.807 Y84.005 E0.05730
G1 X88.900 Y85.641 E0.05553
G1 X89.416 Y87.596 E0.05706
G1 X89.416 Y113.751 E0.73806
G1 X88.995 Y115.545 E0.05199
G1 X88.030 Y117.158 E0.05305
G1 X86.503 Y118.518 E0.05769
G1 X85.361 Y119.067 E0.03575
G1 X83.794 Y119.426 E0.04539
G1 X57.648 Y119.426 E0.73780
G1 X55.854 Y119.006 E0.05199
G1 X54.241 Y118.041 E0.05305
G1 X52.882 Y116.514 E0.05769
G1 X52.332 Y115.372 E0.03575
G1 X51.973 Y113.804 E0.04539
G1 X51.973 Y87.658 E0.73780
G1 X52.393 Y85.865 E0.05199
G1 X53.312 Y84.329 E0.05049
G1 F8640
G1 X54.885 Y82.892 E-0.49210
G1 X55.931 Y82.389 E-0.26790
G1 E-0.04000 F2100.00000
G1 Z0.800 F10800.000
G1 X52.753 Y85.981
G1 Z0.200
G1 E0.80000 F2100.00000
G1 F1200
G1 X53.666 Y84.471 E0.04979
G1 X55.074 Y83.220 E0.05315
G1 X56.134 Y82.705 E0.03326
G1 X57.618 Y82.360 E0.04298
G1 X83.735 Y82.364 E0.73700
G1 X84.940 Y82.591 E0.03461
G1 X86.058 Y83.062 E0.03424
G1 X87.546 Y84.279 E0.05422
G1 X88.568 Y85.823 E0.05227
G1 X89.039 Y87.620 E0.05242
G1 X89.039 Y113.729 E0.73676
G1 X88.636 Y115.429 E0.04929
G1 X87.723 Y116.939 E0.04979
G1 X86.315 Y118.190 E0.05315
G1 X85.255 Y118.704 E0.03325
G1 X83.772 Y119.049 E0.04297
G1 X57.670 Y119.049 E0.73656
G1 X55.971 Y118.646 E0.04929
G1 X54.460 Y117.733 E0.04979
G1 X53.209 Y116.325 E0.05315
G1 X52.695 Y115.265 E0.03325
G1 X52.350 Y113.782 E0.04297
G1 X52.350 Y87.680 E0.73656
G1 X52.739 Y86.039 E0.04760
G1 X53.106 Y86.127 F10800.000
G1 F1200
G1 X53.973 Y84.692 E0.04733
G1 X55.263 Y83.547 E0.04867
G1 X56.242 Y83.067 E0.03077
G1 X57.640 Y82.737 E0.04053
G1 X83.717 Y82.741 E0.73588
G1 X84.812 Y82.946 E0.03144
G1 X85.886 Y83.399 E0.03288
G1 X87.284 Y84.552 E0.05113
G1 X88.212 Y85.950 E0.04736
G1 X88.662 Y87.645 E0.04949
G1 X88.662 Y113.706 E0.73542
G1 X88.276 Y115.311 E0.04657
G1 X87.416 Y116.718 E0.04653
G1 X86.126 Y117.863 E0.04867
G1 X85.147 Y118.342 E0.03077
G1 X83.749 Y118.672 E0.04052
G1 X57.693 Y118.672 E0.73530
G1 X56.088 Y118.286 E0.04657
G1 X54.681 Y117.426 E0.04653
G1 X53.536 Y116.136 E0.04867
G1 X53.057 Y115.157 E0.03077
G1 X52.727 Y113.760 E0.04052
G1 X52.727 Y87.703 E0.73530
G1 X53.092 Y86.186 E0.04404
G1 X53.458 Y86.275 F10800.000
G1 F1200
G1 X53.472 Y86.217 E0.00167
G1 X54.278 Y84.914 E0.04326
G1 X55.453 Y83.873 E0.04428
G1 X56.351 Y83.428 E0.02829
G1 X57.662 Y83.114 E0.03805
G1 X83.699 Y83.118 E0.73474
G1 X84.721 Y83.313 E0.02936
G1 X85.713 Y83.735 E0.03040
G1 X87.021 Y84.823 E0.04802
G1 X87.880 Y86.131 E0.04416
G1 X88.285 Y87.669 E0.04489
G1 X88.285 Y113.684 E0.73409
G1 X87.917 Y115.192 E0.04381
G1 X87.110 Y116.495 E0.04326
G1 X85.936 Y117.536 E0.04428
G1 X85.038 Y117.981 E0.02828
G1 X83.727 Y118.295 E0.03804
G1 X57.715 Y118.295 E0.73401
G1 X56.207 Y117.927 E0.04381
G1 X54.904 Y117.121 E0.04326
G1 X53.863 Y115.946 E0.04428
G1 X53.418 Y115.048 E0.02828
G1 X53.104 Y113.737 E0.03804
G1 X53.104 Y87.726 E0.73401
G1 X53.443 Y86.333 E0.04045
G1 X53.801 Y86.420 F10800.000
G1 F1200
G1 X54.551 Y85.176 E0.04097
G1 X55.645 Y84.199 E0.04139
G1 X56.462 Y83.790 E0.02579
G1 X57.685 Y83.491 E0.03553
G1 X83.681 Y83.495 E0.73357
G1 X84.629 Y83.679 E0.02726
G1 X85.537 Y84.070 E0.02791
G1 X86.756 Y85.093 E0.04491
G1 X87.547 Y86.310 E0.04096
G1 X87.908 Y87.693 E0.04033
G1 X87.908 Y113.661 E0.73279
G1 X87.580 Y115.021 E0.03946
G1 X86.838 Y116.233 E0.04011
G1 X85.744 Y117.211 E0.04139
G1 X84.927 Y117.620 E0.02579
G1 X83.704 Y117.918 E0.03553
G1 X57.738 Y117.918 E0.73274
G1 X56.378 Y117.590 E0.03946
G1 X55.166 Y116.848 E0.04011
G1 X54.188 Y115.754 E0.04139
G1 X53.779 Y114.937 E0.02579
G1 X53.481 Y113.714 E0.03553
G1 X53.481 Y87.748 E0.73274
G1 X53.787 Y86.478 E0.03687
G1 X54.153 Y86.568 F10800.000
G1 F1200
G1 X54.168 Y86.507 E0.00176
G1 X54.824 Y85.438 E0.03540
G1 X55.838 Y84.523 E0.03854
G1 X56.574 Y84.150 E0.02329
G1 X57.708 Y83.868 E0.03298
G1 X83.662 Y83.872 E0.73238
G1 X84.535 Y84.045 E0.02512
G1 X85.361 Y84.404 E0.02541
G1 X86.491 Y85.363 E0.04183
G1 X87.190 Y86.437 E0.03616
G1 X87.531 Y87.718 E0.03742
G1 X87.531 Y113.638 E0.73144
G1 X87.221 Y114.902 E0.03672
G1 X86.565 Y115.972 E0.03540
G1 X85.551 Y116.886 E0.03854
G1 X84.815 Y117.259 E0.02329
G1 X83.681 Y117.541 E0.03297
G1 X57.761 Y117.541 E0.73143
G1 X56.497 Y117.231 E0.03672
G1 X55.427 Y116.575 E0.03540
G1 X54.513 Y115.561 E0.03854
G1 X54.140 Y114.825 E0.02329
G1 X53.858 Y113.691 E0.03297
G1 X53.858 Y87.771 E0.73143
G1 X54.139 Y86.626 E0.03327
G1 X54.497 Y86.713 F10800.000
G1 F1200
G1 X55.098 Y85.698 E0.03329
G1 X56.033 Y84.847 E0.03568
G1 X56.689 Y84.510 E0.02079
G1 X57.732 Y84.245 E0.03039
G1 X83.643 Y84.249 E0.73117
M73 Q6 S15
M73 P6 R15
G1 X84.440 Y84.410 E0.02295
G1 X85.183 Y84.737 E0.02290
G1 X86.224 Y85.630 E0.03872
G1 X86.857 Y86.615 E0.03303
G1 X87.154 Y87.742 E0.03290
G1 X87.154 Y113.616 E0.73013
G1 X86.883 Y114.733 E0.03242
G1 X86.291 Y115.712 E0.03229
G1 X85.355 Y116.563 E0.03568
G1 X84.700 Y116.899 E0.02078
G1 X83.657 Y117.164 E0.03038
G1 X57.783 Y117.164 E0.73013
G1 X56.666 Y116.893 E0.03242
G1 X55.687 Y116.301 E0.03229
G1 X54.836 Y115.366 E0.03568
G1 X54.500 Y114.711 E0.02078
G1 X54.235 Y113.667 E0.03038
G1 X54.235 Y87.793 E0.73013
G1 X54.483 Y86.771 E0.02968
G1 X54.842 Y86.857 F10800.000
G1 F1200
G1 X55.374 Y85.956 E0.02954
G1 X56.231 Y85.169 E0.03282
G1 X56.805 Y84.869 E0.01828
G1 X57.757 Y84.622 E0.02775
G1 X83.623 Y84.626 E0.72992
G1 X84.343 Y84.775 E0.02073
G1 X85.002 Y85.070 E0.02039
G1 X85.957 Y85.897 E0.03564
G1 X86.501 Y86.741 E0.02834
G1 X86.777 Y87.768 E0.02998
G1 X86.777 Y113.594 E0.72880
G1 X86.544 Y114.565 E0.02817
G1 X86.015 Y115.453 E0.02919
G1 X85.158 Y116.240 E0.03282
G1 X84.584 Y116.540 E0.01828
G1 X83.632 Y116.787 E0.02774
G1 X57.805 Y116.787 E0.72882
G1 X56.834 Y116.554 E0.02817
G1 X55.946 Y116.025 E0.02919
G1 X55.159 Y115.168 E0.03282
G1 X54.859 Y114.594 E0.01828
G1 X54.612 Y113.643 E0.02774
G1 X54.612 Y87.815 E0.72882
G1 X54.828 Y86.915 E0.02611
G1 X55.184 Y87.010 F10800.000
G1 F1200
G1 X55.652 Y86.213 E0.02608
G1 X56.430 Y85.490 E0.02997
G1 X56.924 Y85.228 E0.01577
G1 X57.782 Y84.999 E0.02505
G1 X83.604 Y85.003 E0.72867
G1 X84.208 Y85.127 E0.01739
G1 X84.822 Y85.402 E0.01899
G1 X85.687 Y86.162 E0.03248
G1 X86.167 Y86.918 E0.02528
G1 X86.400 Y87.792 E0.02551
G1 X86.400 Y113.573 E0.72750
G1 X86.204 Y114.400 E0.02397
G1 X85.737 Y115.197 E0.02608
G1 X84.959 Y115.920 E0.02997
G1 X84.465 Y116.182 E0.01577
G1 X83.607 Y116.410 E0.02505
G1 X57.826 Y116.410 E0.72750
G1 X57.000 Y116.215 E0.02397
G1 X56.202 Y115.747 E0.02608
G1 X55.479 Y114.969 E0.02997
G1 X55.217 Y114.475 E0.01577
G1 X54.989 Y113.617 E0.02505
G1 X54.989 Y87.837 E0.72750
G1 X55.171 Y87.068 E0.02228
G1 X55.526 Y87.173 F10800.000
G1 F1200
G1 X55.931 Y86.467 E0.02296
G1 X56.632 Y85.809 E0.02714
G1 X57.046 Y85.585 E0.01327
G1 X57.808 Y85.377 E0.02230
G1 X83.584 Y85.380 E0.72737
G1 X84.108 Y85.492 E0.01513
G1 X84.639 Y85.733 E0.01646
G1 X85.416 Y86.425 E0.02937
G1 X85.811 Y87.046 E0.02075
G1 X86.022 Y87.818 E0.02259
G1 X86.022 Y113.551 E0.72617
G1 X85.863 Y114.237 E0.01985
G1 X85.458 Y114.942 E0.02296
G1 X84.757 Y115.600 E0.02714
G1 X84.343 Y115.824 E0.01327
G1 X83.581 Y116.033 E0.02229
G1 X57.848 Y116.033 E0.72617
G1 X57.162 Y115.873 E0.01985
G1 X56.457 Y115.468 E0.02296
G1 X55.799 Y114.767 E0.02714
G1 X55.575 Y114.353 E0.01327
G1 X55.366 Y113.591 E0.02229
G1 X55.366 Y87.858 E0.72617
G1 X55.512 Y87.231 E0.01816
G1 X55.868 Y87.333 F10800.000
G1 F1200
G1 X56.212 Y86.720 E0.01983
G1 X56.837 Y86.126 E0.02432
G1 X57.171 Y85.941 E0.01076
G1 X57.835 Y85.754 E0.01947
G1 X83.562 Y85.757 E0.72601
G1 X84.006 Y85.855 E0.01281
G1 X84.454 Y86.062 E0.01393
G1 X85.144 Y86.687 E0.02628
G1 X85.456 Y87.176 E0.01636
G1 X85.645 Y87.845 E0.01961
G1 X85.645 Y113.531 E0.72483
G1 X85.521 Y114.077 E0.01581
G1 X85.176 Y114.689 E0.01983
G1 X84.552 Y115.283 E0.02432
G1 X84.218 Y115.468 E0.01076
G1 X83.554 Y115.656 E0.01946
G1 X57.868 Y115.656 E0.72483
G1 X57.322 Y115.531 E0.01581
G1 X56.710 Y115.187 E0.01983
G1 X56.116 Y114.562 E0.02432
G1 X55.931 Y114.228 E0.01076
G1 X55.743 Y113.565 E0.01946
G1 X55.743 Y87.879 E0.72483
G1 X55.855 Y87.391 E0.01411
G1 X56.495 Y86.971 F10800.000
G1 F1200
G1 X57.045 Y86.441 E0.02154
G1 X57.300 Y86.296 E0.00827
G1 X57.862 Y86.131 E0.01654
G1 X83.540 Y86.134 E0.72459
G1 X83.900 Y86.217 E0.01041
G1 X84.265 Y86.390 E0.01141
G1 X84.870 Y86.948 E0.02322
G1 X85.102 Y87.309 E0.01212
G1 X85.268 Y87.873 E0.01657
G1 X85.268 Y113.510 E0.72347
G1 X85.177 Y113.921 E0.01186
G1 X84.893 Y114.439 E0.01667
G1 X84.343 Y114.968 E0.02154
G1 X84.089 Y115.113 E0.00827
G1 X83.526 Y115.279 E0.01654
G1 X57.889 Y115.279 E0.72347
G1 X57.478 Y115.187 E0.01186
G1 X56.960 Y114.904 E0.01667
G1 X56.431 Y114.354 E0.02154
G1 X56.286 Y114.099 E0.00827
G1 X56.120 Y113.537 E0.01654
G1 X56.120 Y87.899 E0.72347
G1 X56.212 Y87.489 E0.01186
G1 X56.467 Y87.023 E0.01498
G1 X56.781 Y87.218 F10800.000
G1 F1200
G1 X57.258 Y86.753 E0.01880
G1 X57.435 Y86.649 E0.00579
G1 X57.892 Y86.508 E0.01350
G1 X83.518 Y86.511 E0.72315
G1 X83.757 Y86.567 E0.00690
G1 X84.077 Y86.718 E0.00999
G1 X84.595 Y87.206 E0.02009
G1 X84.751 Y87.447 E0.00808
G1 X84.891 Y87.902 E0.01346
G1 X84.891 Y113.491 E0.72208
G1 X84.831 Y113.769 E0.00803
G1 X84.608 Y114.191 E0.01347
G1 X84.131 Y114.656 E0.01880
G1 X83.954 Y114.760 E0.00579
G1 X83.497 Y114.902 E0.01350
G1 X57.908 Y114.902 E0.72208
G1 X57.630 Y114.841 E0.00803
G1 X57.208 Y114.618 E0.01347
G1 X56.743 Y114.141 E0.01880
G1 X56.639 Y113.964 E0.00579
G1 X56.497 Y113.507 E0.01350
G1 X56.497 Y87.919 E0.72208
G1 X56.558 Y87.641 E0.00803
G1 X56.753 Y87.271 E0.01178
G1 X56.906 Y87.786 F10800.000
G1 F1200
G1 X57.069 Y87.463 E0.01021
G1 X57.477 Y87.061 E0.01616
G1 X57.577 Y86.999 E0.00333
G1 X57.924 Y86.885 E0.01029
G1 X83.496 Y86.889 E0.72163
G1 X83.613 Y86.916 E0.00339
G1 X83.886 Y87.045 E0.00853
G1 X84.317 Y87.462 E0.01692
G1 X84.401 Y87.590 E0.00431
G1 X84.514 Y87.934 E0.01023
G1 X84.514 Y113.472 E0.72065
G1 X84.482 Y113.623 E0.00436
G1 X84.319 Y113.946 E0.01021
G1 X83.912 Y114.348 E0.01616
G1 X83.812 Y114.411 E0.00333
G1 X83.465 Y114.524 E0.01029
G1 X57.927 Y114.524 E0.72065
G1 X57.776 Y114.493 E0.00436
G1 X57.453 Y114.330 E0.01021
G1 X57.051 Y113.922 E0.01616
G1 X56.988 Y113.822 E0.00333
G1 X56.875 Y113.475 E0.01029
G1 X56.875 Y87.937 E0.72065
G1 X56.894 Y87.845 E0.00266
G1 X57.258 Y87.923 F10800.000
G1 F1200
G1 X57.361 Y87.705 E0.00682
G1 X57.704 Y87.361 E0.01370
G1 X57.959 Y87.262 E0.00771
G1 X83.444 Y87.262 E0.71917
G1 X83.694 Y87.372 E0.00771
G1 X84.038 Y87.715 E0.01370
G1 X84.137 Y87.969 E0.00771
G1 X84.137 Y113.454 E0.71917
G1 X84.028 Y113.705 E0.00771
G1 X83.684 Y114.048 E0.01370
G1 X83.430 Y114.147 E0.00771
G1 X57.945 Y114.147 E0.71917
G1 X57.694 Y114.038 E0.00771
G1 X57.351 Y113.695 E0.01370
G1 X57.252 Y113.440 E0.00771
G1 X57.252 Y87.982 E0.71839
G1 X57.657 Y87.942 F10800.000
G1 F1200
G1 X57.931 Y87.668 E0.01093
G1 X58.001 Y87.639 E0.00212
G1 X83.388 Y87.639 E0.71640
G1 X83.457 Y87.668 E0.00212
G1 X83.731 Y87.942 E0.01093
G1 X83.760 Y88.011 E0.00212
G1 X83.760 Y113.398 E0.71640
G1 X83.731 Y113.468 E0.00212
G1 X83.457 Y113.742 E0.01093
G1 X83.388 Y113.770 E0.00212
G1 X58.001 Y113.770 E0.71640
G1 X57.931 Y113.742 E0.00212
G1 X57.657 Y113.468 E0.01093
G1 X57.629 Y113.398 E0.00212
G1 X57.634 Y87.997 E0.71679
G1 X58.006 Y88.127 F10800.000
G1 F1200
G1 X58.116 Y88.016 E0.00441
G1 X83.272 Y88.016 E0.70988
G1 X83.383 Y88.127 E0.00441
G1 X83.383 Y113.283 E0.70988
G1 X83.272 Y113.393 E0.00441
G1 X58.116 Y113.393 E0.70988
G1 X58.006 Y113.283 E0.00441
G1 X58.006 Y88.187 E0.70819
M73 Q13 S14
M73 P13 R14
; PURGING FINISHED
G1 F8640
G1 X58.116 Y88.016 E-0.04690
G1 X61.205 Y88.016 E-0.71310
G1 E-0.04000 F2100.00000
G1 Z0.800 F10800.000
G1 X60.107 Y90.118
G1 Z0.200
G1 E0.80000 F2100.00000
G1 F1200
G1 X81.281 Y90.118 E0.59751
G1 X81.281 Y111.292 E0.59751
G1 X60.107 Y111.292 E0.59751
G1 X60.107 Y90.178 E0.59582
G1 F8640
G1 X63.399 Y90.168 E-0.76000
G1 E-0.04000 F2100.00000
G1 Z0.800 F10800.000
G1 X62.084 Y90.495
G1 Z0.200
G1 E0.80000 F2100.00000
G1 F1200
G1 X63.304 Y90.495 E0.03443
G1 X63.304 Y110.915 E0.57623
G1 X62.084 Y110.915 E0.03443
G1 X62.084 Y90.555 E0.57454
G1 X62.076 Y90.095 F10800.000
G1 F8640
G1 X63.304 Y90.495 E-0.28204
G1 X63.304 Y92.565 E-0.47796
G1 E-0.04000 F2100.00000
G1 Z0.800 F10800.000
G1 X63.684 Y90.555
G1 Z0.200
G1 E0.80000 F2100.00000
G1 F1200
G1 X63.684 Y90.495 E0.00169
G1 X64.904 Y90.495 E0.03443
G1 X64.904 Y110.915 E0.57623
G1 X63.684 Y110.915 E0.03443
G1 X63.684 Y90.615 E0.57284
G1 X63.632 Y90.526 F10800.000
G1 F8640
G1 X63.684 Y90.495 E-0.02771
G1 X64.904 Y90.495 E-0.28170
G1 X64.904 Y92.446 E-0.45059
