; generated by Slic3r Prusa Edition 1.41.3+linux64 on 2021-02-03 at 15:42:00

; 

; external perimeters extrusion width = 0.45mm
; perimeters extrusion width = 0.45mm
; infill extrusion width = 0.45mm
; solid infill extrusion width = 0.45mm
; top infill extrusion width = 0.40mm
; first layer extrusion width = 0.42mm

M73 P0 R39
M73 Q0 S39
M201 X1000 Y1000 Z1000 E5000 ; sets maximum accelerations, mm/sec^2
M203 X200 Y200 Z12 E120 ; sets maximum feedrates, mm/sec
M204 P1250 R1250 T1250 ; sets acceleration (P, T) and retract acceleration (R), mm/sec^2
M205 X8.00 Y8.00 Z0.40 E1.50 ; sets the jerk limits, mm/sec
M205 S0 T0 ; sets the minimum extruding and travel feed rate, mm/sec
M107
M115 U3.5.1 ; tell printer latest fw version
M83  ; extruder relative mode
M104 S220 ; set extruder temp
M140 S100 ; set bed temp
M190 S100 ; wait for bed temp
M109 S220 ; wait for extruder temp
G28 W ; home all without mesh bed level
G80 ; mesh bed leveling
G1 Y-3.0 F1000.0 ; go outside print area
G92 E0.0
G1 X60.0 E9.0  F1000.0 ; intro line
M73 Q0 S39
M73 P0 R39
G1 X100.0 E12.5  F1000.0 ; intro line
G92 E0.0
M221 S95
M900 K10; Filament gcode
G21 ; set units to millimeters
G90 ; use absolute coordinates
M83 ; use relative distances for extrusion
;BEFORE_LAYER_CHANGE
G92 E0.0
;0.2


G1 E-0.80000 F2100.00000
G1 Z0.600 F10800.000
;AFTER_LAYER_CHANGE
;0.2
G1 X96.230 Y76.579
G1 Z0.200
G1 E0.80000 F2100.00000
M204 S1000
G1 F1200
G1 X96.987 Y75.897 E0.03193
G1 X97.864 Y75.379 E0.03193
G1 X98.826 Y75.047 E0.03193
G1 X99.841 Y74.912 E0.03210
G1 X150.006 Y74.909 E1.57288
G1 X150.959 Y75.000 E0.03002
G1 X151.878 Y75.268 E0.03002
G1 X152.730 Y75.704 E0.03002
G1 X153.486 Y76.291 E0.03002
G1 X154.116 Y77.005 E0.02984
G1 X154.604 Y77.828 E0.03002
G1 X154.929 Y78.729 E0.03002
G1 X155.080 Y79.674 E0.03002
G1 X155.089 Y130.123 E1.58178
G1 X154.988 Y131.019 E0.02828
G1 X154.728 Y131.888 E0.02845
G1 X154.317 Y132.697 E0.02845
G1 X153.770 Y133.421 E0.02845
G1 X152.986 Y134.123 E0.03297
G1 X152.076 Y134.648 E0.03297
G1 X151.076 Y134.976 E0.03297
G1 X150.031 Y135.090 E0.03297
G1 X99.872 Y135.089 E1.57270
G1 X98.976 Y134.986 E0.02828
G1 X98.107 Y134.725 E0.02845
G1 X97.303 Y134.317 E0.02828
G1 X96.579 Y133.770 E0.02845
G1 X95.877 Y132.986 E0.03297
G1 X95.352 Y132.076 E0.03297
G1 X95.024 Y131.076 E0.03297
G1 X94.910 Y130.031 E0.03297
G1 X94.911 Y79.872 E1.57270
G1 X95.014 Y78.976 E0.02828
G1 X95.275 Y78.107 E0.02845
G1 X95.683 Y77.303 E0.02828
G1 X96.194 Y76.627 E0.02657
G1 F8640
G1 X96.987 Y75.897 E-0.24876
G1 X97.864 Y75.379 E-0.23514
G1 X98.826 Y75.047 E-0.23514
G1 X99.002 Y75.023 E-0.04096
G1 E-0.04000 F2100.00000
G1 Z0.800 F10800.000
G1 X95.615 Y78.184
G1 Z0.200
G1 E0.80000 F2100.00000
G1 F1200
G1 X96.356 Y76.971 E0.04457
G1 X97.450 Y75.994 E0.04599
G1 X98.267 Y75.585 E0.02865
G1 X99.491 Y75.286 E0.03948
G1 X150.486 Y75.290 E1.59894
G1 X151.435 Y75.474 E0.03029
G1 X152.343 Y75.865 E0.03101
G1 X153.562 Y76.888 E0.04990
G1 X154.353 Y78.106 E0.04551
G1 X154.713 Y79.489 E0.04481
G1 X154.713 Y130.457 E1.59807
G1 X154.385 Y131.816 E0.04385
G1 X153.644 Y133.029 E0.04457
G1 X152.550 Y134.006 E0.04599
G1 X151.733 Y134.415 E0.02865
G1 X150.510 Y134.713 E0.03947
G1 X99.543 Y134.713 E1.59802
G1 X98.184 Y134.385 E0.04385
G1 X96.971 Y133.644 E0.04457
G1 X95.994 Y132.550 E0.04599
G1 X95.585 Y131.733 E0.02865
G1 X95.287 Y130.510 E0.03947
G1 X95.287 Y79.543 E1.59802
G1 X95.600 Y78.242 E0.04197
G1 X95.966 Y78.332 F10800.000
G1 F1200
G1 X96.629 Y77.233 E0.04024
G1 X97.644 Y76.319 E0.04282
G1 X98.380 Y75.945 E0.02588
G1 X99.514 Y75.664 E0.03664
G1 X150.468 Y75.667 E1.59762
G1 X151.341 Y75.840 E0.02791
G1 X152.166 Y76.199 E0.02823
G1 X153.297 Y77.158 E0.04647
G1 X153.996 Y78.232 E0.04018
G1 X154.336 Y79.513 E0.04157
G1 X154.336 Y130.434 E1.59657
G1 X154.026 Y131.698 E0.04080
G1 X153.371 Y132.767 E0.03933
G1 X152.356 Y133.681 E0.04282
G1 X151.620 Y134.055 E0.02587
G1 X150.486 Y134.336 E0.03664
G1 X99.566 Y134.336 E1.59656
G1 X98.302 Y134.026 E0.04080
G1 X97.233 Y133.371 E0.03933
G1 X96.319 Y132.356 E0.04282
G1 X95.945 Y131.620 E0.02587
G1 X95.664 Y130.486 E0.03664
G1 X95.664 Y79.566 E1.59656
G1 X95.952 Y78.390 E0.03797
G1 X96.310 Y78.477 F10800.000
G1 F1200
G1 X96.904 Y77.493 E0.03603
G1 X97.839 Y76.642 E0.03964
G1 X98.494 Y76.305 E0.02309
G1 X99.538 Y76.041 E0.03376
G1 X150.448 Y76.044 E1.59626
G1 X151.246 Y76.205 E0.02550
G1 X151.988 Y76.533 E0.02545
G1 X153.030 Y77.426 E0.04302
G1 X153.663 Y78.410 E0.03669
G1 X153.959 Y79.538 E0.03655
G1 X153.959 Y130.412 E1.59512
G1 X153.689 Y131.528 E0.03602
G1 X153.096 Y132.507 E0.03588
G1 X152.161 Y133.358 E0.03964
G1 X151.506 Y133.695 E0.02309
G1 X150.462 Y133.959 E0.03376
G1 X99.588 Y133.959 E1.59511
G1 X98.472 Y133.689 E0.03602
G1 X97.493 Y133.096 E0.03588
G1 X96.642 Y132.161 E0.03964
G1 X96.305 Y131.506 E0.02309
G1 X96.041 Y130.462 E0.03376
G1 X96.041 Y79.588 E1.59511
G1 X96.296 Y78.535 E0.03398
G1 X96.650 Y78.640 F10800.000
G1 F1200
G1 X97.180 Y77.751 E0.03243
G1 X98.036 Y76.964 E0.03647
G1 X98.611 Y76.665 E0.02031
G1 X99.562 Y76.418 E0.03083
G1 X150.429 Y76.421 E1.59488
G1 X151.148 Y76.570 E0.02304
G1 X151.808 Y76.865 E0.02266
G1 X152.762 Y77.692 E0.03960
G1 X153.306 Y78.537 E0.03149
G1 X153.582 Y79.563 E0.03331
G1 X153.582 Y130.390 E1.59364
G1 X153.350 Y131.360 E0.03129
G1 X152.820 Y132.249 E0.03243
G1 X151.964 Y133.036 E0.03647
G1 X151.389 Y133.335 E0.02031
G1 X150.438 Y133.582 E0.03082
G1 X99.610 Y133.582 E1.59366
G1 X98.640 Y133.350 E0.03129
G1 X97.751 Y132.820 E0.03243
G1 X96.964 Y131.964 E0.03647
G1 X96.665 Y131.389 E0.02031
G1 X96.418 Y130.438 E0.03082
G1 X96.418 Y79.610 E1.59366
M73 Q2 S38
M73 P2 R38
G1 X96.636 Y78.698 E0.02941
G1 X96.990 Y78.805 F10800.000
G1 F1200
G1 X97.457 Y78.008 E0.02898
G1 X98.236 Y77.285 E0.03330
G1 X98.729 Y77.023 E0.01753
G1 X99.587 Y76.795 E0.02783
G1 X150.410 Y76.798 E1.59350
G1 X151.013 Y76.923 E0.01933
G1 X151.628 Y77.197 E0.02110
G1 X152.492 Y77.957 E0.03609
G1 X152.972 Y78.714 E0.02809
G1 X153.205 Y79.587 E0.02835
G1 X153.205 Y130.368 E1.59220
G1 X153.010 Y131.195 E0.02664
G1 X152.543 Y131.992 E0.02898
G1 X151.764 Y132.715 E0.03330
G1 X151.271 Y132.977 E0.01752
G1 X150.413 Y133.205 E0.02783
G1 X99.632 Y133.205 E1.59219
G1 X98.805 Y133.010 E0.02664
G1 X98.008 Y132.543 E0.02898
G1 X97.285 Y131.764 E0.03330
G1 X97.023 Y131.271 E0.01752
G1 X96.795 Y130.413 E0.02783
G1 X96.795 Y79.632 E1.59219
G1 X96.976 Y78.864 E0.02476
G1 X97.331 Y78.968 F10800.000
G1 F1200
G1 X97.737 Y78.263 E0.02551
G1 X98.438 Y77.604 E0.03015
G1 X98.851 Y77.380 E0.01474
G1 X99.613 Y77.172 E0.02477
G1 X150.389 Y77.176 E1.59204
G1 X150.914 Y77.287 E0.01681
G1 X151.445 Y77.528 E0.01829
G1 X152.222 Y78.221 E0.03263
G1 X152.616 Y78.841 E0.02306
G1 X152.828 Y79.613 E0.02510
G1 X152.828 Y130.347 E1.59072
G1 X152.669 Y131.032 E0.02206
G1 X152.263 Y131.737 E0.02551
G1 X151.562 Y132.396 E0.03015
G1 X151.149 Y132.620 E0.01474
G1 X150.387 Y132.828 E0.02477
G1 X99.653 Y132.828 E1.59072
G1 X98.968 Y132.669 E0.02206
G1 X98.263 Y132.263 E0.02551
G1 X97.604 Y131.562 E0.03015
G1 X97.380 Y131.149 E0.01474
G1 X97.172 Y130.387 E0.02477
G1 X97.172 Y79.653 E1.59072
G1 X97.318 Y79.026 E0.02018
G1 X97.674 Y79.128 F10800.000
G1 F1200
G1 X98.018 Y78.515 E0.02203
G1 X98.643 Y77.922 E0.02703
G1 X98.976 Y77.737 E0.01196
G1 X99.640 Y77.549 E0.02163
G1 X150.368 Y77.553 E1.59054
G1 X150.811 Y77.650 E0.01423
G1 X151.259 Y77.858 E0.01548
G1 X151.950 Y78.483 E0.02920
G1 X152.262 Y78.971 E0.01818
G1 X152.451 Y79.640 E0.02179
G1 X152.451 Y130.326 E1.58922
G1 X152.326 Y130.872 E0.01756
G1 X151.982 Y131.485 E0.02203
G1 X151.357 Y132.078 E0.02703
G1 X151.024 Y132.263 E0.01196
G1 X150.360 Y132.451 E0.02162
G1 X99.674 Y132.451 E1.58922
G1 X99.128 Y132.326 E0.01756
G1 X98.515 Y131.982 E0.02203
G1 X97.922 Y131.357 E0.02703
G1 X97.737 Y131.024 E0.01196
G1 X97.549 Y130.360 E0.02162
G1 X97.549 Y79.674 E1.58922
G1 X97.660 Y79.186 E0.01568
G1 X98.301 Y78.766 F10800.000
G1 F1200
G1 X98.851 Y78.237 E0.02393
G1 X99.106 Y78.091 E0.00919
G1 X99.668 Y77.926 E0.01838
G1 X150.346 Y77.930 E1.58896
G1 X150.705 Y78.013 E0.01157
G1 X151.071 Y78.185 E0.01268
G1 X151.676 Y78.743 E0.02580
G1 X151.908 Y79.105 E0.01347
G1 X152.074 Y79.668 E0.01841
G1 X152.074 Y130.306 E1.58771
G1 X151.982 Y130.716 E0.01318
G1 X151.699 Y131.234 E0.01852
G1 X151.149 Y131.763 E0.02393
G1 X150.894 Y131.909 E0.00919
G1 X150.332 Y132.074 E0.01838
G1 X99.694 Y132.074 E1.58771
G1 X99.284 Y131.982 E0.01318
G1 X98.766 Y131.699 E0.01852
G1 X98.237 Y131.149 E0.02393
G1 X98.091 Y130.894 E0.00919
G1 X97.926 Y130.332 E0.01838
G1 X97.926 Y79.694 E1.58771
G1 X98.018 Y79.284 E0.01318
G1 X98.272 Y78.819 E0.01664
G1 X98.587 Y79.014 F10800.000
G1 F1200
G1 X99.064 Y78.548 E0.02089
G1 X99.241 Y78.444 E0.00643
G1 X99.698 Y78.303 E0.01500
G1 X150.324 Y78.307 E1.58735
G1 X150.562 Y78.362 E0.00767
G1 X150.882 Y78.513 E0.01109
G1 X151.401 Y79.001 E0.02233
G1 X151.556 Y79.242 E0.00898
G1 X151.697 Y79.698 E0.01495
G1 X151.697 Y130.286 E1.58617
G1 X151.636 Y130.564 E0.00892
G1 X151.413 Y130.986 E0.01497
G1 X150.936 Y131.452 E0.02089
G1 X150.759 Y131.556 E0.00643
G1 X150.302 Y131.697 E0.01500
G1 X99.714 Y131.697 E1.58617
G1 X99.436 Y131.636 E0.00892
G1 X99.014 Y131.413 E0.01497
G1 X98.548 Y130.936 E0.02089
G1 X98.444 Y130.759 E0.00643
G1 X98.303 Y130.302 E0.01500
G1 X98.303 Y79.714 E1.58617
G1 X98.364 Y79.436 E0.00892
G1 X98.559 Y79.067 E0.01309
G1 X98.712 Y79.582 F10800.000
G1 F1200
G1 X98.875 Y79.259 E0.01134
G1 X99.282 Y78.856 E0.01795
G1 X99.383 Y78.794 E0.00371
G1 X99.729 Y78.680 E0.01144
G1 X150.302 Y78.684 E1.58567
G1 X150.419 Y78.711 E0.00377
G1 X150.692 Y78.840 E0.00947
G1 X151.123 Y79.257 E0.01880
G1 X151.207 Y79.385 E0.00479
G1 X151.320 Y79.729 E0.01136
G1 X151.320 Y130.267 E1.58458
G1 X151.288 Y130.418 E0.00484
G1 X151.125 Y130.741 E0.01134
G1 X150.718 Y131.144 E0.01795
G1 X150.617 Y131.206 E0.00371
G1 X150.271 Y131.320 E0.01144
G1 X99.733 Y131.320 E1.58458
M73 Q5 S37
M73 P5 R37
G1 X99.582 Y131.288 E0.00484
G1 X99.259 Y131.125 E0.01134
G1 X98.856 Y130.718 E0.01795
G1 X98.794 Y130.617 E0.00371
G1 X98.680 Y130.271 E0.01144
G1 X98.680 Y79.733 E1.58458
G1 X98.700 Y79.640 E0.00296
G1 X99.064 Y79.718 F10800.000
G1 F1200
G1 X99.167 Y79.500 E0.00757
G1 X99.510 Y79.157 E0.01522
G1 X99.764 Y79.057 E0.00856
G1 X150.250 Y79.057 E1.58293
G1 X150.500 Y79.167 E0.00856
G1 X150.843 Y79.510 E0.01522
G1 X150.943 Y79.764 E0.00856
G1 X150.943 Y130.250 E1.58293
G1 X150.833 Y130.500 E0.00856
G1 X150.490 Y130.843 E0.01522
G1 X150.236 Y130.943 E0.00856
G1 X99.750 Y130.943 E1.58293
G1 X99.500 Y130.833 E0.00856
G1 X99.157 Y130.490 E0.01522
G1 X99.057 Y130.236 E0.00856
G1 X99.057 Y79.778 E1.58207
G1 X99.463 Y79.737 F10800.000
G1 F1200
G1 X99.737 Y79.463 E0.01215
G1 X99.806 Y79.434 E0.00235
G1 X150.194 Y79.434 E1.57986
G1 X150.263 Y79.463 E0.00235
G1 X150.537 Y79.737 E0.01215
G1 X150.566 Y79.806 E0.00235
G1 X150.566 Y130.194 E1.57986
G1 X150.537 Y130.263 E0.00235
G1 X150.263 Y130.537 E0.01215
G1 X150.194 Y130.566 E0.00235
G1 X99.806 Y130.566 E1.57986
G1 X99.737 Y130.537 E0.00235
G1 X99.463 Y130.263 E0.01215
G1 X99.434 Y130.194 E0.00235
G1 X99.440 Y79.792 E1.58030
G1 X99.811 Y79.922 F10800.000
G1 F1200
G1 X99.922 Y79.811 E0.00490
G1 X150.078 Y79.811 E1.57261
G1 X150.189 Y79.922 E0.00490
G1 X150.189 Y130.078 E1.57261
G1 X150.078 Y130.189 E0.00490
G1 X99.922 Y130.189 E1.57261
G1 X99.811 Y130.078 E0.00490
G1 X99.811 Y79.982 E1.57073
; PURGING FINISHED
G1 X100.210 Y80.210 F10800.000
G1 F1200
G1 X149.790 Y80.210 E1.55455
G1 X149.790 Y129.790 E1.55455
G1 X100.210 Y129.790 E1.55455
G1 X100.210 Y80.270 E1.55266
G1 X100.596 Y80.314 F10800.000
G1 X100.587 Y80.587
G1 F1200
G1 X149.413 Y80.587 E1.53090
G1 X149.413 Y129.413 E1.53090
G1 X100.587 Y129.413 E1.53090
G1 X100.587 Y80.647 E1.52902
G1 F8640
G1 X103.879 Y80.643 E-0.76000
G1 E-0.04000 F2100.00000
G1 Z0.800 F10800.000
G1 X104.790 Y84.790
G1 Z0.200
G1 E0.80000 F2100.00000
G1 F1200
G1 X105.710 Y84.790 E0.02885
G1 X105.710 Y125.210 E1.26734
G1 X104.790 Y125.210 E0.02885
G1 X104.790 Y84.850 E1.26546
G1 X104.787 Y84.390 F10800.000
G1 F8640
G1 X105.710 Y84.790 E-0.21288
G1 X105.710 Y87.159 E-0.54712
G1 E-0.04000 F2100.00000
G1 Z0.800 F10800.000
G1 X105.790 Y84.850
G1 Z0.200
G1 E0.80000 F2100.00000
G1 F1200
G1 X105.790 Y84.790 E0.00188
G1 X106.710 Y84.790 E0.02885
G1 X106.710 Y125.210 E1.26734
M73 Q7 S36
M73 P7 R36
G1 X105.790 Y125.210 E0.02885
G1 X105.790 Y84.910 E1.26358
G1 X105.738 Y84.820 F10800.000
G1 F8640
G1 X105.790 Y84.790 E-0.02771
G1 X106.710 Y84.790 E-0.21243
G1 X106.710 Y87.041 E-0.51986
G1 E-0.04000 F2100.00000
G1 Z0.800 F10800.000
G1 X106.790 Y84.910
G1 Z0.200
G1 E0.80000 F2100.00000
G1 F1200
G1 X106.790 Y84.790 E0.00376
G1 X107.710 Y84.790 E0.02885
G1 X107.710 Y125.210 E1.26734
G1 X106.790 Y125.210 E0.02885
G1 X106.790 Y84.970 E1.26170
G1 X106.686 Y84.851 F10800.000
G1 F8640
G1 X106.790 Y84.790 E-0.04156
G1 X107.710 Y84.790 E-0.21243
G1 X107.710 Y86.981 E-0.50601
G1 E-0.04000 F2100.00000
G1 Z0.800 F10800.000
G1 X107.790 Y84.970
G1 Z0.200
G1 E0.80000 F2100.00000
G1 F1200
G1 X107.790 Y84.790 E0.00564
G1 X108.710 Y84.790 E0.02885
G1 X108.710 Y125.210 E1.26734
G1 X107.790 Y125.210 E0.02885
G1 X107.790 Y85.030 E1.25982
G1 X107.633 Y84.881 F10800.000
G1 F8640
G1 X107.790 Y84.790 E-0.05542
G1 X108.710 Y84.790 E-0.21243
G1 X108.710 Y86.921 E-0.49215
G1 E-0.04000 F2100.00000
G1 Z0.800 F10800.000
G1 X108.790 Y84.790
G1 Z0.200
G1 E0.80000 F2100.00000
G1 F1200
G1 X109.710 Y84.790 E0.02885
G1 X109.710 Y125.210 E1.26734
G1 X108.790 Y125.210 E0.02885
G1 X108.790 Y84.850 E1.26546
G1 X108.787 Y84.390 F10800.000
G1 F8640
G1 X109.710 Y84.790 E-0.21288
G1 X109.710 Y87.159 E-0.54712
G1 E-0.04000 F2100.00000
G1 Z0.800 F10800.000
G1 X109.790 Y84.850
G1 Z0.200
G1 E0.80000 F2100.00000
G1 F1200
G1 X109.790 Y84.790 E0.00188
G1 X110.710 Y84.790 E0.02885
G1 X110.710 Y125.210 E1.26734
G1 X109.790 Y125.210 E0.02885
G1 X109.790 Y84.910 E1.26358
G1 X109.738 Y84.820 F10800.000
G1 F8640
G1 X109.790 Y84.790 E-0.02771
G1 X110.710 Y84.790 E-0.21243
G1 X110.710 Y87.041 E-0.51986
G1 E-0.04000 F2100.00000
G1 Z0.800 F10800.000
G1 X110.790 Y84.910
G1 Z0.200
G1 E0.80000 F2100.00000
G1 F1200
G1 X110.790 Y84.790 E0.00376
G1 X111.710 Y84.790 E0.02885
G1 X111.710 Y125.210 E1.26734
G1 X110.790 Y125.210 E0.02885
G1 X110.790 Y84.970 E1.26170
G1 X110.686 Y84.851 F10800.000
G1 F8640
G1 X110.790 Y84.790 E-0.04156
G1 X111.710 Y84.790 E-0.21243
G1 X111.710 Y86.981 E-0.50601
G1 E-0.04000 F2100.00000
G1 Z0.800 F10800.000
G1 X111.790 Y84.970
G1 Z0.200
G1 E0.80000 F2100.00000
G1 F1200
G1 X111.790 Y84.790 E0.00564
G1 X112.710 Y84.790 E0.02885
G1 X112.710 Y125.210 E1.26734
G1 X111.790 Y125.210 E0.02885
G1 X111.790 Y85.030 E1.25982
G1 X111.633 Y84.881 F10800.000
G1 F8640
G1 X111.790 Y84.790 E-0.05542
G1 X112.710 Y84.790 E-0.21243
G1 X112.710 Y86.921 E-0.49215
G1 E-0.04000 F2100.00000
G1 Z0.800 F10800.000
G1 X112.790 Y84.790
G1 Z0.200
G1 E0.80000 F2100.00000
G1 F1200
G1 X113.710 Y84.790 E0.02885
G1 X113.710 Y125.210 E1.26734
G1 X112.790 Y125.210 E0.02885
G1 X112.790 Y84.850 E1.26546
G1 X112.787 Y84.390 F10800.000
G1 F8640
G1 X113.710 Y84.790 E-0.21288
G1 X113.710 Y87.159 E-0.54712
G1 E-0.04000 F2100.00000
G1 Z0.800 F10800.000
G1 X113.790 Y84.850
G1 Z0.200
G1 E0.80000 F2100.00000
G1 F1200
G1 X113.790 Y84.790 E0.00188
G1 X114.710 Y84.790 E0.02885
G1 X114.710 Y125.210 E1.26734
G1 X113.790 Y125.210 E0.02885
G1 X113.790 Y84.910 E1.26358
G1 X113.738 Y84.820 F10800.000
G1 F8640
G1 X113.790 Y84.790 E-0.02771
G1 X114.710 Y84.790 E-0.21243
G1 X114.710 Y87.041 E-0.51986
G1 E-0.04000 F2100.00000
G1 Z0.800 F10800.000
G1 X114.790 Y84.910
G1 Z0.200
G1 E0.80000 F2100.00000
G1 F1200
G1 X114.790 Y84.790 E0.00376
G1 X115.710 Y84.790 E0.02885
G1 X115.710 Y125.210 E1.26734
G1 X114.790 Y125.210 E0.02885
G1 X114.790 Y84.970 E1.26170
G1 X114.686 Y84.851 F10800.000
G1 F8640
G1 X114.790 Y84.790 E-0.04156
G1 X115.710 Y84.790 E-0.21243
G1 X115.710 Y86.981 E-0.50601
G1 E-0.04000 F2100.00000
G1 Z0.800 F10800.000
G1 X115.790 Y84.970
G1 Z0.200
G1 E0.80000 F2100.00000
G1 F1200
G1 X115.790 Y84.790 E0.00564
G1 X116.710 Y84.790 E0.02885
G1 X116.710 Y125.210 E1.26734
