; generated by Slic3r Prusa Edition 1.41.3+linux64 on 2021-02-01 at 15:22:10

; 

; external perimeters extrusion width = 0.45mm
; perimeters extrusion width = 0.45mm
; infill extrusion width = 0.45mm
; solid infill extrusion width = 0.45mm
; top infill extrusion width = 0.40mm
; first layer extrusion width = 0.42mm

M73 P0 R22
M73 Q0 S22
M201 X1000 Y1000 Z1000 E5000 ; sets maximum accelerations, mm/sec^2
M203 X200 Y200 Z12 E120 ; sets maximum feedrates, mm/sec
M204 P1250 R1250 T1250 ; sets acceleration (P, T) and retract acceleration (R), mm/sec^2
M205 X8.00 Y8.00 Z0.40 E1.50 ; sets the jerk limits, mm/sec
M205 S0 T0 ; sets the minimum extruding and travel feed rate, mm/sec
M107
M115 U3.5.1 ; tell printer latest fw version
M83  ; extruder relative mode
M104 S220 ; set extruder temp
M140 S100 ; set bed temp
M190 S100 ; wait for bed temp
M109 S220 ; wait for extruder temp
G28 W ; home all without mesh bed level
G80 ; mesh bed leveling
G1 Y-3.0 F1000.0 ; go outside print area
G92 E0.0
G1 X60.0 E9.0  F1000.0 ; intro line
M73 Q0 S22
M73 P0 R22
G1 X100.0 E12.5  F1000.0 ; intro line
G92 E0.0
M221 S95
M900 K10; Filament gcode
G21 ; set units to millimeters
G90 ; use absolute coordinates
M83 ; use relative distances for extrusion
;BEFORE_LAYER_CHANGE
G92 E0.0
;0.2


G1 E-0.80000 F2100.00000
G1 Z0.600 F10800.000
;AFTER_LAYER_CHANGE
;0.2
G1 X108.584 Y89.247
G1 Z0.200
G1 E0.80000 F2100.00000
M204 S1000
G1 F1200
G1 X109.323 Y88.523 E0.03245
G1 X110.193 Y87.962 E0.03245
G1 X111.159 Y87.589 E0.03245
G1 X112.179 Y87.420 E0.03245
G1 X137.506 Y87.409 E0.79408
G1 X138.420 Y87.493 E0.02880
G1 X139.310 Y87.742 E0.02897
G1 X140.140 Y88.148 E0.02897
G1 X140.884 Y88.697 E0.02897
G1 X141.515 Y89.371 E0.02897
G1 X142.015 Y90.148 E0.02897
G1 X142.366 Y91.003 E0.02897
G1 X142.556 Y91.907 E0.02897
G1 X142.587 Y117.701 E0.80873
G1 X142.485 Y118.530 E0.02619
G1 X142.252 Y119.326 E0.02601
G1 X141.892 Y120.073 E0.02601
G1 X141.416 Y120.753 E0.02601
G1 X140.638 Y121.509 E0.03402
G1 X139.712 Y122.085 E0.03419
G1 X138.685 Y122.451 E0.03419
G1 X137.603 Y122.590 E0.03419
G1 X112.288 Y122.586 E0.79374
G1 X111.470 Y122.485 E0.02584
G1 X110.674 Y122.252 E0.02601
G1 X109.927 Y121.892 E0.02601
G1 X109.247 Y121.416 E0.02601
G1 X108.491 Y120.638 E0.03402
G1 X107.915 Y119.712 E0.03419
G1 X107.549 Y118.685 E0.03419
G1 X107.410 Y117.603 E0.03419
G1 X107.414 Y92.288 E0.79374
G1 X107.515 Y91.470 E0.02584
G1 X107.748 Y90.674 E0.02601
G1 X108.108 Y89.927 E0.02601
G1 X108.550 Y89.297 E0.02413
G1 F8640
G1 X109.323 Y88.523 E-0.25262
G1 X110.193 Y87.962 E-0.23898
G1 X111.159 Y87.589 E-0.23898
G1 X111.284 Y87.568 E-0.02942
G1 E-0.04000 F2100.00000
G1 Z0.800 F10800.000
G1 X108.115 Y90.684
G1 Z0.200
G1 E0.80000 F2100.00000
G1 F1200
G1 X108.856 Y89.471 E0.04457
G1 X109.950 Y88.494 E0.04599
G1 X110.767 Y88.085 E0.02866
G1 X111.991 Y87.786 E0.03948
G1 X137.987 Y87.790 E0.81508
G1 X138.935 Y87.974 E0.03028
G1 X139.843 Y88.365 E0.03101
G1 X141.062 Y89.388 E0.04990
G1 X141.853 Y90.606 E0.04551
G1 X142.213 Y91.989 E0.04481
G1 X142.213 Y117.957 E0.81422
G1 X141.885 Y119.316 E0.04385
G1 X141.144 Y120.529 E0.04457
G1 X140.050 Y121.506 E0.04599
G1 X139.233 Y121.915 E0.02865
G1 X138.010 Y122.213 E0.03947
G1 X112.043 Y122.213 E0.81416
G1 X110.684 Y121.885 E0.04385
G1 X109.471 Y121.144 E0.04457
G1 X108.494 Y120.050 E0.04599
G1 X108.085 Y119.233 E0.02865
G1 X107.787 Y118.010 E0.03947
G1 X107.787 Y92.043 E0.81416
G1 X108.100 Y90.742 E0.04197
G1 X108.466 Y90.832 F10800.000
G1 F1200
G1 X109.129 Y89.733 E0.04024
G1 X110.144 Y88.819 E0.04282
G1 X110.880 Y88.445 E0.02588
G1 X112.014 Y88.164 E0.03665
G1 X137.968 Y88.167 E0.81376
G1 X138.841 Y88.340 E0.02791
G1 X139.666 Y88.699 E0.02823
G1 X140.797 Y89.658 E0.04647
G1 X141.496 Y90.732 E0.04018
G1 X141.836 Y92.013 E0.04157
G1 X141.836 Y117.934 E0.81271
G1 X141.526 Y119.198 E0.04080
G1 X140.871 Y120.267 E0.03933
G1 X139.856 Y121.181 E0.04282
G1 X139.120 Y121.555 E0.02587
G1 X137.986 Y121.836 E0.03664
G1 X112.066 Y121.836 E0.81270
G1 X110.802 Y121.526 E0.04080
G1 X109.733 Y120.871 E0.03933
G1 X108.819 Y119.856 E0.04282
G1 X108.445 Y119.120 E0.02587
G1 X108.164 Y117.986 E0.03664
G1 X108.164 Y92.066 E0.81270
G1 X108.452 Y90.890 E0.03797
G1 X108.810 Y90.977 F10800.000
G1 F1200
G1 X109.404 Y89.993 E0.03603
G1 X110.339 Y89.142 E0.03964
G1 X110.994 Y88.805 E0.02309
G1 X112.038 Y88.541 E0.03376
G1 X137.949 Y88.544 E0.81241
G1 X138.746 Y88.705 E0.02550
G1 X139.488 Y89.033 E0.02545
G1 X140.530 Y89.926 E0.04302
G1 X141.163 Y90.910 E0.03669
G1 X141.459 Y92.038 E0.03655
G1 X141.459 Y117.912 E0.81126
G1 X141.189 Y119.028 E0.03602
G1 X140.596 Y120.007 E0.03588
G1 X139.661 Y120.858 E0.03964
G1 X139.006 Y121.195 E0.02309
G1 X137.962 Y121.459 E0.03376
G1 X112.088 Y121.459 E0.81126
G1 X110.972 Y121.189 E0.03602
G1 X109.993 Y120.596 E0.03588
G1 X109.142 Y119.661 E0.03964
G1 X108.805 Y119.006 E0.02309
G1 X108.541 Y117.962 E0.03376
G1 X108.541 Y92.088 E0.81126
G1 X108.796 Y91.035 E0.03398
G1 X109.150 Y91.140 F10800.000
G1 F1200
G1 X109.680 Y90.251 E0.03243
G1 X110.536 Y89.464 E0.03647
G1 X111.111 Y89.165 E0.02031
G1 X112.062 Y88.918 E0.03083
G1 X137.929 Y88.921 E0.81102
G1 X138.648 Y89.070 E0.02304
G1 X139.308 Y89.365 E0.02266
G1 X140.262 Y90.192 E0.03960
G1 X140.806 Y91.037 E0.03149
G1 X141.082 Y92.063 E0.03331
G1 X141.082 Y117.890 E0.80978
G1 X140.850 Y118.860 E0.03129
G1 X140.320 Y119.749 E0.03243
G1 X139.464 Y120.536 E0.03647
G1 X138.889 Y120.835 E0.02031
G1 X137.938 Y121.082 E0.03082
G1 X112.110 Y121.082 E0.80980
G1 X111.140 Y120.850 E0.03129
G1 X110.251 Y120.320 E0.03243
G1 X109.464 Y119.464 E0.03647
G1 X109.165 Y118.889 E0.02031
G1 X108.918 Y117.938 E0.03082
G1 X108.918 Y92.110 E0.80980
G1 X109.136 Y91.198 E0.02941
G1 X109.490 Y91.305 F10800.000
G1 F1200
G1 X109.957 Y90.508 E0.02898
G1 X110.736 Y89.785 E0.03330
G1 X111.229 Y89.523 E0.01753
G1 X112.087 Y89.295 E0.02784
G1 X137.910 Y89.298 E0.80964
G1 X138.513 Y89.423 E0.01932
G1 X139.128 Y89.697 E0.02110
G1 X139.992 Y90.457 E0.03609
G1 X140.472 Y91.214 E0.02809
G1 X140.705 Y92.087 E0.02835
G1 X140.705 Y117.868 E0.80834
G1 X140.510 Y118.695 E0.02664
G1 X140.043 Y119.492 E0.02898
G1 X139.264 Y120.215 E0.03330
G1 X138.771 Y120.477 E0.01752
G1 X137.913 Y120.705 E0.02783
G1 X112.132 Y120.705 E0.80834
G1 X111.305 Y120.510 E0.02664
G1 X110.508 Y120.043 E0.02898
G1 X109.785 Y119.264 E0.03330
G1 X109.523 Y118.771 E0.01752
G1 X109.295 Y117.913 E0.02783
G1 X109.295 Y92.132 E0.80834
G1 X109.476 Y91.364 E0.02476
G1 X109.831 Y91.468 F10800.000
G1 F1200
G1 X110.237 Y90.763 E0.02551
G1 X110.938 Y90.104 E0.03015
G1 X111.351 Y89.880 E0.01474
G1 X112.113 Y89.672 E0.02477
G1 X137.889 Y89.676 E0.80819
G1 X138.414 Y89.787 E0.01681
G1 X138.945 Y90.028 E0.01829
G1 X139.722 Y90.721 E0.03263
G1 X140.116 Y91.341 E0.02306
G1 X140.328 Y92.113 E0.02510
G1 X140.328 Y117.847 E0.80686
G1 X140.169 Y118.532 E0.02206
G1 X139.763 Y119.237 E0.02551
G1 X139.062 Y119.896 E0.03015
G1 X138.649 Y120.120 E0.01474
G1 X137.887 Y120.328 E0.02477
G1 X112.153 Y120.328 E0.80686
G1 X111.468 Y120.169 E0.02206
G1 X110.763 Y119.763 E0.02551
G1 X110.104 Y119.062 E0.03015
G1 X109.880 Y118.649 E0.01474
G1 X109.672 Y117.887 E0.02477
G1 X109.672 Y92.153 E0.80686
G1 X109.818 Y91.526 E0.02018
G1 X110.174 Y91.628 F10800.000
G1 F1200
G1 X110.518 Y91.015 E0.02203
G1 X111.143 Y90.422 E0.02703
G1 X111.476 Y90.237 E0.01196
G1 X112.140 Y90.049 E0.02163
G1 X137.868 Y90.053 E0.80668
G1 X138.311 Y90.150 E0.01423
G1 X138.759 Y90.358 E0.01548
G1 X139.450 Y90.983 E0.02920
G1 X139.762 Y91.471 E0.01818
G1 X139.951 Y92.140 E0.02179
G1 X139.951 Y117.826 E0.80537
G1 X139.826 Y118.372 E0.01756
G1 X139.482 Y118.985 E0.02203
G1 X138.857 Y119.578 E0.02703
G1 X138.524 Y119.763 E0.01196
G1 X137.860 Y119.951 E0.02162
G1 X112.174 Y119.951 E0.80537
G1 X111.628 Y119.826 E0.01756
G1 X111.015 Y119.482 E0.02203
G1 X110.422 Y118.857 E0.02703
G1 X110.237 Y118.524 E0.01196
G1 X110.049 Y117.860 E0.02162
G1 X110.049 Y92.174 E0.80537
G1 X110.160 Y91.686 E0.01568
G1 X110.801 Y91.266 F10800.000
G1 F1200
G1 X111.351 Y90.737 E0.02393
G1 X111.606 Y90.591 E0.00919
G1 X112.168 Y90.426 E0.01838
G1 X137.846 Y90.430 E0.80510
G1 X138.205 Y90.513 E0.01157
G1 X138.571 Y90.685 E0.01268
G1 X139.176 Y91.243 E0.02580
G1 X139.408 Y91.605 E0.01347
G1 X139.574 Y92.168 E0.01841
G1 X139.574 Y117.806 E0.80385
G1 X139.482 Y118.216 E0.01318
G1 X139.199 Y118.734 E0.01852
G1 X138.649 Y119.263 E0.02393
G1 X138.394 Y119.409 E0.00919
G1 X137.832 Y119.574 E0.01838
G1 X112.194 Y119.574 E0.80385
G1 X111.784 Y119.482 E0.01318
G1 X111.266 Y119.199 E0.01852
G1 X110.737 Y118.649 E0.02393
G1 X110.591 Y118.394 E0.00919
G1 X110.426 Y117.832 E0.01838
G1 X110.426 Y92.194 E0.80385
G1 X110.518 Y91.784 E0.01318
G1 X110.772 Y91.319 E0.01664
G1 X111.087 Y91.514 F10800.000
G1 F1200
G1 X111.564 Y91.048 E0.02089
G1 X111.741 Y90.944 E0.00643
G1 X112.198 Y90.803 E0.01500
G1 X137.824 Y90.807 E0.80350
M73 Q4 S21
M73 P4 R21
G1 X138.062 Y90.862 E0.00767
G1 X138.382 Y91.013 E0.01109
G1 X138.901 Y91.501 E0.02233
G1 X139.056 Y91.742 E0.00898
G1 X139.197 Y92.198 E0.01495
G1 X139.197 Y117.786 E0.80231
G1 X139.136 Y118.064 E0.00892
G1 X138.913 Y118.486 E0.01497
G1 X138.436 Y118.952 E0.02089
G1 X138.259 Y119.056 E0.00643
G1 X137.802 Y119.197 E0.01500
G1 X112.214 Y119.197 E0.80231
G1 X111.936 Y119.136 E0.00892
G1 X111.514 Y118.913 E0.01497
G1 X111.048 Y118.436 E0.02089
G1 X110.944 Y118.259 E0.00643
G1 X110.803 Y117.802 E0.01500
G1 X110.803 Y92.214 E0.80231
G1 X110.864 Y91.936 E0.00892
G1 X111.059 Y91.567 E0.01309
G1 X111.212 Y92.082 F10800.000
G1 F1200
G1 X111.375 Y91.759 E0.01134
G1 X111.782 Y91.356 E0.01795
G1 X111.883 Y91.294 E0.00371
G1 X112.229 Y91.180 E0.01144
G1 X137.802 Y91.184 E0.80181
G1 X137.919 Y91.211 E0.00377
G1 X138.192 Y91.340 E0.00947
G1 X138.623 Y91.757 E0.01880
G1 X138.707 Y91.885 E0.00479
G1 X138.820 Y92.229 E0.01136
G1 X138.820 Y117.767 E0.80073
G1 X138.788 Y117.918 E0.00484
G1 X138.625 Y118.241 E0.01134
G1 X138.218 Y118.644 E0.01795
G1 X138.117 Y118.706 E0.00371
G1 X137.771 Y118.820 E0.01144
G1 X112.233 Y118.820 E0.80073
G1 X112.082 Y118.788 E0.00484
G1 X111.759 Y118.625 E0.01134
G1 X111.356 Y118.218 E0.01795
G1 X111.294 Y118.117 E0.00371
G1 X111.180 Y117.771 E0.01144
G1 X111.180 Y92.233 E0.80073
G1 X111.200 Y92.140 E0.00296
G1 X111.564 Y92.218 F10800.000
G1 F1200
G1 X111.667 Y92.000 E0.00757
G1 X112.010 Y91.657 E0.01522
G1 X112.264 Y91.557 E0.00856
G1 X137.750 Y91.557 E0.79908
G1 X138.000 Y91.667 E0.00856
G1 X138.343 Y92.010 E0.01522
G1 X138.443 Y92.264 E0.00856
G1 X138.443 Y117.750 E0.79908
G1 X138.333 Y118.000 E0.00856
G1 X137.990 Y118.343 E0.01522
G1 X137.736 Y118.443 E0.00856
G1 X112.250 Y118.443 E0.79908
G1 X112.000 Y118.333 E0.00856
G1 X111.657 Y117.990 E0.01522
G1 X111.557 Y117.736 E0.00856
G1 X111.557 Y92.278 E0.79821
G1 X111.963 Y92.237 F10800.000
G1 F1200
G1 X112.237 Y91.963 E0.01215
G1 X112.306 Y91.934 E0.00235
G1 X137.694 Y91.934 E0.79600
G1 X137.763 Y91.963 E0.00235
G1 X138.037 Y92.237 E0.01215
G1 X138.066 Y92.306 E0.00235
G1 X138.066 Y117.694 E0.79600
G1 X138.037 Y117.763 E0.00235
G1 X137.763 Y118.037 E0.01215
G1 X137.694 Y118.066 E0.00235
G1 X112.306 Y118.066 E0.79600
G1 X112.237 Y118.037 E0.00235
G1 X111.963 Y117.763 E0.01215
G1 X111.934 Y117.694 E0.00235
G1 X111.940 Y92.292 E0.79644
G1 X112.311 Y92.422 F10800.000
G1 F1200
G1 X112.422 Y92.311 E0.00490
G1 X137.578 Y92.311 E0.78875
G1 X137.689 Y92.422 E0.00490
G1 X137.689 Y117.578 E0.78875
G1 X137.578 Y117.689 E0.00490
G1 X112.422 Y117.689 E0.78875
G1 X112.311 Y117.578 E0.00490
G1 X112.311 Y92.482 E0.78687
; PURGING FINISHED
G1 F8640
G1 X112.422 Y92.311 E-0.04690
G1 X115.510 Y92.311 E-0.71310
G1 E-0.04000 F2100.00000
G1 Z0.800 F10800.000
G1 X114.413 Y94.413
G1 Z0.200
G1 E0.80000 F2100.00000
G1 F1200
G1 X135.587 Y94.413 E0.66390
G1 X135.587 Y115.587 E0.66390
G1 X114.413 Y115.587 E0.66390
G1 X114.413 Y94.473 E0.66202
G1 F8640
G1 X117.704 Y94.464 E-0.76000
G1 E-0.04000 F2100.00000
G1 Z0.800 F10800.000
G1 X116.390 Y94.790
G1 Z0.200
G1 E0.80000 F2100.00000
G1 F1200
G1 X117.610 Y94.790 E0.03825
G1 X117.610 Y115.210 E0.64025
G1 X116.390 Y115.210 E0.03825
G1 X116.390 Y94.850 E0.63837
G1 X116.382 Y94.390 F10800.000
G1 F8640
G1 X117.610 Y94.790 E-0.28204
G1 X117.610 Y96.860 E-0.47796
G1 E-0.04000 F2100.00000
G1 Z0.800 F10800.000
G1 X117.990 Y94.850
G1 Z0.200
G1 E0.80000 F2100.00000
G1 F1200
G1 X117.990 Y94.790 E0.00188
G1 X119.210 Y94.790 E0.03825
G1 X119.210 Y115.210 E0.64025
G1 X117.990 Y115.210 E0.03825
G1 X117.990 Y94.910 E0.63649
G1 X117.937 Y94.821 F10800.000
G1 F8640
G1 X117.990 Y94.790 E-0.02771
G1 X119.210 Y94.790 E-0.28170
G1 X119.210 Y96.741 E-0.45059
G1 E-0.04000 F2100.00000
G1 Z0.800 F10800.000
G1 X119.590 Y94.910
G1 Z0.200
G1 E0.80000 F2100.00000
G1 F1200
G1 X119.590 Y94.790 E0.00376
G1 X120.810 Y94.790 E0.03825
G1 X120.810 Y115.210 E0.64025
G1 X119.590 Y115.210 E0.03825
G1 X119.590 Y94.970 E0.63461
G1 X119.485 Y94.852 F10800.000
G1 F8640
G1 X119.590 Y94.790 E-0.04156
G1 X120.810 Y94.790 E-0.28170
G1 X120.810 Y96.681 E-0.43674
G1 E-0.04000 F2100.00000
G1 Z0.800 F10800.000
G1 X121.190 Y94.970
G1 Z0.200
G1 E0.80000 F2100.00000
G1 F1200
G1 X121.190 Y94.790 E0.00564
G1 X122.410 Y94.790 E0.03825
G1 X122.410 Y115.210 E0.64025
G1 X121.190 Y115.210 E0.03825
G1 X121.190 Y95.030 E0.63273
G1 X121.032 Y94.883 F10800.000
G1 F8640
G1 X121.190 Y94.790 E-0.05542
G1 X122.410 Y94.790 E-0.28170
G1 X122.410 Y96.621 E-0.42288
G1 E-0.04000 F2100.00000
G1 Z0.800 F10800.000
G1 X122.790 Y94.790
G1 Z0.200
G1 E0.80000 F2100.00000
G1 F1200
G1 X124.010 Y94.790 E0.03825
G1 X124.010 Y115.210 E0.64025
G1 X122.790 Y115.210 E0.03825
G1 X122.790 Y94.850 E0.63837
G1 X122.782 Y94.390 F10800.000
G1 F8640
G1 X124.010 Y94.790 E-0.28204
G1 X124.010 Y96.860 E-0.47796
G1 E-0.04000 F2100.00000
G1 Z0.800 F10800.000
G1 X124.390 Y94.850
G1 Z0.200
G1 E0.80000 F2100.00000
G1 F1200
G1 X124.390 Y94.790 E0.00188
G1 X125.610 Y94.790 E0.03825
G1 X125.610 Y115.210 E0.64025
G1 X124.390 Y115.210 E0.03825
G1 X124.390 Y94.910 E0.63649
G1 X124.337 Y94.821 F10800.000
G1 F8640
G1 X124.390 Y94.790 E-0.02771
G1 X125.610 Y94.790 E-0.28170
G1 X125.610 Y96.741 E-0.45059
G1 E-0.04000 F2100.00000
G1 Z0.800 F10800.000
G1 X125.990 Y94.910
G1 Z0.200
G1 E0.80000 F2100.00000
G1 F1200
G1 X125.990 Y94.790 E0.00376
G1 X127.210 Y94.790 E0.03825
G1 X127.210 Y115.210 E0.64025
G1 X125.990 Y115.210 E0.03825
G1 X125.990 Y94.970 E0.63461
G1 X125.885 Y94.852 F10800.000
G1 F8640
G1 X125.990 Y94.790 E-0.04156
G1 X127.210 Y94.790 E-0.28170
G1 X127.210 Y96.681 E-0.43674
G1 E-0.04000 F2100.00000
G1 Z0.800 F10800.000
G1 X127.590 Y94.970
G1 Z0.200
G1 E0.80000 F2100.00000
G1 F1200
G1 X127.590 Y94.790 E0.00564
G1 X128.810 Y94.790 E0.03825
G1 X128.810 Y115.210 E0.64025
G1 X127.590 Y115.210 E0.03825
G1 X127.590 Y95.030 E0.63273
G1 X127.432 Y94.883 F10800.000
G1 F8640
G1 X127.590 Y94.790 E-0.05542
G1 X128.810 Y94.790 E-0.28170
G1 X128.810 Y96.621 E-0.42288
G1 E-0.04000 F2100.00000
G1 Z0.800 F10800.000
G1 X129.190 Y94.790
G1 Z0.200
G1 E0.80000 F2100.00000
G1 F1200
G1 X130.410 Y94.790 E0.03825
G1 X130.410 Y115.210 E0.64025
G1 X129.190 Y115.210 E0.03825
G1 X129.190 Y94.850 E0.63837
G1 X129.182 Y94.390 F10800.000
G1 F8640
G1 X130.410 Y94.790 E-0.28204
G1 X130.410 Y96.860 E-0.47796
G1 E-0.04000 F2100.00000
G1 Z0.800 F10800.000
G1 X130.790 Y94.850
G1 Z0.200
G1 E0.80000 F2100.00000
G1 F1200
G1 X130.790 Y94.790 E0.00188
G1 X132.010 Y94.790 E0.03825
G1 X132.010 Y115.210 E0.64025
G1 X130.790 Y115.210 E0.03825
G1 X130.790 Y94.910 E0.63649
G1 X130.737 Y94.821 F10800.000
G1 F8640
G1 X130.790 Y94.790 E-0.02771
G1 X132.010 Y94.790 E-0.28170
G1 X132.010 Y96.741 E-0.45059
G1 E-0.04000 F2100.00000
G1 Z0.800 F10800.000
G1 X132.390 Y94.910
G1 Z0.200
G1 E0.80000 F2100.00000
G1 F1200
G1 X132.390 Y94.790 E0.00376
G1 X133.610 Y94.790 E0.03825
G1 X133.610 Y115.210 E0.64025
G1 X132.390 Y115.210 E0.03825
G1 X132.390 Y94.970 E0.63461
G1 X132.285 Y94.852 F10800.000
G1 F8640
G1 X132.390 Y94.790 E-0.04156
G1 X133.610 Y94.790 E-0.28170
G1 X133.610 Y96.681 E-0.43674
G1 E-0.04000 F2100.00000
G1 Z0.800 F10800.000
G1 X133.990 Y94.970
G1 Z0.200
G1 E0.80000 F2100.00000
G1 F1200
