; generated by Slic3r Prusa Edition 1.41.3+linux64 on 2021-02-02 at 15:59:57

; 

; external perimeters extrusion width = 0.45mm
; perimeters extrusion width = 0.45mm
; infill extrusion width = 0.45mm
; solid infill extrusion width = 0.45mm
; top infill extrusion width = 0.40mm
; first layer extrusion width = 0.42mm

M73 P0 R14
M73 Q0 S14
M201 X1000 Y1000 Z1000 E5000 ; sets maximum accelerations, mm/sec^2
M203 X200 Y200 Z12 E120 ; sets maximum feedrates, mm/sec
M204 P1250 R1250 T1250 ; sets acceleration (P, T) and retract acceleration (R), mm/sec^2
M205 X8.00 Y8.00 Z0.40 E1.50 ; sets the jerk limits, mm/sec
M205 S0 T0 ; sets the minimum extruding and travel feed rate, mm/sec
M107
M115 U3.5.1 ; tell printer latest fw version
M83  ; extruder relative mode
M104 S220 ; set extruder temp
M140 S100 ; set bed temp
M190 S100 ; wait for bed temp
M109 S220 ; wait for extruder temp
G28 W ; home all without mesh bed level
G80 ; mesh bed leveling
G1 Y-3.0 F1000.0 ; go outside print area
G92 E0.0
G1 X60.0 E9.0  F1000.0 ; intro line
M73 Q0 S14
M73 P0 R14
G1 X100.0 E12.5  F1000.0 ; intro line
G92 E0.0
M221 S95
M900 K10; Filament gcode
G21 ; set units to millimeters
G90 ; use absolute coordinates
M83 ; use relative distances for extrusion
;BEFORE_LAYER_CHANGE
G92 E0.0
;0.2


G1 E-0.80000 F2100.00000
G1 Z0.600 F10800.000
;AFTER_LAYER_CHANGE
;0.2
G1 X110.118 Y91.546
G1 Z0.200
G1 E0.80000 F2100.00000
M204 S1000
G1 F1200
G1 X110.601 Y90.775 E0.02851
G1 X110.982 Y90.431 E0.01610
G1 X111.425 Y90.171 E0.01610
G1 X111.910 Y90.003 E0.01610
G1 X112.419 Y89.936 E0.01610
G1 X137.504 Y89.934 E0.78651
G1 X138.443 Y90.114 E0.02997
G1 X139.254 Y90.627 E0.03010
G1 X139.819 Y91.403 E0.03010
G1 X140.060 Y92.332 E0.03010
G1 X140.065 Y117.563 E0.79110
G1 X139.883 Y118.450 E0.02839
G1 X139.402 Y119.222 E0.02851
G1 X139.008 Y119.576 E0.01660
G1 X138.550 Y119.841 E0.01660
G1 X138.047 Y120.007 E0.01660
G1 X137.517 Y120.066 E0.01672
G1 X112.437 Y120.065 E0.78639
G1 X111.546 Y119.882 E0.02851
G1 X110.775 Y119.399 E0.02851
G1 X110.422 Y119.005 E0.01660
G1 X110.158 Y118.547 E0.01660
G1 X109.993 Y118.044 E0.01660
G1 X109.934 Y117.517 E0.01660
G1 X109.935 Y92.437 E0.78639
G1 X110.106 Y91.605 E0.02663
G1 F8640
G1 X110.601 Y90.775 E-0.22299
G1 X110.982 Y90.431 E-0.11858
G1 X111.425 Y90.171 E-0.11859
G1 X111.910 Y90.003 E-0.11859
G1 X112.419 Y89.936 E-0.11859
G1 X112.691 Y89.936 E-0.06267
G1 E-0.04000 F2100.00000
G1 Z0.800 F10800.000
G1 X111.594 Y90.508
G1 Z0.200
G1 E0.80000 F2100.00000
G1 F1200
G1 X112.443 Y90.312 E0.02732
G1 X137.504 Y90.311 E0.78576
G1 X138.310 Y90.467 E0.02574
G1 X139.005 Y90.911 E0.02586
G1 X139.485 Y91.577 E0.02574
G1 X139.685 Y92.377 E0.02586
G1 X139.688 Y117.548 E0.78920
G1 X139.530 Y118.317 E0.02462
G1 X139.112 Y118.981 E0.02462
G1 X138.386 Y119.501 E0.02799
G1 X137.510 Y119.689 E0.02810
G1 X112.452 Y119.688 E0.78565
G1 X111.683 Y119.530 E0.02462
G1 X111.019 Y119.112 E0.02462
G1 X110.499 Y118.386 E0.02799
G1 X110.311 Y117.510 E0.02810
G1 X110.312 Y92.452 E0.78565
G1 X110.470 Y91.683 E0.02462
G1 X110.888 Y91.019 E0.02462
G1 X111.545 Y90.543 E0.02544
; PURGING FINISHED
G1 F8640
G1 X112.443 Y90.312 E-0.21401
G1 X114.808 Y90.312 E-0.54599
G1 E-0.04000 F2100.00000
G1 Z0.800 F10800.000
G1 X114.413 Y94.413
G1 Z0.200
G1 E0.80000 F2100.00000
G1 F1200
G1 X135.587 Y94.413 E0.66390
G1 X135.587 Y115.587 E0.66390
G1 X114.413 Y115.587 E0.66390
G1 X114.413 Y94.473 E0.66202
G1 F8640
G1 X117.704 Y94.464 E-0.76000
G1 E-0.04000 F2100.00000
G1 Z0.800 F10800.000
G1 X116.390 Y94.790
G1 Z0.200
G1 E0.80000 F2100.00000
G1 F1200
G1 X117.610 Y94.790 E0.03825
G1 X117.610 Y115.210 E0.64025
G1 X116.390 Y115.210 E0.03825
G1 X116.390 Y94.850 E0.63837
G1 X116.382 Y94.390 F10800.000
G1 F8640
G1 X117.610 Y94.790 E-0.28204
G1 X117.610 Y96.860 E-0.47796
G1 E-0.04000 F2100.00000
G1 Z0.800 F10800.000
G1 X117.990 Y94.850
G1 Z0.200
G1 E0.80000 F2100.00000
G1 F1200
G1 X117.990 Y94.790 E0.00188
G1 X119.210 Y94.790 E0.03825
G1 X119.210 Y115.210 E0.64025
G1 X117.990 Y115.210 E0.03825
G1 X117.990 Y94.910 E0.63649
G1 X117.937 Y94.821 F10800.000
G1 F8640
G1 X117.990 Y94.790 E-0.02771
G1 X119.210 Y94.790 E-0.28170
G1 X119.210 Y96.741 E-0.45059
G1 E-0.04000 F2100.00000
G1 Z0.800 F10800.000
G1 X119.590 Y94.910
G1 Z0.200
G1 E0.80000 F2100.00000
G1 F1200
G1 X119.590 Y94.790 E0.00376
G1 X120.810 Y94.790 E0.03825
G1 X120.810 Y115.210 E0.64025
G1 X119.590 Y115.210 E0.03825
G1 X119.590 Y94.970 E0.63461
G1 X119.485 Y94.852 F10800.000
G1 F8640
G1 X119.590 Y94.790 E-0.04156
G1 X120.810 Y94.790 E-0.28170
G1 X120.810 Y96.681 E-0.43674
G1 E-0.04000 F2100.00000
G1 Z0.800 F10800.000
G1 X121.190 Y94.970
G1 Z0.200
G1 E0.80000 F2100.00000
G1 F1200
G1 X121.190 Y94.790 E0.00564
G1 X122.410 Y94.790 E0.03825
G1 X122.410 Y115.210 E0.64025
G1 X121.190 Y115.210 E0.03825
G1 X121.190 Y95.030 E0.63273
G1 X121.032 Y94.883 F10800.000
G1 F8640
G1 X121.190 Y94.790 E-0.05542
G1 X122.410 Y94.790 E-0.28170
G1 X122.410 Y96.621 E-0.42288
G1 E-0.04000 F2100.00000
G1 Z0.800 F10800.000
G1 X122.790 Y94.790
G1 Z0.200
G1 E0.80000 F2100.00000
G1 F1200
G1 X124.010 Y94.790 E0.03825
G1 X124.010 Y115.210 E0.64025
G1 X122.790 Y115.210 E0.03825
G1 X122.790 Y94.850 E0.63837
G1 X122.782 Y94.390 F10800.000
G1 F8640
G1 X124.010 Y94.790 E-0.28204
G1 X124.010 Y96.860 E-0.47796
G1 E-0.04000 F2100.00000
G1 Z0.800 F10800.000
G1 X124.390 Y94.850
G1 Z0.200
G1 E0.80000 F2100.00000
G1 F1200
G1 X124.390 Y94.790 E0.00188
G1 X125.610 Y94.790 E0.03825
G1 X125.610 Y115.210 E0.64025
G1 X124.390 Y115.210 E0.03825
G1 X124.390 Y94.910 E0.63649
G1 X124.337 Y94.821 F10800.000
G1 F8640
G1 X124.390 Y94.790 E-0.02771
G1 X125.610 Y94.790 E-0.28170
G1 X125.610 Y96.741 E-0.45059
G1 E-0.04000 F2100.00000
G1 Z0.800 F10800.000
G1 X125.990 Y94.910
G1 Z0.200
G1 E0.80000 F2100.00000
G1 F1200
G1 X125.990 Y94.790 E0.00376
G1 X127.210 Y94.790 E0.03825
G1 X127.210 Y115.210 E0.64025
G1 X125.990 Y115.210 E0.03825
G1 X125.990 Y94.970 E0.63461
G1 X125.885 Y94.852 F10800.000
G1 F8640
G1 X125.990 Y94.790 E-0.04156
G1 X127.210 Y94.790 E-0.28170
G1 X127.210 Y96.681 E-0.43674
G1 E-0.04000 F2100.00000
G1 Z0.800 F10800.000
G1 X127.590 Y94.970
G1 Z0.200
G1 E0.80000 F2100.00000
G1 F1200
G1 X127.590 Y94.790 E0.00564
G1 X128.810 Y94.790 E0.03825
G1 X128.810 Y115.210 E0.64025
G1 X127.590 Y115.210 E0.03825
G1 X127.590 Y95.030 E0.63273
G1 X127.432 Y94.883 F10800.000
G1 F8640
G1 X127.590 Y94.790 E-0.05542
G1 X128.810 Y94.790 E-0.28170
G1 X128.810 Y96.621 E-0.42288
G1 E-0.04000 F2100.00000
G1 Z0.800 F10800.000
G1 X129.190 Y94.790
G1 Z0.200
G1 E0.80000 F2100.00000
G1 F1200
G1 X130.410 Y94.790 E0.03825
G1 X130.410 Y115.210 E0.64025
G1 X129.190 Y115.210 E0.03825
G1 X129.190 Y94.850 E0.63837
G1 X129.182 Y94.390 F10800.000
G1 F8640
G1 X130.410 Y94.790 E-0.28204
G1 X130.410 Y96.860 E-0.47796
G1 E-0.04000 F2100.00000
G1 Z0.800 F10800.000
G1 X130.790 Y94.850
G1 Z0.200
G1 E0.80000 F2100.00000
G1 F1200
G1 X130.790 Y94.790 E0.00188
G1 X132.010 Y94.790 E0.03825
G1 X132.010 Y115.210 E0.64025
G1 X130.790 Y115.210 E0.03825
G1 X130.790 Y94.910 E0.63649
G1 X130.737 Y94.821 F10800.000
G1 F8640
G1 X130.790 Y94.790 E-0.02771
G1 X132.010 Y94.790 E-0.28170
G1 X132.010 Y96.741 E-0.45059
G1 E-0.04000 F2100.00000
G1 Z0.800 F10800.000
G1 X132.390 Y94.910
G1 Z0.200
G1 E0.80000 F2100.00000
G1 F1200
G1 X132.390 Y94.790 E0.00376
G1 X133.610 Y94.790 E0.03825
G1 X133.610 Y115.210 E0.64025
G1 X132.390 Y115.210 E0.03825
G1 X132.390 Y94.970 E0.63461
G1 X132.285 Y94.852 F10800.000
G1 F8640
G1 X132.390 Y94.790 E-0.04156
G1 X133.610 Y94.790 E-0.28170
G1 X133.610 Y96.681 E-0.43674
G1 E-0.04000 F2100.00000
G1 Z0.800 F10800.000
G1 X133.990 Y94.970
G1 Z0.200
G1 E0.80000 F2100.00000
G1 F1200
G1 X133.990 Y94.790 E0.00564
G1 X135.210 Y94.790 E0.03825
G1 X135.210 Y115.210 E0.64025
G1 X133.990 Y115.210 E0.03825
G1 X133.990 Y95.030 E0.63273
G1 X133.832 Y94.883 F10800.000
G1 F8640
G1 X133.990 Y94.790 E-0.05542
G1 X135.210 Y94.790 E-0.28170
G1 X135.210 Y96.621 E-0.42288
G1 E-0.04000 F2100.00000
G1 Z0.800 F10800.000
G1 X114.790 Y94.790
G1 Z0.200
G1 E0.80000 F2100.00000
G1 F1200
G1 X116.010 Y94.790 E0.03825
G1 X116.010 Y115.210 E0.64025
G1 X114.790 Y115.210 E0.03825
G1 X114.790 Y94.850 E0.63837
G1 X114.782 Y94.390 F10800.000
G1 F8640
G1 X116.010 Y94.790 E-0.28204
G1 X116.010 Y96.860 E-0.47796
G1 E-0.04000 F2100.00000
G1 Z0.800 F10800.000
G1 X113.087 Y93.087
G1 Z0.200
G1 E0.80000 F2100.00000
G1 F1200
G1 X136.913 Y93.087 E0.74704
G1 X136.913 Y116.913 E0.74704
G1 X113.087 Y116.913 E0.74704
G1 X113.087 Y93.147 E0.74516
G1 X112.710 Y92.710 F10800.000
G1 F1200
G1 X137.290 Y92.710 E0.77069
M73 Q7 S13
M73 P7 R13
G1 X137.290 Y117.290 E0.77069
G1 X112.710 Y117.290 E0.77069
G1 X112.710 Y92.770 E0.76881
G1 X113.096 Y92.814 F10800.000
G1 F8640
G1 X116.001 Y92.762 E-0.76000
G1 E-0.04000 F2100.00000
G1 Z0.800 F10800.000
G1 X113.968 Y116.800
G1 Z0.200
G1 E0.80000 F2100.00000
G1 F1200
G1 X113.370 Y116.201 E0.02673
G1 X113.370 Y115.664 E0.01697
G1 X114.505 Y116.800 E0.05073
G1 F8640
G1 X113.370 Y115.664 E-0.37084
G1 X113.370 Y116.201 E-0.12404
G1 X113.968 Y116.800 E-0.19541
G1 E-0.10971 F2100.00000
G1 Z0.800 F10800.000
G1 X136.800 Y95.580
G1 Z0.200
G1 E0.80000 F2100.00000
G1 F1200
G1 X135.870 Y94.650 E0.04154
G1 X135.870 Y95.187 E0.01697
G1 X136.630 Y95.948 E0.03396
G1 X136.630 Y96.485 E0.01697
G1 X135.870 Y95.724 E0.03396
G1 X135.870 Y96.262 E0.01697
G1 X136.630 Y97.022 E0.03396
G1 X136.630 Y97.559 E0.01697
G1 X135.870 Y96.799 E0.03396
G1 X135.870 Y97.336 E0.01697
G1 X136.630 Y98.096 E0.03396
G1 X136.630 Y98.634 E0.01697
G1 X135.870 Y97.873 E0.03396
G1 X135.870 Y98.411 E0.01697
G1 X136.630 Y99.171 E0.03396
G1 X136.630 Y99.708 E0.01697
G1 X135.870 Y98.948 E0.03396
G1 X135.870 Y99.485 E0.01697
G1 X136.630 Y100.245 E0.03396
G1 X136.630 Y100.782 E0.01697
G1 X135.870 Y100.022 E0.03396
G1 X135.870 Y100.559 E0.01697
G1 X136.630 Y101.320 E0.03396
G1 X136.630 Y101.857 E0.01697
G1 X135.870 Y101.097 E0.03396
G1 X135.870 Y101.634 E0.01697
G1 X136.630 Y102.394 E0.03396
G1 X136.630 Y102.931 E0.01697
G1 X135.870 Y102.171 E0.03396
G1 X135.870 Y102.708 E0.01697
G1 X136.630 Y103.468 E0.03396
G1 X136.630 Y104.006 E0.01697
G1 X135.870 Y103.245 E0.03396
G1 X135.870 Y103.783 E0.01697
G1 X136.630 Y104.543 E0.03396
G1 X136.630 Y105.080 E0.01697
G1 X135.870 Y104.320 E0.03396
G1 X135.870 Y104.857 E0.01697
G1 X136.630 Y105.617 E0.03396
G1 X136.630 Y106.155 E0.01697
G1 X135.870 Y105.394 E0.03396
G1 X135.870 Y105.931 E0.01697
G1 X136.630 Y106.692 E0.03396
G1 X136.630 Y107.229 E0.01697
G1 X135.870 Y106.469 E0.03396
G1 X135.870 Y107.006 E0.01697
G1 X136.630 Y107.766 E0.03396
G1 X136.630 Y108.303 E0.01697
G1 X135.870 Y107.543 E0.03396
G1 X135.870 Y108.080 E0.01697
G1 X136.630 Y108.841 E0.03396
G1 X136.630 Y109.378 E0.01697
G1 X135.870 Y108.618 E0.03396
G1 X135.870 Y109.155 E0.01697
G1 X136.630 Y109.915 E0.03396
G1 X136.630 Y110.452 E0.01697
G1 X135.870 Y109.692 E0.03396
G1 X135.870 Y110.229 E0.01697
G1 X136.630 Y110.989 E0.03396
G1 X136.630 Y111.527 E0.01697
G1 X135.870 Y110.766 E0.03396
G1 X135.870 Y111.304 E0.01697
G1 X136.630 Y112.064 E0.03396
G1 X136.630 Y112.601 E0.01697
G1 X135.870 Y111.841 E0.03396
G1 X135.870 Y112.378 E0.01697
G1 X136.630 Y113.138 E0.03396
G1 X136.630 Y113.676 E0.01697
G1 X135.870 Y112.915 E0.03396
G1 X135.870 Y113.452 E0.01697
G1 X136.630 Y114.213 E0.03396
G1 X136.630 Y114.750 E0.01697
G1 X135.870 Y113.990 E0.03396
G1 X135.870 Y114.527 E0.01697
G1 X136.630 Y115.287 E0.03396
G1 X136.630 Y115.824 E0.01697
G1 X135.870 Y115.064 E0.03396
G1 X135.870 Y115.601 E0.01697
G1 X136.630 Y116.362 E0.03396
G1 X136.630 Y116.630 E0.00848
G1 X136.361 Y116.630 E0.00849
G1 X135.601 Y115.870 E0.03396
G1 X135.064 Y115.870 E0.01697
G1 X135.824 Y116.630 E0.03396
G1 X135.287 Y116.630 E0.01697
G1 X134.527 Y115.870 E0.03396
G1 X133.990 Y115.870 E0.01697
G1 X134.750 Y116.630 E0.03396
G1 X134.213 Y116.630 E0.01697
G1 X133.452 Y115.870 E0.03396
G1 X132.915 Y115.870 E0.01697
G1 X133.675 Y116.630 E0.03396
G1 X133.138 Y116.630 E0.01697
G1 X132.378 Y115.870 E0.03396
G1 X131.841 Y115.870 E0.01697
G1 X132.601 Y116.630 E0.03396
G1 X132.064 Y116.630 E0.01697
G1 X131.304 Y115.870 E0.03396
G1 X130.766 Y115.870 E0.01697
G1 X131.527 Y116.630 E0.03396
G1 X130.989 Y116.630 E0.01697
G1 X130.229 Y115.870 E0.03396
G1 X129.692 Y115.870 E0.01697
G1 X130.452 Y116.630 E0.03396
G1 X129.915 Y116.630 E0.01697
G1 X129.155 Y115.870 E0.03396
G1 X128.617 Y115.870 E0.01697
G1 X129.378 Y116.630 E0.03396
G1 X128.841 Y116.630 E0.01697
G1 X128.080 Y115.870 E0.03396
G1 X127.543 Y115.870 E0.01697
G1 X128.303 Y116.630 E0.03396
G1 X127.766 Y116.630 E0.01697
G1 X127.006 Y115.870 E0.03396
G1 X126.469 Y115.870 E0.01697
G1 X127.229 Y116.630 E0.03396
G1 X126.692 Y116.630 E0.01697
G1 X125.931 Y115.870 E0.03396
G1 X125.394 Y115.870 E0.01697
G1 X126.154 Y116.630 E0.03396
G1 X125.617 Y116.630 E0.01697
G1 X124.857 Y115.870 E0.03396
G1 X124.320 Y115.870 E0.01697
G1 X125.080 Y116.630 E0.03396
G1 X124.543 Y116.630 E0.01697
G1 X123.783 Y115.870 E0.03396
G1 X123.245 Y115.870 E0.01697
G1 X124.006 Y116.630 E0.03396
G1 X123.468 Y116.630 E0.01697
G1 X122.708 Y115.870 E0.03396
G1 X122.171 Y115.870 E0.01697
G1 X122.931 Y116.630 E0.03396
G1 X122.394 Y116.630 E0.01697
G1 X121.634 Y115.870 E0.03396
G1 X121.097 Y115.870 E0.01697
G1 X121.857 Y116.630 E0.03396
G1 X121.320 Y116.630 E0.01697
G1 X120.559 Y115.870 E0.03396
G1 X120.022 Y115.870 E0.01697
G1 X120.782 Y116.630 E0.03396
G1 X120.245 Y116.630 E0.01697
G1 X119.485 Y115.870 E0.03396
G1 X118.948 Y115.870 E0.01697
G1 X119.708 Y116.630 E0.03396
G1 X119.171 Y116.630 E0.01697
G1 X118.410 Y115.870 E0.03396
G1 X117.873 Y115.870 E0.01697
G1 X118.634 Y116.630 E0.03396
G1 X118.096 Y116.630 E0.01697
G1 X117.336 Y115.870 E0.03396
G1 X116.799 Y115.870 E0.01697
G1 X117.559 Y116.630 E0.03396
G1 X117.022 Y116.630 E0.01697
G1 X116.262 Y115.870 E0.03396
G1 X115.724 Y115.870 E0.01697
G1 X116.485 Y116.630 E0.03396
G1 X115.947 Y116.630 E0.01697
G1 X115.187 Y115.870 E0.03396
G1 X114.650 Y115.870 E0.01697
G1 X115.410 Y116.630 E0.03396
G1 X114.873 Y116.630 E0.01697
G1 X113.370 Y115.127 E0.06715
G1 X113.370 Y114.590 E0.01697
G1 X114.130 Y115.350 E0.03396
G1 X114.130 Y114.813 E0.01697
G1 X113.370 Y114.053 E0.03396
G1 X113.370 Y113.515 E0.01697
G1 X114.130 Y114.276 E0.03396
G1 X114.130 Y113.738 E0.01697
G1 X113.370 Y112.978 E0.03396
G1 X113.370 Y112.441 E0.01697
G1 X114.130 Y113.201 E0.03396
G1 X114.130 Y112.664 E0.01697
G1 X113.370 Y111.904 E0.03396
G1 X113.370 Y111.366 E0.01697
G1 X114.130 Y112.127 E0.03396
G1 X114.130 Y111.590 E0.01697
G1 X113.370 Y110.829 E0.03396
G1 X113.370 Y110.292 E0.01697
G1 X114.130 Y111.052 E0.03396
G1 X114.130 Y110.515 E0.01697
G1 X113.370 Y109.755 E0.03396
G1 X113.370 Y109.218 E0.01697
G1 X114.130 Y109.978 E0.03396
G1 X114.130 Y109.441 E0.01697
G1 X113.370 Y108.680 E0.03396
G1 X113.370 Y108.143 E0.01697
G1 X114.130 Y108.903 E0.03396
G1 X114.130 Y108.366 E0.01697
G1 X113.370 Y107.606 E0.03396
G1 X113.370 Y107.069 E0.01697
G1 X114.130 Y107.829 E0.03396
G1 X114.130 Y107.292 E0.01697
G1 X113.370 Y106.532 E0.03396
G1 X113.370 Y105.994 E0.01697
G1 X114.130 Y106.755 E0.03396
G1 X114.130 Y106.217 E0.01697
G1 X113.370 Y105.457 E0.03396
G1 X113.370 Y104.920 E0.01697
G1 X114.130 Y105.680 E0.03396
G1 X114.130 Y105.143 E0.01697
G1 X113.370 Y104.383 E0.03396
G1 X113.370 Y103.846 E0.01697
G1 X114.130 Y104.606 E0.03396
G1 X114.130 Y104.069 E0.01697
G1 X113.370 Y103.308 E0.03396
G1 X113.370 Y102.771 E0.01697
G1 X114.130 Y103.531 E0.03396
G1 X114.130 Y102.994 E0.01697
G1 X113.370 Y102.234 E0.03396
G1 X113.370 Y101.697 E0.01697
G1 X114.130 Y102.457 E0.03396
G1 X114.130 Y101.920 E0.01697
G1 X113.370 Y101.159 E0.03396
G1 X113.370 Y100.622 E0.01697
G1 X114.130 Y101.383 E0.03396
G1 X114.130 Y100.845 E0.01697
G1 X113.370 Y100.085 E0.03396
G1 X113.370 Y99.548 E0.01697
G1 X114.130 Y100.308 E0.03396
G1 X114.130 Y99.771 E0.01697
G1 X113.370 Y99.011 E0.03396
G1 X113.370 Y98.473 E0.01697
G1 X114.130 Y99.234 E0.03396
G1 X114.130 Y98.696 E0.01697
G1 X113.370 Y97.936 E0.03396
G1 X113.370 Y97.399 E0.01697
G1 X114.130 Y98.159 E0.03396
G1 X114.130 Y97.622 E0.01697
G1 X113.370 Y96.862 E0.03396
