; generated by Slic3r Prusa Edition 1.41.3+linux64 on 2021-02-02 at 12:51:52

; 

; external perimeters extrusion width = 0.45mm
; perimeters extrusion width = 0.45mm
; infill extrusion width = 0.45mm
; solid infill extrusion width = 0.45mm
; top infill extrusion width = 0.40mm
; first layer extrusion width = 0.42mm

M73 P0 R171
M73 Q0 S171
M201 X1000 Y1000 Z1000 E5000 ; sets maximum accelerations, mm/sec^2
M203 X200 Y200 Z12 E120 ; sets maximum feedrates, mm/sec
M204 P1250 R1250 T1250 ; sets acceleration (P, T) and retract acceleration (R), mm/sec^2
M205 X8.00 Y8.00 Z0.40 E1.50 ; sets the jerk limits, mm/sec
M205 S0 T0 ; sets the minimum extruding and travel feed rate, mm/sec
M107
M115 U3.5.1 ; tell printer latest fw version
M83  ; extruder relative mode
M104 S220 ; set extruder temp
M140 S100 ; set bed temp
M190 S100 ; wait for bed temp
M109 S220 ; wait for extruder temp
G28 W ; home all without mesh bed level
G80 ; mesh bed leveling
G1 Y-3.0 F1000.0 ; go outside print area
G92 E0.0
G1 X60.0 E9.0  F1000.0 ; intro line
M73 Q0 S171
M73 P0 R171
G1 X100.0 E12.5  F1000.0 ; intro line
G92 E0.0
M221 S100
M900 K10; Filament gcode
G21 ; set units to millimeters
G90 ; use absolute coordinates
M83 ; use relative distances for extrusion
;BEFORE_LAYER_CHANGE
G92 E0.0
;0.2


G1 E-0.80000 F2100.00000
G1 Z0.600 F10800.000
;AFTER_LAYER_CHANGE
;0.2
G1 X88.204 Y70.906
G1 Z0.200
G1 E0.80000 F2100.00000
M204 S500
G1 F1200
G1 X89.196 Y69.747 E0.04781
G1 X90.301 Y68.696 E0.04781
G1 X91.507 Y67.764 E0.04781
G1 X92.811 Y66.955 E0.04811
G1 X94.182 Y66.288 E0.04781
G1 X95.615 Y65.765 E0.04781
G1 X97.103 Y65.390 E0.04811
G1 X98.612 Y65.170 E0.04781
G1 X99.983 Y65.105 E0.04303
G1 X150.010 Y65.105 E1.56856
G1 X151.324 Y65.164 E0.04124
G1 X152.627 Y65.339 E0.04124
G1 X153.901 Y65.625 E0.04094
G1 X155.154 Y66.026 E0.04124
G1 X156.367 Y66.535 E0.04124
G1 X157.530 Y67.149 E0.04124
G1 X158.635 Y67.864 E0.04124
G1 X159.672 Y68.673 E0.04124
G1 X160.627 Y69.563 E0.04094
G1 X161.506 Y70.542 E0.04124
G1 X162.296 Y71.593 E0.04124
G1 X162.989 Y72.711 E0.04124
G1 X163.582 Y73.885 E0.04124
G1 X164.068 Y75.108 E0.04124
G1 X164.445 Y76.368 E0.04124
G1 X164.709 Y77.656 E0.04124
G1 X164.895 Y79.954 E0.07227
G1 X164.878 Y130.705 E1.59127
G1 X164.599 Y132.955 E0.07108
G1 X163.981 Y135.136 E0.07108
G1 X163.044 Y137.190 E0.07078
G1 X161.802 Y139.087 E0.07108
G1 X160.738 Y140.322 E0.05110
G1 X159.547 Y141.433 E0.05110
G1 X158.240 Y142.407 E0.05110
G1 X156.836 Y143.233 E0.05110
G1 X155.349 Y143.901 E0.05110
G1 X153.789 Y144.405 E0.05139
G1 X152.193 Y144.732 E0.05110
G1 X150.570 Y144.884 E0.05110
G1 X99.228 Y144.875 E1.60980
G1 X96.998 Y144.589 E0.07049
G1 X94.837 Y143.971 E0.07049
G1 X92.793 Y143.035 E0.07049
G1 X90.906 Y141.796 E0.07078
G1 X89.672 Y140.732 E0.05110
G1 X88.561 Y139.539 E0.05110
G1 X87.587 Y138.233 E0.05110
G1 X86.762 Y136.827 E0.05110
G1 X86.096 Y135.340 E0.05110
G1 X85.595 Y133.789 E0.05110
G1 X85.268 Y132.193 E0.05110
G1 X85.116 Y130.570 E0.05110
G1 X85.125 Y79.228 E1.60980
G1 X85.411 Y76.998 E0.07049
G1 X86.029 Y74.837 E0.07049
G1 X86.965 Y72.793 E0.07049
G1 X88.171 Y70.956 E0.06890
G1 X88.694 Y70.850 F10800.000
G1 F1200
G1 X92.744 Y67.368 E0.16748
G1 X95.693 Y66.111 E0.10048
G1 X98.972 Y65.482 E0.10470
G1 X150.916 Y65.486 E1.62867
G1 X153.862 Y65.971 E0.09361
G1 X156.632 Y67.024 E0.09292
G1 X160.180 Y69.619 E0.13783
G1 X163.129 Y73.728 E0.15859
G1 X164.485 Y78.608 E0.15880
G1 X164.518 Y131.031 E1.64370
G1 X163.534 Y135.347 E0.13879
G1 X161.306 Y139.150 E0.13818
G1 X157.256 Y142.632 E0.16748
G1 X154.308 Y143.888 E0.10047
G1 X151.029 Y144.518 E0.10469
G1 X98.968 Y144.518 E1.63232
G1 X94.653 Y143.534 E0.13879
G1 X90.850 Y141.306 E0.13818
G1 X87.368 Y137.256 E0.16748
G1 X86.112 Y134.308 E0.10047
G1 X85.482 Y131.029 E0.10469
G1 X85.482 Y78.968 E1.63232
G1 X86.466 Y74.653 E0.13879
G1 X88.663 Y70.902 E0.13630
G1 X88.989 Y71.092 F10800.000
G1 F1200
G1 X92.919 Y67.703 E0.16273
G1 X95.784 Y66.478 E0.09769
G1 X98.990 Y65.859 E0.10238
G1 X150.901 Y65.863 E1.62762
G1 X153.746 Y66.330 E0.09039
G1 X156.474 Y67.367 E0.09152
G1 X159.932 Y69.905 E0.13450
G1 X162.803 Y73.920 E0.15475
G1 X164.114 Y78.683 E0.15491
G1 X164.140 Y131.011 E1.64068
G1 X163.194 Y135.182 E0.13411
G1 X160.997 Y138.932 E0.13629
G1 X157.081 Y142.297 E0.16188
G1 X154.216 Y143.522 E0.09768
G1 X151.011 Y144.140 E0.10236
G1 X98.989 Y144.140 E1.63109
G1 X94.818 Y143.194 E0.13411
G1 X91.068 Y140.997 E0.13629
G1 X87.703 Y137.081 E0.16188
G1 X86.478 Y134.216 E0.09768
G1 X85.860 Y131.011 E0.10236
G1 X85.860 Y78.989 E1.63109
G1 X86.806 Y74.818 E0.13411
G1 X88.958 Y71.144 E0.13351
G1 X89.283 Y71.335 F10800.000
G1 F1200
G1 X89.312 Y71.286 E0.00180
G1 X93.095 Y68.038 E0.15631
G1 X95.876 Y66.844 E0.09490
G1 X99.008 Y66.237 E0.10005
G1 X150.885 Y66.240 E1.62656
G1 X153.665 Y66.699 E0.08835
G1 X156.316 Y67.710 E0.08894
G1 X159.684 Y70.191 E0.13117
G1 X162.477 Y74.111 E0.15091
G1 X163.744 Y78.758 E0.15103
G1 X163.763 Y130.989 E1.63768
G1 X162.833 Y135.069 E0.13121
G1 X160.688 Y138.714 E0.13260
G1 X156.906 Y141.962 E0.15631
G1 X154.124 Y143.156 E0.09490
G1 X150.993 Y143.763 E0.10003
G1 X99.011 Y143.763 E1.62986
G1 X94.931 Y142.833 E0.13121
G1 X91.286 Y140.688 E0.13260
G1 X88.038 Y136.906 E0.15631
G1 X86.844 Y134.124 E0.09490
G1 X86.237 Y130.993 E0.10003
G1 X86.237 Y79.011 E1.62986
M73 Q0 S170
M73 P0 R170
G1 X87.167 Y74.931 E0.13121
G1 X89.253 Y71.387 E0.12892
G1 X89.577 Y71.579 F10800.000
G1 F1200
G1 X89.621 Y71.505 E0.00270
G1 X93.270 Y68.373 E0.15077
G1 X95.968 Y67.210 E0.09212
G1 X99.027 Y66.614 E0.09770
G1 X150.870 Y66.617 E1.62550
G1 X153.585 Y67.068 E0.08629
G1 X156.157 Y68.053 E0.08636
G1 X159.436 Y70.476 E0.12784
G1 X162.149 Y74.302 E0.14706
G1 X163.374 Y78.832 E0.14715
G1 X163.386 Y130.968 E1.63468
G1 X162.472 Y134.956 E0.12830
G1 X160.379 Y138.495 E0.12891
G1 X156.730 Y141.627 E0.15077
G1 X154.032 Y142.790 E0.09211
G1 X150.974 Y143.386 E0.09769
G1 X99.032 Y143.386 E1.62861
G1 X95.044 Y142.472 E0.12830
G1 X91.505 Y140.379 E0.12891
G1 X88.373 Y136.730 E0.15077
G1 X87.210 Y134.032 E0.09211
G1 X86.614 Y130.974 E0.09769
G1 X86.614 Y79.032 E1.62861
G1 X87.528 Y75.044 E0.12830
G1 X89.546 Y71.630 E0.12433
G1 X89.870 Y71.823 F10800.000
G1 F1200
G1 X89.929 Y71.724 E0.00361
G1 X93.446 Y68.708 E0.14526
G1 X96.061 Y67.576 E0.08933
G1 X99.045 Y66.991 E0.09535
G1 X150.854 Y66.994 E1.62443
G1 X153.504 Y67.437 E0.08423
G1 X155.997 Y68.396 E0.08377
G1 X159.187 Y70.761 E0.12450
G1 X161.822 Y74.491 E0.14321
G1 X163.003 Y78.906 E0.14327
G1 X163.009 Y130.947 E1.63171
G1 X162.111 Y134.843 E0.12537
G1 X160.071 Y138.276 E0.12522
G1 X156.554 Y141.292 E0.14526
G1 X153.939 Y142.424 E0.08933
G1 X150.956 Y143.009 E0.09533
G1 X99.053 Y143.009 E1.62736
G1 X95.157 Y142.111 E0.12537
G1 X91.724 Y140.071 E0.12522
G1 X88.708 Y136.554 E0.14526
G1 X87.576 Y133.939 E0.08933
G1 X86.991 Y130.956 E0.09533
G1 X86.991 Y79.053 E1.62736
G1 X87.889 Y75.157 E0.12537
G1 X89.840 Y71.874 E0.11973
G1 X90.163 Y72.068 F10800.000
G1 F1200
G1 X90.237 Y71.944 E0.00453
G1 X93.622 Y69.042 E0.13979
G1 X96.154 Y67.942 E0.08655
G1 X99.063 Y67.368 E0.09298
G1 X150.838 Y67.372 E1.62337
G1 X153.386 Y67.796 E0.08098
G1 X155.838 Y68.738 E0.08236
G1 X158.938 Y71.045 E0.12115
G1 X161.494 Y74.681 E0.13935
G1 X162.632 Y78.978 E0.13939
G1 X162.632 Y130.925 E1.62876
G1 X161.751 Y134.729 E0.12243
G1 X159.763 Y138.056 E0.12152
G1 X156.378 Y140.958 E0.13979
G1 X153.846 Y142.058 E0.08655
G1 X150.937 Y142.632 E0.09297
G1 X99.075 Y142.632 E1.62610
G1 X95.271 Y141.751 E0.12243
G1 X91.944 Y139.763 E0.12152
G1 X89.042 Y136.378 E0.13979
G1 X87.942 Y133.846 E0.08655
G1 X87.368 Y130.937 E0.09297
G1 X87.368 Y79.075 E1.62610
G1 X88.249 Y75.271 E0.12243
G1 X90.132 Y72.119 E0.11512
G1 X90.456 Y72.312 F10800.000
G1 F1200
G1 X90.545 Y72.163 E0.00545
G1 X93.799 Y69.377 E0.13432
G1 X96.248 Y68.308 E0.08377
G1 X99.082 Y67.745 E0.09061
G1 X150.823 Y67.749 E1.62229
G1 X153.305 Y68.164 E0.07891
G1 X155.678 Y69.081 E0.07976
G1 X158.688 Y71.329 E0.11781
G1 X161.138 Y74.810 E0.13347
G1 X162.255 Y79.003 E0.13605
G1 X162.255 Y130.904 E1.62731
G1 X161.412 Y134.561 E0.11768
G1 X159.455 Y137.837 E0.11964
G1 X156.201 Y140.623 E0.13432
G1 X153.753 Y141.692 E0.08377
G1 X150.919 Y142.255 E0.09059
G1 X99.096 Y142.255 E1.62485
G1 X95.439 Y141.412 E0.11768
G1 X92.163 Y139.455 E0.11964
G1 X89.377 Y136.201 E0.13432
G1 X88.308 Y133.753 E0.08377
G1 X87.745 Y130.919 E0.09059
G1 X87.745 Y79.096 E1.62485
G1 X88.588 Y75.439 E0.11768
G1 X90.425 Y72.364 E0.11231
G1 X90.852 Y72.384 F10800.000
G1 F1200
G1 X93.976 Y69.711 E0.12890
G1 X96.342 Y68.674 E0.08100
G1 X99.101 Y68.122 E0.08822
G1 X150.807 Y68.126 E1.62120
G1 X153.223 Y68.533 E0.07683
G1 X155.517 Y69.423 E0.07715
M73 Q1 S169
M73 P1 R169
G1 X158.438 Y71.613 E0.11446
G1 X160.810 Y74.999 E0.12964
G1 X161.878 Y79.027 E0.13067
G1 X161.878 Y130.882 E1.62587
G1 X161.051 Y134.447 E0.11473
G1 X159.148 Y137.616 E0.11593
G1 X156.024 Y140.289 E0.12890
G1 X153.658 Y141.326 E0.08099
G1 X150.900 Y141.878 E0.08820
G1 X99.118 Y141.878 E1.62359
G1 X95.553 Y141.051 E0.11473
G1 X92.384 Y139.148 E0.11593
G1 X89.711 Y136.024 E0.12890
G1 X88.674 Y133.658 E0.08099
G1 X88.122 Y130.900 E0.08820
G1 X88.122 Y79.118 E1.62359
G1 X88.949 Y75.553 E0.11473
G1 X90.821 Y72.435 E0.11405
G1 X91.144 Y72.630 F10800.000
G1 F1200
G1 X94.153 Y70.045 E0.12439
G1 X96.436 Y69.039 E0.07823
G1 X99.120 Y68.499 E0.08581
G1 X150.791 Y68.503 E1.62011
G1 X153.141 Y68.901 E0.07473
G1 X155.356 Y69.765 E0.07454
G1 X158.187 Y71.896 E0.11110
G1 X160.482 Y75.187 E0.12581
G1 X161.501 Y79.051 E0.12531
G1 X161.501 Y130.860 E1.62443
G1 X160.691 Y134.332 E0.11177
G1 X158.841 Y137.395 E0.11221
G1 X155.847 Y139.955 E0.12351
G1 X153.564 Y140.961 E0.07822
G1 X150.881 Y141.501 E0.08580
G1 X99.140 Y141.501 E1.62231
G1 X95.668 Y140.691 E0.11177
G1 X92.605 Y138.841 E0.11221
G1 X90.045 Y135.847 E0.12351
G1 X89.039 Y133.564 E0.07822
G1 X88.499 Y130.881 E0.08580
G1 X88.499 Y79.140 E1.62231
G1 X89.309 Y75.668 E0.11177
G1 X91.113 Y72.681 E0.10941
G1 X91.435 Y72.877 F10800.000
G1 F1200
G1 X91.466 Y72.826 E0.00186
G1 X94.331 Y70.378 E0.11816
G1 X96.532 Y69.405 E0.07546
G1 X99.139 Y68.876 E0.08340
G1 X150.775 Y68.880 E1.61902
G1 X153.022 Y69.260 E0.07145
G1 X155.194 Y70.106 E0.07311
G1 X157.936 Y72.178 E0.10774
G1 X160.126 Y75.316 E0.11998
G1 X161.124 Y79.076 E0.12198
G1 X161.124 Y130.838 E1.62297
G1 X160.331 Y134.216 E0.10879
G1 X158.534 Y137.174 E0.10850
G1 X155.669 Y139.622 E0.11816
G1 X153.468 Y140.595 E0.07545
G1 X150.862 Y141.124 E0.08339
G1 X99.162 Y141.124 E1.62103
G1 X95.784 Y140.331 E0.10879
G1 X92.826 Y138.534 E0.10850
G1 X90.378 Y135.669 E0.11816
G1 X89.405 Y133.468 E0.07545
G1 X88.876 Y130.862 E0.08339
G1 X88.876 Y79.162 E1.62103
G1 X89.669 Y75.784 E0.10879
G1 X91.404 Y72.928 E0.10476
G1 X91.725 Y73.125 F10800.000
G1 F1200
G1 X91.772 Y73.049 E0.00279
G1 X94.509 Y70.712 E0.11285
G1 X96.628 Y69.770 E0.07269
G1 X99.158 Y69.253 E0.08097
G1 X150.759 Y69.257 E1.61792
G1 X152.939 Y69.628 E0.06934
G1 X155.032 Y70.448 E0.07048
G1 X157.684 Y72.460 E0.10437
G1 X159.797 Y75.504 E0.11617
G1 X160.747 Y79.100 E0.11663
G1 X160.747 Y130.816 E1.62152
G1 X159.971 Y134.100 E0.10579
G1 X158.228 Y136.951 E0.10478
G1 X155.491 Y139.288 E0.11285
G1 X153.373 Y140.230 E0.07269
G1 X150.843 Y140.747 E0.08096
G1 X99.184 Y140.747 E1.61974
G1 X95.900 Y139.971 E0.10579
G1 X93.049 Y138.228 E0.10478
G1 X90.712 Y135.491 E0.11285
G1 X89.770 Y133.373 E0.07269
G1 X89.253 Y130.843 E0.08096
G1 X89.253 Y79.184 E1.61974
G1 X90.029 Y75.900 E0.10579
G1 X91.694 Y73.176 E0.10010
G1 X92.016 Y73.372 F10800.000
G1 F1200
G1 X92.078 Y73.271 E0.00374
G1 X94.688 Y71.045 E0.10755
G1 X96.724 Y70.135 E0.06993
G1 X99.177 Y69.630 E0.07852
G1 X150.743 Y69.634 E1.61681
G1 X152.856 Y69.997 E0.06723
G1 X154.869 Y70.789 E0.06785
G1 X157.431 Y72.742 E0.10100
G1 X159.468 Y75.691 E0.11237
G1 X160.370 Y79.124 E0.11131
G1 X160.370 Y130.795 E1.62009
G1 X159.633 Y133.929 E0.10095
G1 X157.922 Y136.729 E0.10289
G1 X155.312 Y138.955 E0.10754
G1 X153.276 Y139.865 E0.06993
G1 X150.824 Y140.370 E0.07851
G1 X99.205 Y140.370 E1.61846
M73 Q1 S168
M73 P1 R168
G1 X96.071 Y139.633 E0.10095
G1 X93.271 Y137.922 E0.10289
G1 X91.045 Y135.312 E0.10754
G1 X90.135 Y133.276 E0.06993
G1 X89.630 Y130.824 E0.07851
G1 X89.630 Y79.205 E1.61846
G1 X90.367 Y76.071 E0.10095
G1 X91.984 Y73.424 E0.09728
G1 F8640
G1 X92.078 Y73.271 E-0.04137
G1 X94.446 Y71.251 E-0.71863
G1 E-0.04000 F2100.00000
G1 Z0.800 F10800.000
G1 X90.727 Y76.188
G1 Z0.200
G1 E0.80000 F2100.00000
G1 F1200
G1 X92.383 Y73.494 E0.09916
G1 X94.867 Y71.378 E0.10229
G1 X96.821 Y70.500 E0.06717
G1 X99.196 Y70.007 E0.07606
G1 X150.726 Y70.011 E1.61569
G1 X152.772 Y70.365 E0.06510
G1 X154.706 Y71.130 E0.06520
G1 X157.178 Y73.023 E0.09764
G1 X159.112 Y75.819 E0.10658
G1 X159.993 Y79.149 E0.10800
G1 X159.993 Y130.773 E1.61862
G1 X159.273 Y133.812 E0.09794
G1 X157.617 Y136.506 E0.09916
G1 X155.133 Y138.622 E0.10229
G1 X153.179 Y139.500 E0.06717
G1 X150.804 Y139.993 E0.07605
G1 X99.227 Y139.993 E1.61715
G1 X96.188 Y139.273 E0.09794
G1 X93.494 Y137.617 E0.09916
G1 X91.378 Y135.133 E0.10229
G1 X90.500 Y133.179 E0.06717
G1 X90.007 Y130.804 E0.07605
G1 X90.007 Y79.227 E1.61715
G1 X90.713 Y76.246 E0.09606
G1 X91.079 Y76.333 F10800.000
G1 F1200
G1 X92.688 Y73.718 E0.09629
G1 X95.046 Y71.710 E0.09709
G1 X96.919 Y70.865 E0.06442
G1 X99.216 Y70.384 E0.07359
G1 X150.710 Y70.388 E1.61456
G1 X152.688 Y70.733 E0.06296
G1 X154.542 Y71.470 E0.06256
G1 X156.925 Y73.304 E0.09426
G1 X158.783 Y76.005 E0.10281
G1 X159.616 Y79.173 E0.10270
G1 X159.616 Y130.750 E1.61717
G1 X158.914 Y133.695 E0.09492
G1 X157.312 Y136.282 E0.09541
G1 X154.954 Y138.290 E0.09709
G1 X153.082 Y139.135 E0.06441
G1 X150.785 Y139.616 E0.07358
G1 X99.250 Y139.616 E1.61584
G1 X96.305 Y138.914 E0.09492
G1 X93.718 Y137.312 E0.09541
G1 X91.710 Y134.954 E0.09709
G1 X90.865 Y133.082 E0.06441
G1 X90.384 Y130.785 E0.07358
G1 X90.384 Y79.250 E1.61584
G1 X91.066 Y76.392 E0.09212
G1 X91.432 Y76.480 F10800.000
G1 F1200
G1 X91.446 Y76.423 E0.00183
G1 X92.993 Y73.942 E0.09167
G1 X95.226 Y72.043 E0.09193
G1 X97.017 Y71.229 E0.06167
G1 X99.236 Y70.762 E0.07110
G1 X150.694 Y70.765 E1.61343
G1 X152.567 Y71.090 E0.05961
G1 X154.378 Y71.811 E0.06111
G1 X156.671 Y73.584 E0.09088
G1 X158.427 Y76.133 E0.09706
G1 X159.238 Y79.198 E0.09939
G1 X159.238 Y130.728 E1.61570
G1 X158.554 Y133.577 E0.09187
G1 X157.007 Y136.058 E0.09167
G1 X154.774 Y137.957 E0.09193
G1 X152.983 Y138.771 E0.06167
G1 X150.765 Y139.238 E0.07109
G1 X99.272 Y139.238 E1.61452
G1 X96.423 Y138.554 E0.09187
G1 X93.942 Y137.007 E0.09167
G1 X92.043 Y134.774 E0.09193
G1 X91.229 Y132.983 E0.06167
G1 X90.762 Y130.765 E0.07109
G1 X90.762 Y79.272 E1.61452
G1 X91.418 Y76.538 E0.08816
G1 X91.784 Y76.627 F10800.000
G1 F1200
G1 X91.805 Y76.542 E0.00274
G1 X93.296 Y74.167 E0.08792
G1 X95.407 Y72.375 E0.08682
G1 X97.116 Y71.594 E0.05892
G1 X99.256 Y71.139 E0.06859
G1 X150.677 Y71.142 E1.61229
G1 X152.482 Y71.458 E0.05746
G1 X154.213 Y72.151 E0.05844
G1 X156.416 Y73.863 E0.08749
G1 X158.097 Y76.319 E0.09332
G1 X158.861 Y79.222 E0.09411
G1 X158.861 Y130.705 E1.61423
G1 X158.195 Y133.458 E0.08881
G1 X156.704 Y135.833 E0.08792
G1 X154.593 Y137.625 E0.08682
G1 X152.884 Y138.406 E0.05892
G1 X150.745 Y138.861 E0.06858
G1 X99.295 Y138.861 E1.61319
G1 X96.542 Y138.195 E0.08881
G1 X94.167 Y136.704 E0.08792
G1 X92.375 Y134.593 E0.08682
G1 X91.594 Y132.884 E0.05892
G1 X91.139 Y130.745 E0.06858
G1 X91.139 Y79.295 E1.61319
G1 X91.770 Y76.685 E0.08419
G1 X92.127 Y76.771 F10800.000
G1 F1200
G1 X92.141 Y76.716 E0.00176
G1 X93.600 Y74.392 E0.08604
G1 X95.588 Y72.707 E0.08172
G1 X97.216 Y71.958 E0.05619
G1 X99.276 Y71.516 E0.06606
G1 X150.661 Y71.519 E1.61114
G1 X152.397 Y71.826 E0.05529
G1 X154.047 Y72.491 E0.05577
G1 X156.160 Y74.142 E0.08409
G1 X157.767 Y76.504 E0.08958
G1 X158.484 Y79.246 E0.08885
G1 X158.484 Y130.683 E1.61278
M73 Q2 S167
M73 P2 R167
G1 X157.859 Y133.284 E0.08386
G1 X156.400 Y135.608 E0.08604
G1 X154.412 Y137.293 E0.08172
G1 X152.784 Y138.042 E0.05618
G1 X150.725 Y138.484 E0.06605
G1 X99.317 Y138.484 E1.61186
G1 X96.716 Y137.859 E0.08386
G1 X94.392 Y136.400 E0.08604
