; generated by Slic3r Prusa Edition 1.41.3+linux64 on 2021-03-03 at 16:45:07

; 

; external perimeters extrusion width = 0.45mm
; perimeters extrusion width = 0.45mm
; infill extrusion width = 0.45mm
; solid infill extrusion width = 0.45mm
; top infill extrusion width = 0.40mm
; first layer extrusion width = 0.42mm

M73 P0 R174
M73 Q0 S175
M201 X1000 Y1000 Z1000 E5000 ; sets maximum accelerations, mm/sec^2
M203 X200 Y200 Z12 E120 ; sets maximum feedrates, mm/sec
M204 P1250 R1250 T1250 ; sets acceleration (P, T) and retract acceleration (R), mm/sec^2
M205 X8.00 Y8.00 Z0.40 E1.50 ; sets the jerk limits, mm/sec
M205 S0 T0 ; sets the minimum extruding and travel feed rate, mm/sec
M107 ; disable fan
M115 U3.5.1 ; tell printer latest fw version
M83  ; extruder relative mode
M104 S220 ; set extruder temp
M140 S100 ; set bed temp
M190 S100 ; wait for bed temp
M109 S220 ; wait for extruder temp
G28 W ; home all without mesh bed level
G80 ; mesh bed leveling
G1 Y-3.0 F1000.0 ; go outside print area
G92 E0.0
G1 X60.0 E9.0  F1000.0 ; intro line
M73 Q0 S175
M73 P0 R174
G1 X100.0 E12.5  F1000.0 ; intro line
G92 E0.0
M221 S95
M900 K10; Filament gcode
G21 ; set units to millimeters
G90 ; use absolute coordinates
M83 ; use relative distances for extrusion
;BEFORE_LAYER_CHANGE
G92 E0.0
;0.2


G1 E-0.80000 F2100.00000 ; retract
G1 Z0.600 F10800.000 ; lift Z
;AFTER_LAYER_CHANGE
;0.2
G1 X88.429 Y68.477 ; move to first skirt point
G1 Z0.200 ; restore layer Z
G1 E0.80000 F2100.00000 ; unretract
M204 S1000 ; adjust acceleration
G1 F1200
G1 X89.137 Y67.989 E0.02428 ; skirt
G1 X89.980 Y67.812 E0.02428 ; skirt
G1 X160.004 Y67.811 E1.97600 ; skirt
G1 X160.827 Y67.974 E0.02368 ; skirt
G1 X161.531 Y68.436 E0.02378 ; skirt
G1 X162.008 Y69.131 E0.02378 ; skirt
G1 X162.188 Y69.954 E0.02378 ; skirt
G1 X162.188 Y140.018 E1.97714 ; skirt
G1 X162.025 Y140.830 E0.02337 ; skirt
G1 X161.571 Y141.523 E0.02337 ; skirt
G1 X160.856 Y142.014 E0.02449 ; skirt
G1 X160.002 Y142.189 E0.02459 ; skirt
G1 X89.982 Y142.188 E1.97590 ; skirt
G1 X89.170 Y142.025 E0.02337 ; skirt
G1 X88.477 Y141.571 E0.02337 ; skirt
G1 X87.986 Y140.856 E0.02449 ; skirt
G1 X87.811 Y140.002 E0.02459 ; skirt
G1 X87.812 Y69.982 E1.97590 ; skirt
G1 X87.975 Y69.170 E0.02337 ; skirt
G1 X88.396 Y68.527 E0.02168 ; skirt
; PURGING FINISHED
G1 F8640
G1 X89.137 Y67.989 E-0.21159 ; wipe and retract
G1 X89.980 Y67.812 E-0.19870 ; wipe and retract
G1 X91.494 Y67.812 E-0.34970 ; wipe and retract
G1 E-0.04000 F2100.00000 ; retract
G1 Z0.800 F10800.000 ; lift Z
G1 X99.250 Y79.036 ; move to first perimeter point
G1 Z0.200 ; restore layer Z
G1 E0.80000 F2100.00000 ; unretract
G1 F1200
G1 X150.063 Y79.036 E1.43389 ; perimeter
G1 X150.964 Y83.327 E0.12373 ; perimeter
G1 X150.964 Y86.294 E0.08372 ; perimeter
G1 X150.474 Y86.345 E0.01391 ; perimeter
G1 X150.964 Y88.679 E0.06732 ; perimeter
G1 X150.964 Y91.646 E0.08372 ; perimeter
G1 X150.474 Y91.697 E0.01391 ; perimeter
G1 X150.964 Y94.031 E0.06732 ; perimeter
G1 X150.964 Y96.998 E0.08372 ; perimeter
G1 X150.474 Y97.049 E0.01391 ; perimeter
G1 X150.964 Y99.384 E0.06732 ; perimeter
G1 X150.964 Y102.350 E0.08372 ; perimeter
G1 X150.474 Y102.401 E0.01391 ; perimeter
G1 X150.964 Y104.736 E0.06732 ; perimeter
G1 X150.964 Y107.703 E0.08372 ; perimeter
G1 X150.474 Y107.754 E0.01391 ; perimeter
G1 X150.964 Y110.088 E0.06732 ; perimeter
G1 X150.964 Y113.055 E0.08372 ; perimeter
G1 X150.474 Y113.106 E0.01391 ; perimeter
G1 X150.964 Y115.440 E0.06732 ; perimeter
G1 X150.964 Y118.407 E0.08372 ; perimeter
G1 X150.474 Y118.458 E0.01391 ; perimeter
G1 X150.964 Y120.793 E0.06732 ; perimeter
G1 X150.964 Y123.759 E0.08372 ; perimeter
G1 X150.474 Y123.810 E0.01391 ; perimeter
G1 X150.964 Y126.145 E0.06732 ; perimeter
G1 X150.964 Y129.112 E0.08372 ; perimeter
G1 X150.474 Y129.163 E0.01391 ; perimeter
G1 X150.852 Y130.964 E0.05194 ; perimeter
G1 X99.036 Y130.964 E1.46220 ; perimeter
G1 X99.036 Y128.572 E0.06751 ; perimeter
G1 X99.526 Y128.521 E0.01391 ; perimeter
G1 X99.036 Y126.186 E0.06732 ; perimeter
G1 X99.036 Y123.220 E0.08372 ; perimeter
G1 X99.526 Y123.169 E0.01391 ; perimeter
G1 X99.036 Y120.834 E0.06732 ; perimeter
G1 X99.036 Y117.867 E0.08372 ; perimeter
G1 X99.526 Y117.817 E0.01391 ; perimeter
G1 X99.036 Y115.482 E0.06732 ; perimeter
G1 X99.036 Y112.515 E0.08372 ; perimeter
G1 X99.526 Y112.464 E0.01391 ; perimeter
G1 X99.036 Y110.130 E0.06732 ; perimeter
G1 X99.036 Y107.163 E0.08372 ; perimeter
G1 X99.526 Y107.112 E0.01391 ; perimeter
G1 X99.036 Y104.777 E0.06732 ; perimeter
G1 X99.036 Y101.811 E0.08372 ; perimeter
G1 X99.526 Y101.760 E0.01391 ; perimeter
G1 X99.036 Y99.425 E0.06732 ; perimeter
G1 X99.036 Y96.458 E0.08372 ; perimeter
G1 X99.526 Y96.407 E0.01391 ; perimeter
G1 X99.036 Y94.073 E0.06732 ; perimeter
G1 X99.036 Y91.106 E0.08372 ; perimeter
G1 X99.526 Y91.055 E0.01391 ; perimeter
G1 X99.036 Y88.721 E0.06732 ; perimeter
G1 X99.036 Y85.754 E0.08372 ; perimeter
G1 X99.526 Y85.703 E0.01391 ; perimeter
G1 X99.036 Y83.368 E0.06732 ; perimeter
G1 X99.036 Y80.402 E0.08372 ; perimeter
G1 X99.526 Y80.351 E0.01391 ; perimeter
G1 X99.262 Y79.095 E0.03622 ; perimeter
G1 X99.714 Y79.413 F10800.000 ; move to first perimeter point
G1 F1200
G1 X149.757 Y79.413 E1.41214 ; perimeter
G1 X150.587 Y83.366 E0.11399 ; perimeter
G1 X150.587 Y85.954 E0.07302 ; perimeter
G1 X150.019 Y86.013 E0.01612 ; perimeter
G1 X150.587 Y88.718 E0.07801 ; perimeter
G1 X150.587 Y91.306 E0.07302 ; perimeter
G1 X150.019 Y91.365 E0.01612 ; perimeter
G1 X150.587 Y94.071 E0.07801 ; perimeter
G1 X150.587 Y96.658 E0.07302 ; perimeter
G1 X150.019 Y96.717 E0.01612 ; perimeter
G1 X150.587 Y99.423 E0.07801 ; perimeter
G1 X150.587 Y102.011 E0.07302 ; perimeter
G1 X150.019 Y102.070 E0.01612 ; perimeter
G1 X150.587 Y104.775 E0.07801 ; perimeter
G1 X150.587 Y107.363 E0.07302 ; perimeter
G1 X150.019 Y107.422 E0.01612 ; perimeter
G1 X150.587 Y110.127 E0.07801 ; perimeter
G1 X150.587 Y112.715 E0.07302 ; perimeter
G1 X150.019 Y112.774 E0.01612 ; perimeter
G1 X150.587 Y115.480 E0.07801 ; perimeter
G1 X150.587 Y118.067 E0.07302 ; perimeter
G1 X150.019 Y118.126 E0.01612 ; perimeter
G1 X150.587 Y120.832 E0.07801 ; perimeter
G1 X150.587 Y123.420 E0.07302 ; perimeter
G1 X150.019 Y123.479 E0.01612 ; perimeter
G1 X150.587 Y126.184 E0.07801 ; perimeter
G1 X150.587 Y128.772 E0.07302 ; perimeter
G1 X150.019 Y128.831 E0.01612 ; perimeter
G1 X150.388 Y130.587 E0.05064 ; perimeter
G1 X99.413 Y130.587 E1.43845 ; perimeter
G1 X99.413 Y128.912 E0.04727 ; perimeter
G1 X99.981 Y128.853 E0.01612 ; perimeter
G1 X99.413 Y126.147 E0.07801 ; perimeter
G1 X99.413 Y123.560 E0.07302 ; perimeter
G1 X99.981 Y123.501 E0.01612 ; perimeter
G1 X99.413 Y120.795 E0.07801 ; perimeter
G1 X99.413 Y118.207 E0.07302 ; perimeter
G1 X99.981 Y118.148 E0.01612 ; perimeter
G1 X99.413 Y115.443 E0.07801 ; perimeter
G1 X99.413 Y112.855 E0.07302 ; perimeter
G1 X99.981 Y112.796 E0.01612 ; perimeter
G1 X99.413 Y110.091 E0.07801 ; perimeter
G1 X99.413 Y107.503 E0.07302 ; perimeter
G1 X99.981 Y107.444 E0.01612 ; perimeter
G1 X99.413 Y104.738 E0.07801 ; perimeter
G1 X99.413 Y102.151 E0.07302 ; perimeter
G1 X99.981 Y102.092 E0.01612 ; perimeter
G1 X99.413 Y99.386 E0.07801 ; perimeter
G1 X99.413 Y96.798 E0.07302 ; perimeter
G1 X99.981 Y96.739 E0.01612 ; perimeter
G1 X99.413 Y94.034 E0.07801 ; perimeter
G1 X99.413 Y91.446 E0.07302 ; perimeter
G1 X99.981 Y91.387 E0.01612 ; perimeter
G1 X99.413 Y88.682 E0.07801 ; perimeter
G1 X99.413 Y86.094 E0.07302 ; perimeter
G1 X99.981 Y86.035 E0.01612 ; perimeter
G1 X99.413 Y83.329 E0.07801 ; perimeter
G1 X99.413 Y80.742 E0.07302 ; perimeter
G1 X99.981 Y80.683 E0.01612 ; perimeter
G1 X99.727 Y79.472 E0.03492 ; perimeter
G1 F8640
G1 X103.018 Y79.468 E-0.76000 ; wipe and retract
G1 E-0.04000 F2100.00000 ; retract
G1 Z0.800 F10800.000 ; lift Z
G1 X117.039 Y79.790 ; move to first perimeter point
G1 Z0.200 ; restore layer Z
G1 E0.80000 F2100.00000 ; unretract
G1 F1200
G1 X117.979 Y79.790 E0.02653 ; perimeter
G1 X128.567 Y130.210 E1.45383 ; perimeter
G1 X127.627 Y130.210 E0.02653 ; perimeter
G1 X117.051 Y79.849 E1.45214 ; perimeter
G1 X117.009 Y79.391 F10800.000 ; move inwards before travel
G1 X116.875 Y79.886 ; move to first perimeter point
G1 F1200
G1 X127.443 Y130.210 E1.45107 ; perimeter
G1 X126.503 Y130.210 E0.02653 ; perimeter
G1 X115.915 Y79.790 E1.45383 ; perimeter
G1 X116.855 Y79.790 E0.02653 ; perimeter
G1 X116.863 Y79.827 E0.00107 ; perimeter
G1 X117.273 Y79.844 F10800.000 ; move inwards before travel
G1 F8640
G1 X117.539 Y83.048 E-0.76000 ; wipe and retract
G1 E-0.04000 F2100.00000 ; retract
G1 Z0.800 F10800.000 ; lift Z
G1 X114.791 Y79.790 ; move to first perimeter point
G1 Z0.200 ; restore layer Z
G1 E0.80000 F2100.00000 ; unretract
G1 F1200
G1 X115.731 Y79.790 E0.02653 ; perimeter
G1 X126.319 Y130.210 E1.45383 ; perimeter
G1 X125.379 Y130.210 E0.02653 ; perimeter
G1 X114.803 Y79.849 E1.45214 ; perimeter
G1 X114.761 Y79.391 F10800.000 ; move inwards before travel
G1 X114.627 Y79.886 ; move to first perimeter point
G1 F1200
G1 X125.195 Y130.210 E1.45107 ; perimeter
M73 Q0 S174
M73 P0 R173
G1 X124.255 Y130.210 E0.02653 ; perimeter
G1 X113.667 Y79.790 E1.45383 ; perimeter
G1 X114.607 Y79.790 E0.02653 ; perimeter
G1 X114.615 Y79.827 E0.00107 ; perimeter
G1 X115.025 Y79.844 F10800.000 ; move inwards before travel
G1 F8640
G1 X115.291 Y83.048 E-0.76000 ; wipe and retract
G1 E-0.04000 F2100.00000 ; retract
G1 Z0.800 F10800.000 ; lift Z
G1 X112.543 Y79.790 ; move to first perimeter point
G1 Z0.200 ; restore layer Z
G1 E0.80000 F2100.00000 ; unretract
G1 F1200
G1 X113.483 Y79.790 E0.02653 ; perimeter
G1 X124.071 Y130.210 E1.45383 ; perimeter
G1 X123.131 Y130.210 E0.02653 ; perimeter
G1 X112.555 Y79.849 E1.45214 ; perimeter
G1 X112.513 Y79.391 F10800.000 ; move inwards before travel
G1 X112.379 Y79.886 ; move to first perimeter point
G1 F1200
G1 X122.947 Y130.210 E1.45107 ; perimeter
G1 X122.007 Y130.210 E0.02653 ; perimeter
G1 X111.419 Y79.790 E1.45383 ; perimeter
G1 X112.359 Y79.790 E0.02653 ; perimeter
G1 X112.367 Y79.827 E0.00107 ; perimeter
G1 X112.777 Y79.844 F10800.000 ; move inwards before travel
G1 F8640
G1 X113.043 Y83.048 E-0.76000 ; wipe and retract
G1 E-0.04000 F2100.00000 ; retract
G1 Z0.800 F10800.000 ; lift Z
G1 X110.295 Y79.790 ; move to first perimeter point
G1 Z0.200 ; restore layer Z
G1 E0.80000 F2100.00000 ; unretract
G1 F1200
G1 X111.235 Y79.790 E0.02653 ; perimeter
G1 X121.823 Y130.210 E1.45383 ; perimeter
G1 X120.883 Y130.210 E0.02653 ; perimeter
G1 X110.307 Y79.849 E1.45214 ; perimeter
G1 X110.265 Y79.391 F10800.000 ; move inwards before travel
G1 X110.131 Y79.886 ; move to first perimeter point
G1 F1200
G1 X120.699 Y130.210 E1.45107 ; perimeter
G1 X119.759 Y130.210 E0.02653 ; perimeter
G1 X109.171 Y79.790 E1.45383 ; perimeter
G1 X110.111 Y79.790 E0.02653 ; perimeter
G1 X110.119 Y79.827 E0.00107 ; perimeter
G1 X110.529 Y79.844 F10800.000 ; move inwards before travel
G1 F8640
G1 X110.795 Y83.048 E-0.76000 ; wipe and retract
G1 E-0.04000 F2100.00000 ; retract
G1 Z0.800 F10800.000 ; lift Z
G1 X108.047 Y79.790 ; move to first perimeter point
G1 Z0.200 ; restore layer Z
G1 E0.80000 F2100.00000 ; unretract
G1 F1200
G1 X108.987 Y79.790 E0.02653 ; perimeter
G1 X119.575 Y130.210 E1.45383 ; perimeter
G1 X118.635 Y130.210 E0.02653 ; perimeter
G1 X108.059 Y79.849 E1.45214 ; perimeter
G1 X108.017 Y79.391 F10800.000 ; move inwards before travel
G1 X107.883 Y79.886 ; move to first perimeter point
G1 F1200
G1 X118.451 Y130.210 E1.45107 ; perimeter
G1 X117.511 Y130.210 E0.02653 ; perimeter
G1 X106.923 Y79.790 E1.45383 ; perimeter
G1 X107.863 Y79.790 E0.02653 ; perimeter
G1 X107.871 Y79.827 E0.00107 ; perimeter
G1 X108.281 Y79.844 F10800.000 ; move inwards before travel
G1 F8640
G1 X108.547 Y83.048 E-0.76000 ; wipe and retract
G1 E-0.04000 F2100.00000 ; retract
G1 Z0.800 F10800.000 ; lift Z
G1 X105.799 Y79.790 ; move to first perimeter point
G1 Z0.200 ; restore layer Z
G1 E0.80000 F2100.00000 ; unretract
G1 F1200
G1 X106.739 Y79.790 E0.02653 ; perimeter
G1 X117.327 Y130.210 E1.45383 ; perimeter
G1 X116.387 Y130.210 E0.02653 ; perimeter
G1 X105.811 Y79.849 E1.45214 ; perimeter
G1 X105.769 Y79.391 F10800.000 ; move inwards before travel
G1 X105.635 Y79.886 ; move to first perimeter point
G1 F1200
G1 X116.203 Y130.210 E1.45107 ; perimeter
G1 X115.263 Y130.210 E0.02653 ; perimeter
G1 X104.675 Y79.790 E1.45383 ; perimeter
G1 X105.615 Y79.790 E0.02653 ; perimeter
G1 X105.623 Y79.827 E0.00107 ; perimeter
G1 X106.033 Y79.844 F10800.000 ; move inwards before travel
G1 F8640
G1 X106.299 Y83.048 E-0.76000 ; wipe and retract
G1 E-0.04000 F2100.00000 ; retract
G1 Z0.800 F10800.000 ; lift Z
G1 X103.551 Y79.790 ; move to first perimeter point
G1 Z0.200 ; restore layer Z
G1 E0.80000 F2100.00000 ; unretract
G1 F1200
G1 X104.491 Y79.790 E0.02653 ; perimeter
G1 X115.079 Y130.210 E1.45383 ; perimeter
G1 X114.139 Y130.210 E0.02653 ; perimeter
G1 X103.563 Y79.849 E1.45214 ; perimeter
G1 X103.521 Y79.391 F10800.000 ; move inwards before travel
G1 X103.387 Y79.886 ; move to first perimeter point
G1 F1200
G1 X113.955 Y130.210 E1.45107 ; perimeter
G1 X113.015 Y130.210 E0.02653 ; perimeter
G1 X102.427 Y79.790 E1.45383 ; perimeter
G1 X103.367 Y79.790 E0.02653 ; perimeter
G1 X103.375 Y79.827 E0.00107 ; perimeter
G1 X103.785 Y79.844 F10800.000 ; move inwards before travel
G1 F8640
G1 X104.051 Y83.048 E-0.76000 ; wipe and retract
G1 E-0.04000 F2100.00000 ; retract
G1 Z0.800 F10800.000 ; lift Z
G1 X101.303 Y79.790 ; move to first perimeter point
G1 Z0.200 ; restore layer Z
G1 E0.80000 F2100.00000 ; unretract
G1 F1200
G1 X102.243 Y79.790 E0.02653 ; perimeter
G1 X112.831 Y130.210 E1.45383 ; perimeter
M73 Q1 S173
M73 P1 R172
G1 X111.891 Y130.210 E0.02653 ; perimeter
G1 X101.315 Y79.849 E1.45214 ; perimeter
G1 X101.273 Y79.391 F10800.000 ; move inwards before travel
G1 X101.139 Y79.886 ; move to first perimeter point
G1 F1200
G1 X111.707 Y130.210 E1.45107 ; perimeter
G1 X110.767 Y130.210 E0.02653 ; perimeter
G1 X100.179 Y79.790 E1.45383 ; perimeter
G1 X101.119 Y79.790 E0.02653 ; perimeter
G1 X101.127 Y79.827 E0.00107 ; perimeter
G1 X101.537 Y79.844 F10800.000 ; move inwards before travel
G1 F8640
G1 X101.803 Y83.048 E-0.76000 ; wipe and retract
G1 E-0.04000 F2100.00000 ; retract
G1 Z0.800 F10800.000 ; lift Z
G1 X99.483 Y80.319 ; move to first perimeter point
G1 X99.538 Y80.855 ; move to first perimeter point
G1 X100.256 Y81.033 ; move to first perimeter point
G1 Z0.200 ; restore layer Z
G1 E0.80000 F2100.00000 ; unretract
G1 F1200
G1 X110.583 Y130.210 E1.41798 ; perimeter
G1 X109.643 Y130.210 E0.02653 ; perimeter
G1 X99.790 Y83.290 E1.35291 ; perimeter
G1 X99.790 Y81.082 E0.06232 ; perimeter
G1 X100.196 Y81.039 E0.01153 ; perimeter
G1 X100.588 Y80.809 F10800.000 ; move inwards before travel
G1 F8640
G1 X100.877 Y84.260 E-0.76000 ; wipe and retract
G1 E-0.04000 F2100.00000 ; retract
G1 Z0.800 F10800.000 ; lift Z
G1 X99.538 Y80.855 ; move to first perimeter point
G1 X99.000 Y80.369 ; move to first perimeter point
G1 X95.000 Y80.369 ; move to first perimeter point
G1 X95.082 Y84.577 ; move to first perimeter point
G1 X98.955 Y85.286 ; move to first perimeter point
G1 X99.000 Y85.722 ; move to first perimeter point
G1 X99.539 Y86.207 ; move to first perimeter point
G1 X100.256 Y86.385 ; move to first perimeter point
G1 Z0.200 ; restore layer Z
G1 E0.80000 F2100.00000 ; unretract
G1 F1200
G1 X109.459 Y130.210 E1.26366 ; perimeter
G1 X108.519 Y130.210 E0.02653 ; perimeter
G1 X99.790 Y88.642 E1.19858 ; perimeter
G1 X99.790 Y86.434 E0.06232 ; perimeter
G1 X100.196 Y86.392 E0.01153 ; perimeter
G1 X100.588 Y86.162 F10800.000 ; move inwards before travel
G1 F8640
G1 X100.877 Y89.612 E-0.76000 ; wipe and retract
G1 E-0.04000 F2100.00000 ; retract
G1 Z0.800 F10800.000 ; lift Z
G1 X99.539 Y86.207 ; move to first perimeter point
G1 X99.000 Y85.722 ; move to first perimeter point
G1 X95.000 Y85.722 ; move to first perimeter point
G1 X95.082 Y89.929 ; move to first perimeter point
G1 X98.955 Y90.639 ; move to first perimeter point
