; generated by Slic3r Prusa Edition 1.41.3+linux64 on 2021-03-03 at 12:32:50

; 

; external perimeters extrusion width = 0.45mm
; perimeters extrusion width = 0.45mm
; infill extrusion width = 0.45mm
; solid infill extrusion width = 0.45mm
; top infill extrusion width = 0.40mm
; first layer extrusion width = 0.42mm

M73 P0 R211
M73 Q0 S212
M201 X1000 Y1000 Z1000 E5000 ; sets maximum accelerations, mm/sec^2
M203 X200 Y200 Z12 E120 ; sets maximum feedrates, mm/sec
M204 P1250 R1250 T1250 ; sets acceleration (P, T) and retract acceleration (R), mm/sec^2
M205 X8.00 Y8.00 Z0.40 E1.50 ; sets the jerk limits, mm/sec
M205 S0 T0 ; sets the minimum extruding and travel feed rate, mm/sec
M107 ; disable fan
M115 U3.5.1 ; tell printer latest fw version
M83  ; extruder relative mode
M104 S220 ; set extruder temp
M140 S100 ; set bed temp
M190 S100 ; wait for bed temp
M109 S220 ; wait for extruder temp
G28 W ; home all without mesh bed level
G80 ; mesh bed leveling
G1 Y-3.0 F1000.0 ; go outside print area
G92 E0.0
G1 X60.0 E9.0  F1000.0 ; intro line
M73 Q0 S212
M73 P0 R211
G1 X100.0 E12.5  F1000.0 ; intro line
G92 E0.0
M221 S95
M900 K10; Filament gcode
G21 ; set units to millimeters
G90 ; use absolute coordinates
M83 ; use relative distances for extrusion
;BEFORE_LAYER_CHANGE
G92 E0.0
;0.2


G1 E-0.80000 F2100.00000 ; retract
G1 Z0.600 F10800.000 ; lift Z
;AFTER_LAYER_CHANGE
;0.2
G1 X88.429 Y68.477 ; move to first skirt point
G1 Z0.200 ; restore layer Z
G1 E0.80000 F2100.00000 ; unretract
M204 S1000 ; adjust acceleration
G1 F1200
G1 X89.137 Y67.989 E0.02428 ; skirt
G1 X89.980 Y67.812 E0.02428 ; skirt
G1 X160.004 Y67.811 E1.97600 ; skirt
G1 X160.827 Y67.974 E0.02368 ; skirt
G1 X161.531 Y68.436 E0.02378 ; skirt
G1 X162.008 Y69.131 E0.02378 ; skirt
G1 X162.188 Y69.954 E0.02378 ; skirt
G1 X162.188 Y140.018 E1.97714 ; skirt
G1 X162.025 Y140.830 E0.02337 ; skirt
G1 X161.571 Y141.523 E0.02337 ; skirt
G1 X160.856 Y142.014 E0.02449 ; skirt
G1 X160.002 Y142.189 E0.02459 ; skirt
G1 X89.982 Y142.188 E1.97590 ; skirt
G1 X89.170 Y142.025 E0.02337 ; skirt
G1 X88.477 Y141.571 E0.02337 ; skirt
G1 X87.986 Y140.856 E0.02449 ; skirt
G1 X87.811 Y140.002 E0.02459 ; skirt
G1 X87.812 Y69.982 E1.97590 ; skirt
G1 X87.975 Y69.170 E0.02337 ; skirt
G1 X88.396 Y68.527 E0.02168 ; skirt
; PURGING FINISHED
G1 F8640
G1 X89.137 Y67.989 E-0.21159 ; wipe and retract
G1 X89.980 Y67.812 E-0.19870 ; wipe and retract
G1 X91.494 Y67.812 E-0.34970 ; wipe and retract
G1 E-0.04000 F2100.00000 ; retract
G1 Z0.800 F10800.000 ; lift Z
G1 X99.036 Y79.036 ; move to first perimeter point
G1 Z0.200 ; restore layer Z
G1 E0.80000 F2100.00000 ; unretract
G1 F1200
G1 X150.522 Y79.036 E1.45287 ; perimeter
G1 X150.964 Y80.463 E0.04217 ; perimeter
G1 X150.964 Y82.841 E0.06709 ; perimeter
G1 X150.568 Y82.901 E0.01131 ; perimeter
G1 X150.964 Y84.179 E0.03776 ; perimeter
G1 X150.964 Y86.557 E0.06709 ; perimeter
G1 X150.568 Y86.617 E0.01131 ; perimeter
G1 X150.964 Y87.895 E0.03776 ; perimeter
G1 X150.964 Y90.272 E0.06709 ; perimeter
G1 X150.568 Y90.332 E0.01131 ; perimeter
G1 X150.964 Y91.611 E0.03776 ; perimeter
G1 X150.964 Y93.988 E0.06709 ; perimeter
G1 X150.568 Y94.048 E0.01131 ; perimeter
G1 X150.964 Y95.326 E0.03776 ; perimeter
G1 X150.964 Y97.704 E0.06709 ; perimeter
G1 X150.568 Y97.764 E0.01131 ; perimeter
G1 X150.964 Y99.042 E0.03776 ; perimeter
G1 X150.964 Y101.419 E0.06709 ; perimeter
G1 X150.568 Y101.479 E0.01131 ; perimeter
G1 X150.964 Y102.758 E0.03776 ; perimeter
G1 X150.964 Y105.135 E0.06709 ; perimeter
G1 X150.568 Y105.195 E0.01131 ; perimeter
G1 X150.964 Y106.473 E0.03777 ; perimeter
G1 X150.964 Y108.851 E0.06709 ; perimeter
G1 X150.568 Y108.911 E0.01131 ; perimeter
G1 X150.964 Y110.189 E0.03777 ; perimeter
G1 X150.964 Y112.566 E0.06709 ; perimeter
G1 X150.568 Y112.626 E0.01131 ; perimeter
G1 X150.964 Y113.905 E0.03777 ; perimeter
G1 X150.964 Y116.282 E0.06709 ; perimeter
G1 X150.568 Y116.342 E0.01131 ; perimeter
G1 X150.964 Y117.620 E0.03777 ; perimeter
G1 X150.964 Y119.998 E0.06709 ; perimeter
G1 X150.568 Y120.058 E0.01131 ; perimeter
G1 X150.964 Y121.336 E0.03777 ; perimeter
G1 X150.964 Y123.714 E0.06709 ; perimeter
G1 X150.568 Y123.774 E0.01131 ; perimeter
G1 X150.964 Y125.052 E0.03777 ; perimeter
G1 X150.964 Y127.429 E0.06709 ; perimeter
G1 X150.568 Y127.489 E0.01131 ; perimeter
G1 X150.964 Y128.768 E0.03777 ; perimeter
G1 X150.964 Y130.964 E0.06199 ; perimeter
G1 X99.583 Y130.964 E1.44992 ; perimeter
G1 X99.036 Y129.199 E0.05215 ; perimeter
G1 X99.036 Y126.821 E0.06709 ; perimeter
G1 X99.432 Y126.761 E0.01131 ; perimeter
G1 X99.036 Y125.483 E0.03776 ; perimeter
G1 X99.036 Y123.106 E0.06709 ; perimeter
G1 X99.432 Y123.046 E0.01131 ; perimeter
G1 X99.036 Y121.767 E0.03776 ; perimeter
G1 X99.036 Y119.390 E0.06709 ; perimeter
G1 X99.432 Y119.330 E0.01131 ; perimeter
G1 X99.036 Y118.052 E0.03776 ; perimeter
G1 X99.036 Y115.674 E0.06709 ; perimeter
G1 X99.432 Y115.614 E0.01131 ; perimeter
G1 X99.036 Y114.336 E0.03776 ; perimeter
G1 X99.036 Y111.959 E0.06709 ; perimeter
G1 X99.432 Y111.899 E0.01131 ; perimeter
G1 X99.036 Y110.620 E0.03777 ; perimeter
G1 X99.036 Y108.243 E0.06709 ; perimeter
G1 X99.432 Y108.183 E0.01131 ; perimeter
G1 X99.036 Y106.905 E0.03777 ; perimeter
G1 X99.036 Y104.527 E0.06709 ; perimeter
G1 X99.432 Y104.467 E0.01131 ; perimeter
G1 X99.036 Y103.189 E0.03777 ; perimeter
G1 X99.036 Y100.811 E0.06709 ; perimeter
G1 X99.432 Y100.751 E0.01131 ; perimeter
G1 X99.036 Y99.473 E0.03777 ; perimeter
G1 X99.036 Y97.096 E0.06709 ; perimeter
G1 X99.432 Y97.036 E0.01131 ; perimeter
G1 X99.036 Y95.757 E0.03777 ; perimeter
G1 X99.036 Y93.380 E0.06709 ; perimeter
G1 X99.432 Y93.320 E0.01131 ; perimeter
G1 X99.036 Y92.042 E0.03777 ; perimeter
G1 X99.036 Y89.664 E0.06709 ; perimeter
G1 X99.432 Y89.604 E0.01131 ; perimeter
G1 X99.036 Y88.326 E0.03777 ; perimeter
G1 X99.036 Y85.949 E0.06709 ; perimeter
G1 X99.432 Y85.889 E0.01131 ; perimeter
G1 X99.036 Y84.610 E0.03777 ; perimeter
G1 X99.036 Y82.233 E0.06709 ; perimeter
G1 X99.432 Y82.173 E0.01131 ; perimeter
G1 X99.036 Y80.895 E0.03777 ; perimeter
G1 X99.036 Y79.096 E0.05076 ; perimeter
G1 X99.413 Y79.413 F10800.000 ; move to first perimeter point
G1 F1200
G1 X150.244 Y79.413 E1.43439 ; perimeter
G1 X150.587 Y80.520 E0.03272 ; perimeter
G1 X150.587 Y82.517 E0.05633 ; perimeter
G1 X150.078 Y82.594 E0.01453 ; perimeter
G1 X150.587 Y84.236 E0.04853 ; perimeter
G1 X150.587 Y86.232 E0.05633 ; perimeter
G1 X150.078 Y86.309 E0.01453 ; perimeter
G1 X150.587 Y87.952 E0.04852 ; perimeter
G1 X150.587 Y89.948 E0.05633 ; perimeter
G1 X150.078 Y90.025 E0.01453 ; perimeter
G1 X150.587 Y91.668 E0.04852 ; perimeter
G1 X150.587 Y93.664 E0.05633 ; perimeter
G1 X150.078 Y93.741 E0.01453 ; perimeter
G1 X150.587 Y95.383 E0.04852 ; perimeter
G1 X150.587 Y97.379 E0.05633 ; perimeter
G1 X150.078 Y97.457 E0.01453 ; perimeter
G1 X150.587 Y99.099 E0.04852 ; perimeter
G1 X150.587 Y101.095 E0.05633 ; perimeter
G1 X150.078 Y101.172 E0.01453 ; perimeter
G1 X150.587 Y102.815 E0.04852 ; perimeter
G1 X150.587 Y104.811 E0.05633 ; perimeter
G1 X150.078 Y104.888 E0.01453 ; perimeter
G1 X150.587 Y106.530 E0.04853 ; perimeter
G1 X150.587 Y108.526 E0.05633 ; perimeter
G1 X150.078 Y108.604 E0.01453 ; perimeter
G1 X150.587 Y110.246 E0.04853 ; perimeter
G1 X150.587 Y112.242 E0.05633 ; perimeter
G1 X150.078 Y112.319 E0.01453 ; perimeter
G1 X150.587 Y113.962 E0.04853 ; perimeter
G1 X150.587 Y115.958 E0.05633 ; perimeter
G1 X150.078 Y116.035 E0.01453 ; perimeter
G1 X150.587 Y117.678 E0.04853 ; perimeter
G1 X150.587 Y119.674 E0.05633 ; perimeter
G1 X150.078 Y119.751 E0.01453 ; perimeter
G1 X150.587 Y121.393 E0.04853 ; perimeter
G1 X150.587 Y123.389 E0.05633 ; perimeter
G1 X150.078 Y123.466 E0.01453 ; perimeter
G1 X150.587 Y125.109 E0.04853 ; perimeter
G1 X150.587 Y127.105 E0.05633 ; perimeter
G1 X150.078 Y127.182 E0.01453 ; perimeter
G1 X150.587 Y128.825 E0.04853 ; perimeter
G1 X150.587 Y130.587 E0.04973 ; perimeter
G1 X99.861 Y130.587 E1.43143 ; perimeter
G1 X99.413 Y129.142 E0.04270 ; perimeter
G1 X99.413 Y127.146 E0.05633 ; perimeter
G1 X99.922 Y127.069 E0.01453 ; perimeter
G1 X99.413 Y125.426 E0.04853 ; perimeter
G1 X99.413 Y123.430 E0.05633 ; perimeter
G1 X99.922 Y123.353 E0.01453 ; perimeter
G1 X99.413 Y121.710 E0.04852 ; perimeter
G1 X99.413 Y119.714 E0.05633 ; perimeter
G1 X99.922 Y119.637 E0.01453 ; perimeter
G1 X99.413 Y117.995 E0.04852 ; perimeter
G1 X99.413 Y115.998 E0.05633 ; perimeter
G1 X99.922 Y115.921 E0.01453 ; perimeter
G1 X99.413 Y114.279 E0.04852 ; perimeter
G1 X99.413 Y112.283 E0.05633 ; perimeter
G1 X99.922 Y112.206 E0.01453 ; perimeter
G1 X99.413 Y110.563 E0.04853 ; perimeter
G1 X99.413 Y108.567 E0.05633 ; perimeter
G1 X99.922 Y108.490 E0.01453 ; perimeter
G1 X99.413 Y106.847 E0.04853 ; perimeter
G1 X99.413 Y104.851 E0.05633 ; perimeter
G1 X99.922 Y104.774 E0.01453 ; perimeter
G1 X99.413 Y103.132 E0.04853 ; perimeter
G1 X99.413 Y101.136 E0.05633 ; perimeter
G1 X99.922 Y101.059 E0.01453 ; perimeter
G1 X99.413 Y99.416 E0.04853 ; perimeter
G1 X99.413 Y97.420 E0.05633 ; perimeter
G1 X99.922 Y97.343 E0.01453 ; perimeter
G1 X99.413 Y95.700 E0.04853 ; perimeter
G1 X99.413 Y93.704 E0.05633 ; perimeter
G1 X99.922 Y93.627 E0.01453 ; perimeter
G1 X99.413 Y91.985 E0.04853 ; perimeter
G1 X99.413 Y89.989 E0.05633 ; perimeter
G1 X99.922 Y89.912 E0.01453 ; perimeter
G1 X99.413 Y88.269 E0.04853 ; perimeter
G1 X99.413 Y86.273 E0.05633 ; perimeter
G1 X99.922 Y86.196 E0.01453 ; perimeter
G1 X99.413 Y84.553 E0.04853 ; perimeter
G1 X99.413 Y82.557 E0.05633 ; perimeter
G1 X99.922 Y82.480 E0.01453 ; perimeter
G1 X99.413 Y80.838 E0.04853 ; perimeter
G1 X99.413 Y79.473 E0.03851 ; perimeter
G1 F8640
G1 X102.704 Y79.469 E-0.76000 ; wipe and retract
G1 E-0.04000 F2100.00000 ; retract
G1 Z0.800 F10800.000 ; lift Z
G1 X114.454 Y79.790 ; move to first perimeter point
G1 Z0.200 ; restore layer Z
G1 E0.80000 F2100.00000 ; unretract
G1 F1200
G1 X115.417 Y79.790 E0.02718 ; perimeter
G1 X131.044 Y130.210 E1.48956 ; perimeter
G1 X130.081 Y130.210 E0.02718 ; perimeter
G1 X114.472 Y79.847 E1.48787 ; perimeter
G1 X114.412 Y79.392 F10800.000 ; move inwards before travel
G1 F8640
G1 X115.417 Y79.790 E-0.21871 ; wipe and retract
G1 X116.111 Y82.029 E-0.54129 ; wipe and retract
G1 E-0.04000 F2100.00000 ; retract
G1 Z0.800 F10800.000 ; lift Z
G1 X115.606 Y79.790 ; move to first perimeter point
G1 Z0.200 ; restore layer Z
G1 E0.80000 F2100.00000 ; unretract
G1 F1200
G1 X116.569 Y79.790 E0.02718 ; perimeter
G1 X132.196 Y130.210 E1.48956 ; perimeter
G1 X131.233 Y130.210 E0.02718 ; perimeter
G1 X115.623 Y79.847 E1.48787 ; perimeter
G1 X115.563 Y79.392 F10800.000 ; move inwards before travel
G1 F8640
G1 X116.569 Y79.790 E-0.21871 ; wipe and retract
G1 X117.263 Y82.029 E-0.54129 ; wipe and retract
G1 E-0.04000 F2100.00000 ; retract
G1 Z0.800 F10800.000 ; lift Z
G1 X116.757 Y79.790 ; move to first perimeter point
G1 Z0.200 ; restore layer Z
G1 E0.80000 F2100.00000 ; unretract
G1 F1200
G1 X117.720 Y79.790 E0.02718 ; perimeter
G1 X133.347 Y130.210 E1.48956 ; perimeter
G1 X132.384 Y130.210 E0.02718 ; perimeter
G1 X116.775 Y79.847 E1.48787 ; perimeter
G1 X116.715 Y79.392 F10800.000 ; move inwards before travel
G1 F8640
G1 X117.720 Y79.790 E-0.21868 ; wipe and retract
G1 X118.414 Y82.029 E-0.54132 ; wipe and retract
G1 E-0.04000 F2100.00000 ; retract
G1 Z0.800 F10800.000 ; lift Z
G1 X117.909 Y79.790 ; move to first perimeter point
G1 Z0.200 ; restore layer Z
G1 E0.80000 F2100.00000 ; unretract
G1 F1200
G1 X118.872 Y79.790 E0.02718 ; perimeter
G1 X134.499 Y130.210 E1.48957 ; perimeter
M73 Q0 S211
M73 P0 R210
G1 X133.536 Y130.210 E0.02718 ; perimeter
G1 X117.927 Y79.847 E1.48787 ; perimeter
G1 X117.867 Y79.392 F10800.000 ; move inwards before travel
G1 F8640
G1 X118.872 Y79.790 E-0.21868 ; wipe and retract
G1 X119.566 Y82.029 E-0.54132 ; wipe and retract
G1 E-0.04000 F2100.00000 ; retract
G1 Z0.800 F10800.000 ; lift Z
G1 X119.061 Y79.790 ; move to first perimeter point
G1 Z0.200 ; restore layer Z
G1 E0.80000 F2100.00000 ; unretract
G1 F1200
G1 X120.024 Y79.790 E0.02718 ; perimeter
G1 X135.651 Y130.210 E1.48956 ; perimeter
G1 X134.687 Y130.210 E0.02718 ; perimeter
G1 X119.078 Y79.847 E1.48787 ; perimeter
G1 X119.018 Y79.392 F10800.000 ; move inwards before travel
G1 F8640
G1 X120.024 Y79.790 E-0.21871 ; wipe and retract
G1 X120.718 Y82.029 E-0.54129 ; wipe and retract
G1 E-0.04000 F2100.00000 ; retract
G1 Z0.800 F10800.000 ; lift Z
G1 X120.212 Y79.790 ; move to first perimeter point
G1 Z0.200 ; restore layer Z
G1 E0.80000 F2100.00000 ; unretract
G1 F1200
G1 X121.175 Y79.790 E0.02718 ; perimeter
G1 X136.802 Y130.210 E1.48956 ; perimeter
G1 X135.839 Y130.210 E0.02718 ; perimeter
G1 X120.230 Y79.847 E1.48787 ; perimeter
G1 X120.170 Y79.392 F10800.000 ; move inwards before travel
G1 F8640
G1 X121.175 Y79.790 E-0.21871 ; wipe and retract
G1 X121.869 Y82.029 E-0.54129 ; wipe and retract
G1 E-0.04000 F2100.00000 ; retract
G1 Z0.800 F10800.000 ; lift Z
G1 X121.364 Y79.790 ; move to first perimeter point
G1 Z0.200 ; restore layer Z
G1 E0.80000 F2100.00000 ; unretract
G1 F1200
G1 X122.327 Y79.790 E0.02718 ; perimeter
G1 X137.954 Y130.210 E1.48956 ; perimeter
G1 X136.991 Y130.210 E0.02718 ; perimeter
G1 X121.382 Y79.847 E1.48787 ; perimeter
G1 X121.321 Y79.392 F10800.000 ; move inwards before travel
G1 F8640
G1 X122.327 Y79.790 E-0.21871 ; wipe and retract
G1 X123.021 Y82.029 E-0.54129 ; wipe and retract
G1 E-0.04000 F2100.00000 ; retract
G1 Z0.800 F10800.000 ; lift Z
G1 X122.515 Y79.790 ; move to first perimeter point
G1 Z0.200 ; restore layer Z
G1 E0.80000 F2100.00000 ; unretract
G1 F1200
G1 X123.479 Y79.790 E0.02718 ; perimeter
G1 X139.105 Y130.210 E1.48956 ; perimeter
G1 X138.142 Y130.210 E0.02718 ; perimeter
G1 X122.533 Y79.847 E1.48787 ; perimeter
G1 X122.473 Y79.392 F10800.000 ; move inwards before travel
G1 F8640
G1 X123.479 Y79.790 E-0.21868 ; wipe and retract
G1 X124.173 Y82.029 E-0.54132 ; wipe and retract
G1 E-0.04000 F2100.00000 ; retract
G1 Z0.800 F10800.000 ; lift Z
G1 X123.667 Y79.790 ; move to first perimeter point
G1 Z0.200 ; restore layer Z
G1 E0.80000 F2100.00000 ; unretract
G1 F1200
G1 X124.630 Y79.790 E0.02718 ; perimeter
G1 X140.257 Y130.210 E1.48957 ; perimeter
G1 X139.294 Y130.210 E0.02718 ; perimeter
G1 X123.685 Y79.847 E1.48787 ; perimeter
G1 X123.625 Y79.392 F10800.000 ; move inwards before travel
G1 F8640
G1 X124.630 Y79.790 E-0.21868 ; wipe and retract
G1 X125.324 Y82.029 E-0.54132 ; wipe and retract
G1 E-0.04000 F2100.00000 ; retract
G1 Z0.800 F10800.000 ; lift Z
G1 X124.819 Y79.790 ; move to first perimeter point
G1 Z0.200 ; restore layer Z
G1 E0.80000 F2100.00000 ; unretract
G1 F1200
G1 X125.782 Y79.790 E0.02718 ; perimeter
G1 X141.409 Y130.210 E1.48956 ; perimeter
G1 X140.446 Y130.210 E0.02718 ; perimeter
G1 X124.836 Y79.847 E1.48787 ; perimeter
G1 X124.776 Y79.392 F10800.000 ; move inwards before travel
G1 F8640
G1 X125.782 Y79.790 E-0.21871 ; wipe and retract
G1 X126.476 Y82.029 E-0.54129 ; wipe and retract
G1 E-0.04000 F2100.00000 ; retract
G1 Z0.800 F10800.000 ; lift Z
G1 X125.970 Y79.790 ; move to first perimeter point
G1 Z0.200 ; restore layer Z
G1 E0.80000 F2100.00000 ; unretract
G1 F1200
G1 X126.933 Y79.790 E0.02718 ; perimeter
G1 X142.560 Y130.210 E1.48956 ; perimeter
G1 X141.597 Y130.210 E0.02718 ; perimeter
G1 X125.988 Y79.847 E1.48787 ; perimeter
G1 X125.928 Y79.392 F10800.000 ; move inwards before travel
G1 F8640
G1 X126.933 Y79.790 E-0.21871 ; wipe and retract
G1 X127.627 Y82.029 E-0.54129 ; wipe and retract
G1 E-0.04000 F2100.00000 ; retract
G1 Z0.800 F10800.000 ; lift Z
G1 X127.122 Y79.790 ; move to first perimeter point
G1 Z0.200 ; restore layer Z
G1 E0.80000 F2100.00000 ; unretract
G1 F1200
G1 X128.085 Y79.790 E0.02718 ; perimeter
G1 X143.712 Y130.210 E1.48956 ; perimeter
G1 X142.749 Y130.210 E0.02718 ; perimeter
G1 X127.140 Y79.847 E1.48787 ; perimeter
G1 X127.080 Y79.392 F10800.000 ; move inwards before travel
G1 F8640
G1 X128.085 Y79.790 E-0.21871 ; wipe and retract
G1 X128.779 Y82.029 E-0.54129 ; wipe and retract
