; generated by Slic3r Prusa Edition 1.41.3+linux64 on 2021-03-03 at 12:05:56

; 

; external perimeters extrusion width = 0.45mm
; perimeters extrusion width = 0.45mm
; infill extrusion width = 0.45mm
; solid infill extrusion width = 0.45mm
; top infill extrusion width = 0.40mm
; first layer extrusion width = 0.42mm

M73 P0 R201
M73 Q0 S201
M201 X1000 Y1000 Z1000 E5000 ; sets maximum accelerations, mm/sec^2
M203 X200 Y200 Z12 E120 ; sets maximum feedrates, mm/sec
M204 P1250 R1250 T1250 ; sets acceleration (P, T) and retract acceleration (R), mm/sec^2
M205 X8.00 Y8.00 Z0.40 E1.50 ; sets the jerk limits, mm/sec
M205 S0 T0 ; sets the minimum extruding and travel feed rate, mm/sec
M107 ; disable fan
M115 U3.5.1 ; tell printer latest fw version
M83  ; extruder relative mode
M104 S220 ; set extruder temp
M140 S100 ; set bed temp
M190 S100 ; wait for bed temp
M109 S220 ; wait for extruder temp
G28 W ; home all without mesh bed level
G80 ; mesh bed leveling
G1 Y-3.0 F1000.0 ; go outside print area
G92 E0.0
G1 X60.0 E9.0  F1000.0 ; intro line
M73 Q0 S201
M73 P0 R200
G1 X100.0 E12.5  F1000.0 ; intro line
G92 E0.0
M221 S95
M900 K10; Filament gcode
G21 ; set units to millimeters
G90 ; use absolute coordinates
M83 ; use relative distances for extrusion
;BEFORE_LAYER_CHANGE
G92 E0.0
;0.2


G1 E-0.80000 F2100.00000 ; retract
G1 Z0.600 F10800.000 ; lift Z
;AFTER_LAYER_CHANGE
;0.2
G1 X88.429 Y68.477 ; move to first skirt point
G1 Z0.200 ; restore layer Z
G1 E0.80000 F2100.00000 ; unretract
M204 S1000 ; adjust acceleration
G1 F1200
G1 X89.137 Y67.989 E0.02428 ; skirt
G1 X89.980 Y67.812 E0.02428 ; skirt
G1 X160.004 Y67.811 E1.97600 ; skirt
G1 X160.827 Y67.974 E0.02368 ; skirt
G1 X161.531 Y68.436 E0.02378 ; skirt
G1 X162.008 Y69.131 E0.02378 ; skirt
G1 X162.188 Y69.954 E0.02378 ; skirt
G1 X162.188 Y140.018 E1.97714 ; skirt
G1 X162.025 Y140.830 E0.02337 ; skirt
G1 X161.571 Y141.523 E0.02337 ; skirt
G1 X160.856 Y142.014 E0.02449 ; skirt
G1 X160.002 Y142.189 E0.02459 ; skirt
G1 X89.982 Y142.188 E1.97590 ; skirt
G1 X89.170 Y142.025 E0.02337 ; skirt
G1 X88.477 Y141.571 E0.02337 ; skirt
G1 X87.986 Y140.856 E0.02449 ; skirt
G1 X87.811 Y140.002 E0.02459 ; skirt
G1 X87.812 Y69.982 E1.97590 ; skirt
G1 X87.975 Y69.170 E0.02337 ; skirt
G1 X88.396 Y68.527 E0.02168 ; skirt
; PURGING FINISHED
G1 F8640
G1 X89.137 Y67.989 E-0.21159 ; wipe and retract
G1 X89.980 Y67.812 E-0.19870 ; wipe and retract
G1 X91.494 Y67.812 E-0.34970 ; wipe and retract
G1 E-0.04000 F2100.00000 ; retract
G1 Z0.800 F10800.000 ; lift Z
G1 X114.454 Y79.790 ; move to first perimeter point
G1 Z0.200 ; restore layer Z
G1 E0.80000 F2100.00000 ; unretract
G1 F1200
G1 X115.417 Y79.790 E0.02718 ; perimeter
G1 X131.044 Y130.210 E1.48956 ; perimeter
G1 X130.081 Y130.210 E0.02718 ; perimeter
G1 X114.472 Y79.847 E1.48787 ; perimeter
G1 F8640
G1 X115.417 Y79.790 E-0.21871 ; wipe and retract
G1 X116.111 Y82.029 E-0.54129 ; wipe and retract
G1 E-0.04000 F2100.00000 ; retract
G1 Z0.800 F10800.000 ; lift Z
G1 X115.606 Y79.790 ; move to first perimeter point
G1 Z0.200 ; restore layer Z
G1 E0.80000 F2100.00000 ; unretract
G1 F1200
G1 X116.569 Y79.790 E0.02718 ; perimeter
G1 X132.196 Y130.210 E1.48956 ; perimeter
G1 X131.233 Y130.210 E0.02718 ; perimeter
G1 X115.623 Y79.847 E1.48787 ; perimeter
G1 F8640
G1 X116.569 Y79.790 E-0.21871 ; wipe and retract
G1 X117.263 Y82.029 E-0.54129 ; wipe and retract
G1 E-0.04000 F2100.00000 ; retract
G1 Z0.800 F10800.000 ; lift Z
G1 X116.757 Y79.790 ; move to first perimeter point
G1 Z0.200 ; restore layer Z
G1 E0.80000 F2100.00000 ; unretract
G1 F1200
G1 X117.720 Y79.790 E0.02718 ; perimeter
G1 X133.347 Y130.210 E1.48956 ; perimeter
G1 X132.384 Y130.210 E0.02718 ; perimeter
G1 X116.775 Y79.847 E1.48787 ; perimeter
G1 F8640
G1 X117.720 Y79.790 E-0.21868 ; wipe and retract
G1 X118.414 Y82.029 E-0.54132 ; wipe and retract
G1 E-0.04000 F2100.00000 ; retract
G1 Z0.800 F10800.000 ; lift Z
G1 X117.909 Y79.790 ; move to first perimeter point
G1 Z0.200 ; restore layer Z
G1 E0.80000 F2100.00000 ; unretract
G1 F1200
G1 X118.872 Y79.790 E0.02718 ; perimeter
G1 X134.499 Y130.210 E1.48957 ; perimeter
G1 X133.536 Y130.210 E0.02718 ; perimeter
G1 X117.927 Y79.847 E1.48787 ; perimeter
G1 F8640
G1 X118.872 Y79.790 E-0.21868 ; wipe and retract
G1 X119.566 Y82.029 E-0.54132 ; wipe and retract
G1 E-0.04000 F2100.00000 ; retract
G1 Z0.800 F10800.000 ; lift Z
G1 X119.061 Y79.790 ; move to first perimeter point
G1 Z0.200 ; restore layer Z
G1 E0.80000 F2100.00000 ; unretract
G1 F1200
G1 X120.024 Y79.790 E0.02718 ; perimeter
G1 X135.651 Y130.210 E1.48956 ; perimeter
G1 X134.687 Y130.210 E0.02718 ; perimeter
G1 X119.078 Y79.847 E1.48787 ; perimeter
G1 F8640
G1 X120.024 Y79.790 E-0.21871 ; wipe and retract
G1 X120.718 Y82.029 E-0.54129 ; wipe and retract
G1 E-0.04000 F2100.00000 ; retract
G1 Z0.800 F10800.000 ; lift Z
G1 X120.212 Y79.790 ; move to first perimeter point
G1 Z0.200 ; restore layer Z
G1 E0.80000 F2100.00000 ; unretract
G1 F1200
G1 X121.175 Y79.790 E0.02718 ; perimeter
G1 X136.802 Y130.210 E1.48956 ; perimeter
G1 X135.839 Y130.210 E0.02718 ; perimeter
G1 X120.230 Y79.847 E1.48787 ; perimeter
G1 F8640
G1 X121.175 Y79.790 E-0.21871 ; wipe and retract
G1 X121.869 Y82.029 E-0.54129 ; wipe and retract
G1 E-0.04000 F2100.00000 ; retract
G1 Z0.800 F10800.000 ; lift Z
G1 X121.364 Y79.790 ; move to first perimeter point
G1 Z0.200 ; restore layer Z
G1 E0.80000 F2100.00000 ; unretract
G1 F1200
G1 X122.327 Y79.790 E0.02718 ; perimeter
G1 X137.954 Y130.210 E1.48956 ; perimeter
G1 X136.991 Y130.210 E0.02718 ; perimeter
G1 X121.382 Y79.847 E1.48787 ; perimeter
G1 F8640
G1 X122.327 Y79.790 E-0.21871 ; wipe and retract
G1 X123.021 Y82.029 E-0.54129 ; wipe and retract
G1 E-0.04000 F2100.00000 ; retract
G1 Z0.800 F10800.000 ; lift Z
G1 X122.515 Y79.790 ; move to first perimeter point
G1 Z0.200 ; restore layer Z
G1 E0.80000 F2100.00000 ; unretract
G1 F1200
G1 X123.479 Y79.790 E0.02718 ; perimeter
G1 X139.105 Y130.210 E1.48956 ; perimeter
M73 Q0 S200
M73 P0 R199
G1 X138.142 Y130.210 E0.02718 ; perimeter
G1 X122.533 Y79.847 E1.48787 ; perimeter
G1 F8640
G1 X123.479 Y79.790 E-0.21868 ; wipe and retract
G1 X124.173 Y82.029 E-0.54132 ; wipe and retract
G1 E-0.04000 F2100.00000 ; retract
G1 Z0.800 F10800.000 ; lift Z
G1 X123.667 Y79.790 ; move to first perimeter point
G1 Z0.200 ; restore layer Z
G1 E0.80000 F2100.00000 ; unretract
G1 F1200
G1 X124.630 Y79.790 E0.02718 ; perimeter
G1 X140.257 Y130.210 E1.48957 ; perimeter
G1 X139.294 Y130.210 E0.02718 ; perimeter
G1 X123.685 Y79.847 E1.48787 ; perimeter
G1 F8640
G1 X124.630 Y79.790 E-0.21868 ; wipe and retract
G1 X125.324 Y82.029 E-0.54132 ; wipe and retract
G1 E-0.04000 F2100.00000 ; retract
G1 Z0.800 F10800.000 ; lift Z
G1 X124.819 Y79.790 ; move to first perimeter point
G1 Z0.200 ; restore layer Z
G1 E0.80000 F2100.00000 ; unretract
G1 F1200
G1 X125.782 Y79.790 E0.02718 ; perimeter
G1 X141.409 Y130.210 E1.48956 ; perimeter
G1 X140.446 Y130.210 E0.02718 ; perimeter
G1 X124.836 Y79.847 E1.48787 ; perimeter
G1 F8640
G1 X125.782 Y79.790 E-0.21871 ; wipe and retract
G1 X126.476 Y82.029 E-0.54129 ; wipe and retract
G1 E-0.04000 F2100.00000 ; retract
G1 Z0.800 F10800.000 ; lift Z
G1 X125.970 Y79.790 ; move to first perimeter point
G1 Z0.200 ; restore layer Z
G1 E0.80000 F2100.00000 ; unretract
G1 F1200
G1 X126.933 Y79.790 E0.02718 ; perimeter
G1 X142.560 Y130.210 E1.48956 ; perimeter
G1 X141.597 Y130.210 E0.02718 ; perimeter
G1 X125.988 Y79.847 E1.48787 ; perimeter
G1 F8640
G1 X126.933 Y79.790 E-0.21871 ; wipe and retract
G1 X127.627 Y82.029 E-0.54129 ; wipe and retract
G1 E-0.04000 F2100.00000 ; retract
G1 Z0.800 F10800.000 ; lift Z
G1 X127.122 Y79.790 ; move to first perimeter point
G1 Z0.200 ; restore layer Z
G1 E0.80000 F2100.00000 ; unretract
G1 F1200
G1 X128.085 Y79.790 E0.02718 ; perimeter
G1 X143.712 Y130.210 E1.48956 ; perimeter
G1 X142.749 Y130.210 E0.02718 ; perimeter
G1 X127.140 Y79.847 E1.48787 ; perimeter
G1 F8640
G1 X128.085 Y79.790 E-0.21871 ; wipe and retract
G1 X128.779 Y82.029 E-0.54129 ; wipe and retract
G1 E-0.04000 F2100.00000 ; retract
G1 Z0.800 F10800.000 ; lift Z
G1 X128.274 Y79.790 ; move to first perimeter point
G1 Z0.200 ; restore layer Z
G1 E0.80000 F2100.00000 ; unretract
G1 F1200
G1 X129.237 Y79.790 E0.02718 ; perimeter
G1 X144.864 Y130.210 E1.48956 ; perimeter
G1 X143.900 Y130.210 E0.02718 ; perimeter
G1 X128.291 Y79.847 E1.48787 ; perimeter
G1 F8640
G1 X129.237 Y79.790 E-0.21868 ; wipe and retract
G1 X129.931 Y82.029 E-0.54132 ; wipe and retract
G1 E-0.04000 F2100.00000 ; retract
G1 Z0.800 F10800.000 ; lift Z
G1 X129.425 Y79.790 ; move to first perimeter point
G1 Z0.200 ; restore layer Z
G1 E0.80000 F2100.00000 ; unretract
G1 F1200
G1 X130.388 Y79.790 E0.02718 ; perimeter
G1 X146.015 Y130.210 E1.48956 ; perimeter
G1 X145.052 Y130.210 E0.02718 ; perimeter
G1 X129.443 Y79.847 E1.48787 ; perimeter
G1 F8640
G1 X130.388 Y79.790 E-0.21871 ; wipe and retract
G1 X131.082 Y82.029 E-0.54129 ; wipe and retract
G1 E-0.04000 F2100.00000 ; retract
G1 Z0.800 F10800.000 ; lift Z
G1 X130.577 Y79.790 ; move to first perimeter point
G1 Z0.200 ; restore layer Z
G1 E0.80000 F2100.00000 ; unretract
G1 F1200
G1 X131.540 Y79.790 E0.02718 ; perimeter
G1 X147.167 Y130.210 E1.48956 ; perimeter
G1 X146.204 Y130.210 E0.02718 ; perimeter
G1 X130.595 Y79.847 E1.48787 ; perimeter
G1 F8640
G1 X131.540 Y79.790 E-0.21871 ; wipe and retract
G1 X132.234 Y82.029 E-0.54129 ; wipe and retract
G1 E-0.04000 F2100.00000 ; retract
G1 Z0.800 F10800.000 ; lift Z
G1 X131.728 Y79.790 ; move to first perimeter point
G1 Z0.200 ; restore layer Z
G1 E0.80000 F2100.00000 ; unretract
G1 F1200
G1 X132.692 Y79.790 E0.02718 ; perimeter
G1 X148.318 Y130.210 E1.48956 ; perimeter
G1 X147.355 Y130.210 E0.02718 ; perimeter
G1 X131.746 Y79.847 E1.48787 ; perimeter
G1 F8640
G1 X132.692 Y79.790 E-0.21871 ; wipe and retract
G1 X133.386 Y82.029 E-0.54129 ; wipe and retract
G1 E-0.04000 F2100.00000 ; retract
G1 Z0.800 F10800.000 ; lift Z
G1 X132.880 Y79.790 ; move to first perimeter point
G1 Z0.200 ; restore layer Z
G1 E0.80000 F2100.00000 ; unretract
G1 F1200
G1 X133.843 Y79.790 E0.02718 ; perimeter
G1 X149.470 Y130.210 E1.48956 ; perimeter
G1 X148.507 Y130.210 E0.02718 ; perimeter
G1 X132.898 Y79.847 E1.48787 ; perimeter
G1 F8640
G1 X133.843 Y79.790 E-0.21868 ; wipe and retract
G1 X134.537 Y82.029 E-0.54132 ; wipe and retract
G1 E-0.04000 F2100.00000 ; retract
G1 Z0.800 F10800.000 ; lift Z
G1 X134.032 Y79.790 ; move to first perimeter point
G1 Z0.200 ; restore layer Z
G1 E0.80000 F2100.00000 ; unretract
G1 F1200
G1 X134.995 Y79.790 E0.02718 ; perimeter
G1 X150.210 Y128.882 E1.45032 ; perimeter
G1 X150.210 Y130.210 E0.03748 ; perimeter
G1 X149.659 Y130.210 E0.01556 ; perimeter
G1 X134.049 Y79.847 E1.48787 ; perimeter
M73 Q1 S199
M73 P1 R198
G1 F8640
G1 X134.995 Y79.790 E-0.21868 ; wipe and retract
G1 X135.689 Y82.029 E-0.54132 ; wipe and retract
G1 E-0.04000 F2100.00000 ; retract
G1 Z0.800 F10800.000 ; lift Z
G1 X135.183 Y79.790 ; move to first perimeter point
G1 Z0.200 ; restore layer Z
G1 E0.80000 F2100.00000 ; unretract
G1 F1200
G1 X136.146 Y79.790 E0.02718 ; perimeter
G1 X150.210 Y125.166 E1.34055 ; perimeter
G1 X150.210 Y126.781 E0.04556 ; perimeter
G1 X149.768 Y126.848 E0.01261 ; perimeter
G1 X135.201 Y79.847 E1.38854 ; perimeter
G1 F8640
G1 X136.146 Y79.790 E-0.21871 ; wipe and retract
G1 X136.840 Y82.029 E-0.54129 ; wipe and retract
G1 E-0.04000 F2100.00000 ; retract
G1 Z0.800 F10800.000 ; lift Z
G1 X136.335 Y79.790 ; move to first perimeter point
G1 Z0.200 ; restore layer Z
G1 E0.80000 F2100.00000 ; unretract
G1 F1200
G1 X137.298 Y79.790 E0.02718 ; perimeter
G1 X150.210 Y121.450 E1.23078 ; perimeter
G1 X150.210 Y123.065 E0.04556 ; perimeter
G1 X149.768 Y123.132 E0.01261 ; perimeter
G1 X136.353 Y79.847 E1.27876 ; perimeter
G1 F8640
G1 X137.298 Y79.790 E-0.21871 ; wipe and retract
G1 X137.992 Y82.029 E-0.54129 ; wipe and retract
G1 E-0.04000 F2100.00000 ; retract
G1 Z0.800 F10800.000 ; lift Z
G1 X137.486 Y79.790 ; move to first perimeter point
G1 Z0.200 ; restore layer Z
G1 E0.80000 F2100.00000 ; unretract
G1 F1200
G1 X138.450 Y79.790 E0.02718 ; perimeter
G1 X150.210 Y117.735 E1.12100 ; perimeter
G1 X150.210 Y119.349 E0.04556 ; perimeter
G1 X149.768 Y119.416 E0.01261 ; perimeter
G1 X137.504 Y79.847 E1.16899 ; perimeter
G1 F8640
G1 X138.450 Y79.790 E-0.21871 ; wipe and retract
G1 X139.144 Y82.029 E-0.54129 ; wipe and retract
G1 E-0.04000 F2100.00000 ; retract
G1 Z0.800 F10800.000 ; lift Z
G1 X138.638 Y79.790 ; move to first perimeter point
G1 Z0.200 ; restore layer Z
G1 E0.80000 F2100.00000 ; unretract
G1 F1200
G1 X139.601 Y79.790 E0.02718 ; perimeter
G1 X150.210 Y114.019 E1.01123 ; perimeter
G1 X150.210 Y115.634 E0.04556 ; perimeter
G1 X149.768 Y115.700 E0.01261 ; perimeter
G1 X138.656 Y79.847 E1.05921 ; perimeter
G1 F8640
G1 X139.601 Y79.790 E-0.21868 ; wipe and retract
G1 X140.295 Y82.029 E-0.54132 ; wipe and retract
G1 E-0.04000 F2100.00000 ; retract
G1 Z0.800 F10800.000 ; lift Z
G1 X139.790 Y79.790 ; move to first perimeter point
G1 Z0.200 ; restore layer Z
G1 E0.80000 F2100.00000 ; unretract
G1 F1200
G1 X140.753 Y79.790 E0.02718 ; perimeter
G1 X150.210 Y110.303 E0.90146 ; perimeter
G1 X150.210 Y111.918 E0.04556 ; perimeter
G1 X149.768 Y111.985 E0.01261 ; perimeter
G1 X139.808 Y79.847 E0.94944 ; perimeter
G1 F8640
G1 X140.753 Y79.790 E-0.21868 ; wipe and retract
G1 X141.447 Y82.029 E-0.54132 ; wipe and retract
G1 E-0.04000 F2100.00000 ; retract
G1 Z0.800 F10800.000 ; lift Z
G1 X140.941 Y79.790 ; move to first perimeter point
G1 Z0.200 ; restore layer Z
G1 E0.80000 F2100.00000 ; unretract
G1 F1200
G1 X141.905 Y79.790 E0.02718 ; perimeter
G1 X150.210 Y106.588 E0.79168 ; perimeter
G1 X150.210 Y108.202 E0.04556 ; perimeter
G1 X149.768 Y108.269 E0.01261 ; perimeter
G1 X140.959 Y79.847 E0.83967 ; perimeter
G1 F8640
G1 X141.905 Y79.790 E-0.21871 ; wipe and retract
G1 X142.599 Y82.029 E-0.54129 ; wipe and retract
G1 E-0.04000 F2100.00000 ; retract
G1 Z0.800 F10800.000 ; lift Z
G1 X142.093 Y79.790 ; move to first perimeter point
G1 Z0.200 ; restore layer Z
G1 E0.80000 F2100.00000 ; unretract
G1 F1200
G1 X143.056 Y79.790 E0.02718 ; perimeter
G1 X150.210 Y102.872 E0.68191 ; perimeter
G1 X150.210 Y104.486 E0.04556 ; perimeter
G1 X149.768 Y104.553 E0.01261 ; perimeter
G1 X142.111 Y79.847 E0.72989 ; perimeter
G1 F8640
G1 X143.056 Y79.790 E-0.21871 ; wipe and retract
G1 X143.750 Y82.029 E-0.54129 ; wipe and retract
G1 E-0.04000 F2100.00000 ; retract
G1 Z0.800 F10800.000 ; lift Z
G1 X143.245 Y79.790 ; move to first perimeter point
G1 Z0.200 ; restore layer Z
G1 E0.80000 F2100.00000 ; unretract
G1 F1200
G1 X144.208 Y79.790 E0.02718 ; perimeter
G1 X150.210 Y99.156 E0.57214 ; perimeter
G1 X150.210 Y100.771 E0.04557 ; perimeter
G1 X149.768 Y100.838 E0.01261 ; perimeter
G1 X143.262 Y79.847 E0.62012 ; perimeter
G1 F8640
G1 X144.208 Y79.790 E-0.21871 ; wipe and retract
G1 X144.902 Y82.029 E-0.54129 ; wipe and retract
G1 E-0.04000 F2100.00000 ; retract
G1 Z0.800 F10800.000 ; lift Z
G1 X144.396 Y79.790 ; move to first perimeter point
G1 Z0.200 ; restore layer Z
G1 E0.80000 F2100.00000 ; unretract
G1 F1200
G1 X145.359 Y79.790 E0.02718 ; perimeter
G1 X150.210 Y95.440 E0.46236 ; perimeter
G1 X150.210 Y97.055 E0.04557 ; perimeter
G1 X149.768 Y97.122 E0.01261 ; perimeter
G1 X144.414 Y79.847 E0.51035 ; perimeter
G1 F8640
G1 X145.359 Y79.790 E-0.21868 ; wipe and retract
G1 X146.053 Y82.029 E-0.54132 ; wipe and retract
G1 E-0.04000 F2100.00000 ; retract
G1 Z0.800 F10800.000 ; lift Z
G1 X145.548 Y79.790 ; move to first perimeter point
G1 Z0.200 ; restore layer Z
G1 E0.80000 F2100.00000 ; unretract
G1 F1200
G1 X146.511 Y79.790 E0.02718 ; perimeter
G1 X150.210 Y91.725 E0.35259 ; perimeter
G1 X150.210 Y93.339 E0.04557 ; perimeter
G1 X149.768 Y93.406 E0.01261 ; perimeter
G1 X145.566 Y79.847 E0.40058 ; perimeter
G1 F8640
G1 X146.511 Y79.790 E-0.21871 ; wipe and retract
G1 X147.205 Y82.029 E-0.54129 ; wipe and retract
G1 E-0.04000 F2100.00000 ; retract
G1 Z0.800 F10800.000 ; lift Z
