; generated by Slic3r Prusa Edition 1.41.3+linux64 on 2021-03-02 at 15:45:17

; 

; external perimeters extrusion width = 0.45mm
; perimeters extrusion width = 0.45mm
; infill extrusion width = 0.45mm
; solid infill extrusion width = 0.45mm
; top infill extrusion width = 0.40mm
; first layer extrusion width = 0.42mm

M73 P0 R93
M73 Q0 S94
M201 X1000 Y1000 Z1000 E5000 ; sets maximum accelerations, mm/sec^2
M203 X200 Y200 Z12 E120 ; sets maximum feedrates, mm/sec
M204 P1250 R1250 T1250 ; sets acceleration (P, T) and retract acceleration (R), mm/sec^2
M205 X8.00 Y8.00 Z0.40 E1.50 ; sets the jerk limits, mm/sec
M205 S0 T0 ; sets the minimum extruding and travel feed rate, mm/sec
M107
M115 U3.5.1 ; tell printer latest fw version
M83  ; extruder relative mode
M104 S220 ; set extruder temp
M140 S100 ; set bed temp
M190 S100 ; wait for bed temp
M109 S220 ; wait for extruder temp
G28 W ; home all without mesh bed level
G80 ; mesh bed leveling
G1 Y-3.0 F1000.0 ; go outside print area
G92 E0.0
G1 X60.0 E9.0  F1000.0 ; intro line
M73 Q0 S94
M73 P0 R93
G1 X100.0 E12.5  F1000.0 ; intro line
G92 E0.0
M221 S95
M900 K10; Filament gcode
G21 ; set units to millimeters
G90 ; use absolute coordinates
M83 ; use relative distances for extrusion
;BEFORE_LAYER_CHANGE
G92 E0.0
;0.2


G1 E-2.00000 F2100.00000
G1 Z0.600 F10800.000
;AFTER_LAYER_CHANGE
;0.2
G1 X88.429 Y68.477
G1 Z0.200
G1 E2.00000 F2100.00000
M204 S1000
G1 F1200
G1 X89.137 Y67.989 E0.02428
G1 X89.980 Y67.812 E0.02428
G1 X160.004 Y67.811 E1.97600
G1 X160.827 Y67.974 E0.02368
G1 X161.531 Y68.436 E0.02378
G1 X162.008 Y69.131 E0.02378
G1 X162.188 Y69.954 E0.02378
G1 X162.188 Y140.018 E1.97714
G1 X162.025 Y140.830 E0.02337
G1 X161.571 Y141.523 E0.02337
G1 X160.856 Y142.014 E0.02449
G1 X160.002 Y142.189 E0.02459
G1 X89.982 Y142.188 E1.97590
G1 X89.170 Y142.025 E0.02337
G1 X88.477 Y141.571 E0.02337
G1 X87.986 Y140.856 E0.02449
G1 X87.811 Y140.002 E0.02459
G1 X87.812 Y69.982 E1.97590
G1 X87.975 Y69.170 E0.02337
G1 X88.396 Y68.527 E0.02168
; PURGING FINISHED
G1 F8640
G1 X89.137 Y67.989 E-0.21159
G1 X89.980 Y67.812 E-0.19870
G1 X96.431 Y67.812 E-1.48970
G1 E-0.10000 F2100.00000
G1 Z0.800 F10800.000
G1 X98.429 Y79.036
G1 Z0.200
G1 E2.00000 F2100.00000
G1 F1200
G1 X150.964 Y79.036 E1.48248
G1 X150.964 Y80.809 E0.05005
G1 X150.937 Y80.819 E0.00080
G1 X150.964 Y80.852 E0.00121
G1 X150.964 Y82.566 E0.04837
G1 X150.937 Y82.576 E0.00080
G1 X150.964 Y82.609 E0.00121
G1 X150.964 Y84.323 E0.04837
G1 X150.937 Y84.333 E0.00080
G1 X150.964 Y84.366 E0.00121
G1 X150.964 Y86.081 E0.04837
G1 X150.937 Y86.090 E0.00080
G1 X150.964 Y86.123 E0.00121
G1 X150.964 Y87.838 E0.04837
G1 X150.937 Y87.847 E0.00080
G1 X150.964 Y87.880 E0.00121
G1 X150.964 Y89.594 E0.04837
G1 X150.937 Y89.604 E0.00080
G1 X150.964 Y89.637 E0.00121
G1 X150.964 Y91.351 E0.04837
G1 X150.937 Y91.361 E0.00080
G1 X150.964 Y91.394 E0.00121
G1 X150.964 Y93.109 E0.04837
G1 X150.937 Y93.118 E0.00080
G1 X150.964 Y93.151 E0.00121
G1 X150.964 Y94.866 E0.04837
G1 X150.937 Y94.875 E0.00080
G1 X150.964 Y94.908 E0.00121
G1 X150.964 Y96.623 E0.04837
G1 X150.937 Y96.632 E0.00080
G1 X150.964 Y96.665 E0.00121
G1 X150.964 Y98.380 E0.04837
G1 X150.937 Y98.389 E0.00080
G1 X150.964 Y98.422 E0.00121
G1 X150.964 Y100.137 E0.04837
G1 X150.937 Y100.146 E0.00080
G1 X150.964 Y100.179 E0.00121
G1 X150.964 Y101.894 E0.04837
G1 X150.937 Y101.903 E0.00080
G1 X150.964 Y101.936 E0.00121
G1 X150.964 Y103.651 E0.04837
G1 X150.937 Y103.660 E0.00080
G1 X150.964 Y103.693 E0.00121
G1 X150.964 Y105.408 E0.04837
G1 X150.937 Y105.417 E0.00080
G1 X150.964 Y105.451 E0.00121
G1 X150.964 Y107.165 E0.04837
G1 X150.937 Y107.174 E0.00080
G1 X150.964 Y107.208 E0.00121
G1 X150.964 Y108.922 E0.04837
G1 X150.937 Y108.931 E0.00080
G1 X150.964 Y108.965 E0.00121
G1 X150.964 Y110.679 E0.04837
G1 X150.937 Y110.688 E0.00080
G1 X150.964 Y110.722 E0.00121
G1 X150.964 Y112.436 E0.04837
G1 X150.937 Y112.445 E0.00080
G1 X150.964 Y112.479 E0.00121
G1 X150.964 Y114.193 E0.04837
G1 X150.937 Y114.202 E0.00080
G1 X150.964 Y114.236 E0.00121
G1 X150.964 Y115.950 E0.04837
G1 X150.937 Y115.959 E0.00080
G1 X150.964 Y115.993 E0.00121
G1 X150.964 Y117.707 E0.04837
G1 X150.937 Y117.716 E0.00080
G1 X150.964 Y117.750 E0.00121
G1 X150.964 Y119.464 E0.04837
G1 X150.937 Y119.473 E0.00080
G1 X150.964 Y119.507 E0.00121
G1 X150.964 Y121.221 E0.04837
G1 X150.937 Y121.230 E0.00080
G1 X150.964 Y121.264 E0.00121
G1 X150.964 Y122.978 E0.04837
G1 X150.937 Y122.987 E0.00080
G1 X150.964 Y123.021 E0.00121
G1 X150.964 Y124.735 E0.04837
G1 X150.937 Y124.744 E0.00080
G1 X150.964 Y124.778 E0.00121
G1 X150.964 Y126.492 E0.04837
G1 X150.937 Y126.501 E0.00080
G1 X150.964 Y126.535 E0.00121
G1 X150.964 Y128.249 E0.04837
G1 X150.937 Y128.258 E0.00080
G1 X150.964 Y128.292 E0.00121
G1 X150.964 Y130.964 E0.07541
G1 X99.036 Y130.964 E1.46536
G1 X99.036 Y129.031 E0.05455
G1 X99.063 Y129.021 E0.00080
G1 X99.036 Y128.988 E0.00121
G1 X99.036 Y127.274 E0.04837
G1 X99.063 Y127.264 E0.00080
G1 X99.036 Y127.231 E0.00121
G1 X99.036 Y125.517 E0.04837
G1 X99.063 Y125.507 E0.00080
G1 X99.036 Y125.474 E0.00121
G1 X99.036 Y123.760 E0.04837
G1 X99.063 Y123.750 E0.00080
G1 X99.036 Y123.717 E0.00121
G1 X99.036 Y122.003 E0.04837
G1 X99.063 Y121.993 E0.00080
G1 X99.036 Y121.960 E0.00121
G1 X99.036 Y120.246 E0.04837
G1 X99.063 Y120.236 E0.00080
G1 X99.036 Y120.203 E0.00121
G1 X99.036 Y118.489 E0.04837
G1 X99.063 Y118.479 E0.00080
G1 X99.036 Y118.446 E0.00121
G1 X99.036 Y116.732 E0.04837
G1 X99.063 Y116.722 E0.00080
G1 X99.036 Y116.689 E0.00121
G1 X99.036 Y114.975 E0.04837
G1 X99.063 Y114.965 E0.00080
G1 X99.036 Y114.932 E0.00121
G1 X99.036 Y113.218 E0.04837
G1 X99.063 Y113.208 E0.00080
G1 X99.036 Y113.175 E0.00121
G1 X99.036 Y111.461 E0.04837
G1 X99.063 Y111.451 E0.00080
G1 X99.036 Y111.418 E0.00121
G1 X99.036 Y109.704 E0.04837
G1 X99.063 Y109.694 E0.00080
G1 X99.036 Y109.661 E0.00121
G1 X99.036 Y107.947 E0.04837
G1 X99.063 Y107.937 E0.00080
G1 X99.036 Y107.904 E0.00121
G1 X99.036 Y106.190 E0.04837
G1 X99.063 Y106.180 E0.00080
G1 X99.036 Y106.147 E0.00121
G1 X99.036 Y104.433 E0.04837
G1 X99.063 Y104.423 E0.00080
G1 X99.036 Y104.390 E0.00121
G1 X99.036 Y102.676 E0.04837
G1 X99.063 Y102.666 E0.00080
G1 X99.036 Y102.633 E0.00121
G1 X99.036 Y100.919 E0.04837
G1 X99.063 Y100.909 E0.00080
G1 X99.036 Y100.876 E0.00121
G1 X99.036 Y99.161 E0.04837
G1 X99.063 Y99.152 E0.00080
G1 X99.036 Y99.119 E0.00121
G1 X99.036 Y97.405 E0.04837
G1 X99.063 Y97.395 E0.00080
G1 X99.036 Y97.362 E0.00121
G1 X99.036 Y95.647 E0.04837
G1 X99.063 Y95.638 E0.00080
G1 X99.036 Y95.605 E0.00121
G1 X99.036 Y93.890 E0.04837
G1 X99.063 Y93.881 E0.00080
G1 X99.036 Y93.848 E0.00121
G1 X99.036 Y92.133 E0.04837
G1 X99.063 Y92.124 E0.00080
G1 X99.036 Y92.091 E0.00121
G1 X99.036 Y90.376 E0.04837
G1 X99.063 Y90.367 E0.00080
G1 X99.036 Y90.334 E0.00121
G1 X99.036 Y88.619 E0.04837
G1 X99.063 Y88.610 E0.00080
G1 X99.036 Y88.577 E0.00121
G1 X99.036 Y86.862 E0.04837
G1 X99.063 Y86.853 E0.00080
G1 X99.036 Y86.820 E0.00121
G1 X99.036 Y85.105 E0.04837
G1 X99.063 Y85.096 E0.00080
G1 X99.036 Y85.063 E0.00121
G1 X99.036 Y83.348 E0.04837
G1 X99.063 Y83.339 E0.00080
G1 X99.036 Y83.305 E0.00121
G1 X99.036 Y81.591 E0.04837
G1 X99.063 Y81.582 E0.00080
G1 X99.036 Y81.548 E0.00121
G1 X99.036 Y79.834 E0.04837
G1 X99.063 Y79.825 E0.00080
G1 X98.467 Y79.083 E0.02686
G1 X99.215 Y79.413 F10800.000
G1 F1200
G1 X150.587 Y79.413 E1.44965
G1 X150.587 Y80.542 E0.03187
G1 X150.310 Y80.640 E0.00829
G1 X150.587 Y80.985 E0.01249
G1 X150.587 Y82.299 E0.03709
G1 X150.310 Y82.397 E0.00829
G1 X150.587 Y82.742 E0.01249
G1 X150.587 Y84.056 E0.03709
G1 X150.310 Y84.154 E0.00829
G1 X150.587 Y84.499 E0.01249
G1 X150.587 Y85.813 E0.03709
G1 X150.310 Y85.911 E0.00829
G1 X150.587 Y86.256 E0.01249
G1 X150.587 Y87.570 E0.03709
G1 X150.310 Y87.668 E0.00829
G1 X150.587 Y88.013 E0.01249
G1 X150.587 Y89.327 E0.03709
G1 X150.310 Y89.425 E0.00829
G1 X150.587 Y89.770 E0.01249
G1 X150.587 Y91.084 E0.03709
G1 X150.310 Y91.182 E0.00829
G1 X150.587 Y91.527 E0.01249
G1 X150.587 Y92.841 E0.03709
G1 X150.310 Y92.939 E0.00829
G1 X150.587 Y93.284 E0.01249
G1 X150.587 Y94.599 E0.03709
G1 X150.310 Y94.696 E0.00829
G1 X150.587 Y95.041 E0.01249
G1 X150.587 Y96.356 E0.03709
G1 X150.310 Y96.453 E0.00829
G1 X150.587 Y96.798 E0.01249
G1 X150.587 Y98.113 E0.03709
G1 X150.310 Y98.210 E0.00829
G1 X150.587 Y98.555 E0.01249
G1 X150.587 Y99.870 E0.03709
G1 X150.310 Y99.967 E0.00829
G1 X150.587 Y100.312 E0.01249
G1 X150.587 Y101.627 E0.03709
G1 X150.310 Y101.724 E0.00829
G1 X150.587 Y102.069 E0.01249
G1 X150.587 Y103.384 E0.03709
G1 X150.310 Y103.481 E0.00829
G1 X150.587 Y103.826 E0.01249
G1 X150.587 Y105.141 E0.03709
G1 X150.310 Y105.238 E0.00829
G1 X150.587 Y105.583 E0.01249
G1 X150.587 Y106.898 E0.03709
G1 X150.310 Y106.995 E0.00829
G1 X150.587 Y107.340 E0.01249
G1 X150.587 Y108.655 E0.03709
G1 X150.310 Y108.752 E0.00829
G1 X150.587 Y109.097 E0.01249
G1 X150.587 Y110.412 E0.03709
G1 X150.310 Y110.509 E0.00829
G1 X150.587 Y110.854 E0.01249
G1 X150.587 Y112.169 E0.03709
G1 X150.310 Y112.266 E0.00829
G1 X150.587 Y112.611 E0.01249
G1 X150.587 Y113.926 E0.03709
G1 X150.310 Y114.023 E0.00829
G1 X150.587 Y114.368 E0.01249
G1 X150.587 Y115.683 E0.03709
G1 X150.310 Y115.780 E0.00829
G1 X150.587 Y116.125 E0.01249
G1 X150.587 Y117.440 E0.03709
G1 X150.310 Y117.537 E0.00829
G1 X150.587 Y117.882 E0.01249
G1 X150.587 Y119.197 E0.03709
G1 X150.310 Y119.294 E0.00829
G1 X150.587 Y119.639 E0.01249
G1 X150.587 Y120.954 E0.03709
G1 X150.310 Y121.051 E0.00829
G1 X150.587 Y121.396 E0.01249
G1 X150.587 Y122.711 E0.03709
G1 X150.310 Y122.808 E0.00829
G1 X150.587 Y123.153 E0.01249
G1 X150.587 Y124.468 E0.03709
G1 X150.310 Y124.565 E0.00829
G1 X150.587 Y124.910 E0.01249
G1 X150.587 Y126.225 E0.03709
G1 X150.310 Y126.322 E0.00829
G1 X150.587 Y126.667 E0.01249
G1 X150.587 Y127.982 E0.03709
G1 X150.310 Y128.079 E0.00829
G1 X150.587 Y128.424 E0.01249
G1 X150.587 Y130.587 E0.06103
G1 X99.413 Y130.587 E1.44408
G1 X99.413 Y129.298 E0.03638
G1 X99.690 Y129.201 E0.00829
G1 X99.413 Y128.855 E0.01249
G1 X99.413 Y127.541 E0.03709
G1 X99.690 Y127.444 E0.00829
G1 X99.413 Y127.098 E0.01249
G1 X99.413 Y125.784 E0.03709
G1 X99.690 Y125.686 E0.00829
G1 X99.413 Y125.341 E0.01249
G1 X99.413 Y124.027 E0.03709
G1 X99.690 Y123.929 E0.00829
G1 X99.413 Y123.584 E0.01249
G1 X99.413 Y122.270 E0.03709
G1 X99.690 Y122.172 E0.00829
G1 X99.413 Y121.827 E0.01249
G1 X99.413 Y120.513 E0.03709
G1 X99.690 Y120.415 E0.00829
G1 X99.413 Y120.070 E0.01249
G1 X99.413 Y118.756 E0.03709
G1 X99.690 Y118.658 E0.00829
G1 X99.413 Y118.313 E0.01249
G1 X99.413 Y116.999 E0.03709
G1 X99.690 Y116.901 E0.00829
G1 X99.413 Y116.556 E0.01249
G1 X99.413 Y115.242 E0.03709
G1 X99.690 Y115.144 E0.00829
G1 X99.413 Y114.799 E0.01249
G1 X99.413 Y113.485 E0.03709
G1 X99.690 Y113.387 E0.00829
G1 X99.413 Y113.042 E0.01249
G1 X99.413 Y111.728 E0.03709
G1 X99.690 Y111.630 E0.00829
G1 X99.413 Y111.285 E0.01249
G1 X99.413 Y109.971 E0.03709
G1 X99.690 Y109.873 E0.00829
G1 X99.413 Y109.528 E0.01249
G1 X99.413 Y108.214 E0.03709
G1 X99.690 Y108.116 E0.00829
G1 X99.413 Y107.771 E0.01249
G1 X99.413 Y106.457 E0.03709
G1 X99.690 Y106.359 E0.00829
G1 X99.413 Y106.014 E0.01249
G1 X99.413 Y104.700 E0.03709
G1 X99.690 Y104.602 E0.00829
G1 X99.413 Y104.257 E0.01249
G1 X99.413 Y102.943 E0.03709
G1 X99.690 Y102.845 E0.00829
G1 X99.413 Y102.500 E0.01249
G1 X99.413 Y101.186 E0.03709
G1 X99.690 Y101.088 E0.00829
G1 X99.413 Y100.743 E0.01249
G1 X99.413 Y99.429 E0.03709
G1 X99.690 Y99.331 E0.00829
G1 X99.413 Y98.986 E0.01249
G1 X99.413 Y97.672 E0.03709
G1 X99.690 Y97.574 E0.00829
G1 X99.413 Y97.229 E0.01249
G1 X99.413 Y95.915 E0.03709
G1 X99.690 Y95.817 E0.00829
G1 X99.413 Y95.472 E0.01249
G1 X99.413 Y94.157 E0.03709
G1 X99.690 Y94.060 E0.00829
G1 X99.413 Y93.715 E0.01249
G1 X99.413 Y92.400 E0.03709
G1 X99.690 Y92.303 E0.00829
G1 X99.413 Y91.958 E0.01249
G1 X99.413 Y90.643 E0.03709
G1 X99.690 Y90.546 E0.00829
G1 X99.413 Y90.201 E0.01249
G1 X99.413 Y88.886 E0.03709
G1 X99.690 Y88.789 E0.00829
G1 X99.413 Y88.444 E0.01249
G1 X99.413 Y87.129 E0.03709
G1 X99.690 Y87.032 E0.00829
G1 X99.413 Y86.687 E0.01249
G1 X99.413 Y85.372 E0.03709
G1 X99.690 Y85.275 E0.00829
G1 X99.413 Y84.930 E0.01249
G1 X99.413 Y83.615 E0.03709
G1 X99.690 Y83.518 E0.00829
G1 X99.413 Y83.173 E0.01249
G1 X99.413 Y81.858 E0.03709
G1 X99.690 Y81.761 E0.00829
G1 X99.413 Y81.416 E0.01249
G1 X99.413 Y80.101 E0.03709
G1 X99.690 Y80.004 E0.00829
G1 X99.253 Y79.460 E0.01969
G1 F8640
G1 X107.482 Y79.452 E-1.90000
G1 E-0.10000 F2100.00000
G1 Z0.800 F10800.000
G1 X104.234 Y79.790
G1 Z0.200
G1 E2.00000 F2100.00000
G1 F1200
G1 X105.414 Y79.790 E0.03329
G1 X145.894 Y130.210 E1.82462
G1 X144.715 Y130.210 E0.03329
G1 X104.271 Y79.837 E1.82293
G1 X104.143 Y79.401 F10800.000
G1 F8640
G1 X105.414 Y79.790 E-0.26397
G1 X109.849 Y85.315 E-1.63603
G1 E-0.10000 F2100.00000
G1 Z0.800 F10800.000
G1 X102.823 Y79.790
G1 Z0.200
G1 E2.00000 F2100.00000
G1 F1200
G1 X104.003 Y79.790 E0.03329
G1 X144.484 Y130.210 E1.82462
G1 X143.304 Y130.210 E0.03329
G1 X102.861 Y79.837 E1.82293
G1 X102.732 Y79.401 F10800.000
G1 F8640
G1 X104.003 Y79.790 E-0.26397
G1 X108.439 Y85.315 E-1.63603
G1 E-0.10000 F2100.00000
G1 Z0.800 F10800.000
G1 X101.412 Y79.790
G1 Z0.200
G1 E2.00000 F2100.00000
G1 F1200
G1 X102.592 Y79.790 E0.03329
G1 X143.073 Y130.210 E1.82462
M73 Q1 S93
G1 X141.893 Y130.210 E0.03329
G1 X101.450 Y79.837 E1.82293
M73 P1 R92
G1 X101.321 Y79.401 F10800.000
G1 F8640
G1 X102.592 Y79.790 E-0.26397
G1 X107.028 Y85.315 E-1.63603
G1 E-0.10000 F2100.00000
G1 Z0.800 F10800.000
G1 X100.002 Y79.790
G1 Z0.200
G1 E2.00000 F2100.00000
G1 F1200
G1 X101.182 Y79.790 E0.03329
G1 X141.662 Y130.210 E1.82462
G1 X140.483 Y130.210 E0.03329
G1 X100.039 Y79.837 E1.82293
G1 X99.911 Y79.401 F10800.000
G1 X100.137 Y80.246
G1 F1200
G1 X140.252 Y130.210 E1.80811
G1 X139.072 Y130.210 E0.03329
G1 X99.790 Y81.283 E1.77059
G1 X99.790 Y80.368 E0.02581
G1 X100.081 Y80.266 E0.00870
G1 X100.396 Y79.941 F10800.000
G1 F8640
G1 X105.238 Y86.678 E-1.90000
G1 E-0.10000 F2100.00000
G1 Z0.800 F10800.000
G1 X99.881 Y79.881
G1 X101.443 Y81.443
G1 X99.014 Y81.556
G1 X100.137 Y82.003
G1 Z0.200
G1 E2.00000 F2100.00000
G1 F1200
G1 X138.841 Y130.210 E1.74453
G1 X137.661 Y130.210 E0.03329
G1 X99.790 Y83.040 E1.70700
G1 X99.790 Y82.125 E0.02581
G1 X100.081 Y82.023 E0.00870
G1 X100.396 Y81.698 F10800.000
G1 F8640
G1 X105.238 Y88.435 E-1.90000
G1 E-0.10000 F2100.00000
G1 Z0.800 F10800.000
G1 X99.014 Y81.556
G1 X95.000 Y81.563
G1 X95.000 Y83.318
G1 X99.014 Y83.313
G1 X100.137 Y83.760
G1 Z0.200
G1 E2.00000 F2100.00000
G1 F1200
G1 X137.430 Y130.210 E1.68094
G1 X136.251 Y130.210 E0.03329
G1 X99.790 Y84.797 E1.64342
G1 X99.790 Y83.882 E0.02581
G1 X100.081 Y83.780 E0.00870
G1 X100.396 Y83.455 F10800.000
G1 F8640
G1 X105.238 Y90.192 E-1.90000
G1 E-0.10000 F2100.00000
G1 Z0.800 F10800.000
G1 X99.014 Y83.313
G1 X95.000 Y83.320
G1 X95.000 Y85.075
G1 X99.014 Y85.070
G1 X100.137 Y85.517
G1 Z0.200
G1 E2.00000 F2100.00000
G1 F1200
G1 X136.020 Y130.210 E1.61736
G1 X134.840 Y130.210 E0.03329
G1 X99.790 Y86.554 E1.57983
G1 X99.790 Y85.639 E0.02581
G1 X100.081 Y85.537 E0.00870
G1 X100.396 Y85.212 F10800.000
G1 F8640
G1 X105.239 Y91.949 E-1.90000
G1 E-0.10000 F2100.00000
G1 Z0.800 F10800.000
G1 X99.014 Y85.070
G1 X95.000 Y85.078
G1 X95.000 Y86.832
G1 X99.014 Y86.827
G1 X100.137 Y87.274
G1 Z0.200
G1 E2.00000 F2100.00000
G1 F1200
G1 X134.609 Y130.210 E1.55377
G1 X133.429 Y130.210 E0.03329
G1 X99.790 Y88.311 E1.51625
G1 X99.790 Y87.397 E0.02581
G1 X100.081 Y87.294 E0.00870
G1 X100.396 Y86.969 F10800.000
G1 F8640
G1 X105.239 Y93.705 E-1.90000
G1 E-0.10000 F2100.00000
G1 Z0.800 F10800.000
G1 X99.014 Y86.827
G1 X95.000 Y86.835
G1 X95.000 Y88.589
G1 X99.014 Y88.584
G1 X100.137 Y89.031
G1 Z0.200
G1 E2.00000 F2100.00000
G1 F1200
G1 X133.199 Y130.210 E1.49019
G1 X132.019 Y130.210 E0.03330
G1 X99.790 Y90.068 E1.45267
G1 X99.790 Y89.154 E0.02581
G1 X100.081 Y89.051 E0.00870
G1 X100.396 Y88.726 F10800.000
G1 F8640
G1 X105.239 Y95.462 E-1.90000
G1 E-0.10000 F2100.00000
G1 Z0.800 F10800.000
G1 X99.014 Y88.584
G1 X95.000 Y88.592
