; generated by Slic3r Prusa Edition 1.41.3+linux64 on 2021-03-02 at 13:05:00

; 

; external perimeters extrusion width = 0.45mm
; perimeters extrusion width = 0.45mm
; infill extrusion width = 0.45mm
; solid infill extrusion width = 0.45mm
; top infill extrusion width = 0.40mm
; first layer extrusion width = 0.42mm

M73 P0 R95
M73 Q0 S95
M201 X1000 Y1000 Z1000 E5000 ; sets maximum accelerations, mm/sec^2
M203 X200 Y200 Z12 E120 ; sets maximum feedrates, mm/sec
M204 P1250 R1250 T1250 ; sets acceleration (P, T) and retract acceleration (R), mm/sec^2
M205 X8.00 Y8.00 Z0.40 E1.50 ; sets the jerk limits, mm/sec
M205 S0 T0 ; sets the minimum extruding and travel feed rate, mm/sec
M107
M115 U3.5.1 ; tell printer latest fw version
M83  ; extruder relative mode
M104 S220 ; set extruder temp
M140 S100 ; set bed temp
M190 S100 ; wait for bed temp
M109 S220 ; wait for extruder temp
G28 W ; home all without mesh bed level
G80 ; mesh bed leveling
G1 Y-3.0 F1000.0 ; go outside print area
G92 E0.0
G1 X60.0 E9.0  F1000.0 ; intro line
M73 Q0 S95
M73 P0 R95
G1 X100.0 E12.5  F1000.0 ; intro line
G92 E0.0
M221 S95
M900 K10; Filament gcode
G21 ; set units to millimeters
G90 ; use absolute coordinates
M83 ; use relative distances for extrusion
;BEFORE_LAYER_CHANGE
G92 E0.0
;0.2


G1 E-0.80000 F2100.00000
G1 Z0.600 F10800.000
;AFTER_LAYER_CHANGE
;0.2
G1 X101.828 Y66.246
G1 Z0.200
G1 E0.80000 F2100.00000
M204 S1000
G1 F1200
G1 X102.572 Y66.801 E0.02620
G1 X148.510 Y119.646 E1.97590
G1 X148.924 Y120.380 E0.02378
G1 X149.030 Y121.216 E0.02378
G1 X148.806 Y122.043 E0.02418
G1 X148.282 Y122.720 E0.02414
G1 X95.439 Y168.656 E1.97584
G1 X94.705 Y169.070 E0.02378
G1 X93.869 Y169.176 E0.02378
G1 X93.042 Y168.951 E0.02418
G1 X92.365 Y168.428 E0.02414
G1 X46.429 Y115.584 E1.97584
G1 X46.015 Y114.850 E0.02378
G1 X45.909 Y114.015 E0.02378
G1 X46.132 Y113.191 E0.02408
G1 X46.655 Y112.512 E0.02418
G1 X99.497 Y66.577 E1.97580
G1 X100.162 Y66.186 E0.02175
G1 X100.924 Y66.050 E0.02185
G1 X101.769 Y66.233 E0.02441
; PURGING FINISHED
G1 F8640
G1 X102.572 Y66.801 E-0.22708
G1 X104.087 Y68.543 E-0.53292
G1 E-0.04000 F2100.00000
G1 Z0.800 F10800.000
G1 X100.031 Y80.986
G1 Z0.200
G1 E0.80000 F2100.00000
G1 F1200
G1 X101.194 Y82.324 E0.05005
G1 X101.180 Y82.349 E0.00080
G1 X101.222 Y82.357 E0.00121
G1 X102.347 Y83.650 E0.04837
G1 X102.333 Y83.675 E0.00080
G1 X102.375 Y83.683 E0.00121
G1 X103.500 Y84.976 E0.04837
G1 X103.486 Y85.001 E0.00080
G1 X103.528 Y85.009 E0.00121
G1 X104.652 Y86.302 E0.04837
G1 X104.638 Y86.327 E0.00080
G1 X104.681 Y86.335 E0.00121
G1 X105.805 Y87.628 E0.04837
G1 X105.791 Y87.653 E0.00080
G1 X105.833 Y87.661 E0.00121
G1 X106.958 Y88.954 E0.04837
G1 X106.944 Y88.979 E0.00080
G1 X106.986 Y88.987 E0.00121
G1 X108.111 Y90.281 E0.04837
G1 X108.097 Y90.305 E0.00080
G1 X108.139 Y90.313 E0.00121
G1 X109.263 Y91.607 E0.04837
G1 X109.249 Y91.631 E0.00080
G1 X109.291 Y91.639 E0.00121
G1 X110.416 Y92.933 E0.04837
G1 X110.402 Y92.957 E0.00080
G1 X110.444 Y92.965 E0.00121
G1 X111.569 Y94.259 E0.04837
G1 X111.555 Y94.283 E0.00080
G1 X111.597 Y94.291 E0.00121
G1 X112.721 Y95.585 E0.04837
G1 X112.707 Y95.609 E0.00080
G1 X112.750 Y95.617 E0.00121
G1 X113.874 Y96.911 E0.04837
G1 X113.860 Y96.935 E0.00080
G1 X113.902 Y96.943 E0.00121
G1 X115.027 Y98.237 E0.04837
G1 X115.013 Y98.261 E0.00080
G1 X115.055 Y98.269 E0.00121
G1 X116.180 Y99.563 E0.04837
G1 X116.166 Y99.588 E0.00080
G1 X116.208 Y99.595 E0.00121
G1 X117.332 Y100.889 E0.04837
G1 X117.318 Y100.914 E0.00080
G1 X117.360 Y100.921 E0.00121
G1 X118.485 Y102.215 E0.04837
G1 X118.471 Y102.240 E0.00080
G1 X118.513 Y102.247 E0.00121
G1 X119.638 Y103.541 E0.04837
G1 X119.624 Y103.566 E0.00080
G1 X119.666 Y103.573 E0.00121
G1 X120.790 Y104.867 E0.04837
G1 X120.776 Y104.892 E0.00080
G1 X120.818 Y104.899 E0.00121
G1 X121.943 Y106.193 E0.04837
G1 X121.929 Y106.218 E0.00080
G1 X121.971 Y106.225 E0.00121
G1 X123.096 Y107.519 E0.04837
G1 X123.082 Y107.544 E0.00080
G1 X123.124 Y107.551 E0.00121
G1 X124.249 Y108.845 E0.04837
G1 X124.234 Y108.870 E0.00080
G1 X124.277 Y108.877 E0.00121
G1 X125.401 Y110.171 E0.04837
G1 X125.387 Y110.196 E0.00080
G1 X125.429 Y110.203 E0.00121
G1 X126.554 Y111.497 E0.04837
G1 X126.540 Y111.522 E0.00080
G1 X126.582 Y111.529 E0.00121
G1 X127.707 Y112.823 E0.04837
G1 X127.693 Y112.848 E0.00080
G1 X127.735 Y112.856 E0.00121
G1 X128.859 Y114.149 E0.04837
G1 X128.845 Y114.174 E0.00080
G1 X128.887 Y114.182 E0.00121
G1 X130.012 Y115.475 E0.04837
G1 X129.998 Y115.500 E0.00080
G1 X130.040 Y115.508 E0.00121
G1 X131.165 Y116.801 E0.04837
G1 X131.151 Y116.826 E0.00080
G1 X131.193 Y116.834 E0.00121
G1 X132.318 Y118.127 E0.04837
G1 X132.304 Y118.152 E0.00080
G1 X132.346 Y118.160 E0.00121
G1 X134.099 Y120.177 E0.07541
G1 X94.908 Y154.245 E1.46536
G1 X93.640 Y152.786 E0.05455
G1 X93.654 Y152.761 E0.00080
G1 X93.612 Y152.753 E0.00121
G1 X92.487 Y151.460 E0.04837
G1 X92.501 Y151.435 E0.00080
G1 X92.459 Y151.427 E0.00121
G1 X91.334 Y150.133 E0.04837
G1 X91.348 Y150.109 E0.00080
G1 X91.306 Y150.101 E0.00121
G1 X90.182 Y148.807 E0.04837
G1 X90.196 Y148.783 E0.00080
G1 X90.153 Y148.775 E0.00121
G1 X89.029 Y147.481 E0.04837
G1 X89.043 Y147.457 E0.00080
G1 X89.001 Y147.449 E0.00121
G1 X87.876 Y146.155 E0.04837
G1 X87.890 Y146.131 E0.00080
G1 X87.848 Y146.123 E0.00121
G1 X86.723 Y144.829 E0.04837
G1 X86.737 Y144.805 E0.00080
G1 X86.695 Y144.797 E0.00121
G1 X85.571 Y143.503 E0.04837
G1 X85.585 Y143.479 E0.00080
G1 X85.543 Y143.471 E0.00121
G1 X84.418 Y142.177 E0.04837
G1 X84.432 Y142.153 E0.00080
G1 X84.390 Y142.145 E0.00121
G1 X83.265 Y140.851 E0.04837
G1 X83.279 Y140.826 E0.00080
G1 X83.237 Y140.819 E0.00121
G1 X82.113 Y139.525 E0.04837
G1 X82.127 Y139.500 E0.00080
G1 X82.085 Y139.493 E0.00121
G1 X80.960 Y138.199 E0.04837
G1 X80.974 Y138.174 E0.00080
G1 X80.932 Y138.167 E0.00121
G1 X79.807 Y136.873 E0.04837
G1 X79.821 Y136.848 E0.00080
G1 X79.779 Y136.841 E0.00121
G1 X78.654 Y135.547 E0.04837
G1 X78.668 Y135.522 E0.00080
G1 X78.626 Y135.515 E0.00121
G1 X77.502 Y134.221 E0.04837
G1 X77.516 Y134.196 E0.00080
G1 X77.474 Y134.189 E0.00121
G1 X76.349 Y132.895 E0.04837
G1 X76.363 Y132.870 E0.00080
G1 X76.321 Y132.863 E0.00121
G1 X75.196 Y131.569 E0.04837
G1 X75.210 Y131.544 E0.00080
G1 X75.168 Y131.537 E0.00121
G1 X74.044 Y130.243 E0.04837
G1 X74.058 Y130.218 E0.00080
G1 X74.015 Y130.211 E0.00121
G1 X72.891 Y128.917 E0.04837
G1 X72.905 Y128.892 E0.00080
G1 X72.863 Y128.884 E0.00121
G1 X71.738 Y127.591 E0.04837
G1 X71.752 Y127.566 E0.00080
G1 X71.710 Y127.558 E0.00121
G1 X70.585 Y126.265 E0.04837
G1 X70.599 Y126.240 E0.00080
G1 X70.557 Y126.232 E0.00121
G1 X69.433 Y124.939 E0.04837
G1 X69.447 Y124.914 E0.00080
G1 X69.405 Y124.906 E0.00121
G1 X68.280 Y123.613 E0.04837
G1 X68.294 Y123.588 E0.00080
G1 X68.252 Y123.580 E0.00121
G1 X67.127 Y122.287 E0.04837
G1 X67.141 Y122.262 E0.00080
G1 X67.099 Y122.254 E0.00121
G1 X65.975 Y120.961 E0.04837
G1 X65.989 Y120.936 E0.00080
G1 X65.947 Y120.928 E0.00121
G1 X64.822 Y119.634 E0.04837
G1 X64.836 Y119.610 E0.00080
G1 X64.794 Y119.602 E0.00121
G1 X63.669 Y118.308 E0.04837
G1 X63.683 Y118.284 E0.00080
G1 X63.641 Y118.276 E0.00121
G1 X62.517 Y116.982 E0.04837
G1 X62.531 Y116.958 E0.00080
G1 X62.488 Y116.950 E0.00121
G1 X61.364 Y115.656 E0.04837
G1 X61.378 Y115.632 E0.00080
G1 X60.382 Y115.452 E0.02855
G1 X99.986 Y81.025 E1.48079
G1 X99.994 Y81.518 F10800.000
G1 F1200
G1 X100.735 Y82.370 E0.03187
G1 X100.589 Y82.625 E0.00829
G1 X101.025 Y82.704 E0.01249
G1 X101.887 Y83.696 E0.03709
G1 X101.742 Y83.951 E0.00829
G1 X102.178 Y84.030 E0.01249
G1 X103.040 Y85.022 E0.03709
G1 X102.895 Y85.278 E0.00829
G1 X103.330 Y85.356 E0.01249
G1 X104.193 Y86.348 E0.03709
G1 X104.048 Y86.604 E0.00829
G1 X104.483 Y86.682 E0.01249
G1 X105.345 Y87.674 E0.03709
G1 X105.200 Y87.930 E0.00829
G1 X105.636 Y88.008 E0.01249
G1 X106.498 Y89.000 E0.03709
G1 X106.353 Y89.256 E0.00829
G1 X106.788 Y89.334 E0.01249
G1 X107.651 Y90.326 E0.03709
G1 X107.506 Y90.582 E0.00829
G1 X107.941 Y90.660 E0.01249
G1 X108.803 Y91.652 E0.03709
G1 X108.658 Y91.908 E0.00829
G1 X109.094 Y91.986 E0.01249
G1 X109.956 Y92.978 E0.03709
G1 X109.811 Y93.234 E0.00829
G1 X110.247 Y93.312 E0.01249
G1 X111.109 Y94.304 E0.03709
G1 X110.964 Y94.560 E0.00829
G1 X111.399 Y94.639 E0.01249
G1 X112.262 Y95.631 E0.03709
G1 X112.116 Y95.886 E0.00829
G1 X112.552 Y95.965 E0.01249
G1 X113.414 Y96.957 E0.03709
G1 X113.269 Y97.212 E0.00829
G1 X113.705 Y97.291 E0.01249
G1 X114.567 Y98.283 E0.03709
G1 X114.422 Y98.538 E0.00829
G1 X114.857 Y98.617 E0.01249
G1 X115.720 Y99.609 E0.03709
G1 X115.575 Y99.864 E0.00829
G1 X116.010 Y99.943 E0.01249
G1 X116.872 Y100.935 E0.03709
G1 X116.727 Y101.190 E0.00829
G1 X117.163 Y101.269 E0.01249
G1 X118.025 Y102.261 E0.03709
G1 X117.880 Y102.516 E0.00829
G1 X118.316 Y102.595 E0.01249
G1 X119.178 Y103.587 E0.03709
G1 X119.033 Y103.842 E0.00829
G1 X119.468 Y103.921 E0.01249
G1 X120.331 Y104.913 E0.03709
G1 X120.185 Y105.168 E0.00829
G1 X120.621 Y105.247 E0.01249
G1 X121.483 Y106.239 E0.03709
G1 X121.338 Y106.494 E0.00829
G1 X121.774 Y106.573 E0.01249
G1 X122.636 Y107.565 E0.03709
G1 X122.491 Y107.820 E0.00829
G1 X122.926 Y107.899 E0.01249
G1 X123.789 Y108.891 E0.03709
G1 X123.644 Y109.146 E0.00829
G1 X124.079 Y109.225 E0.01249
G1 X124.941 Y110.217 E0.03709
G1 X124.796 Y110.472 E0.00829
G1 X125.232 Y110.551 E0.01249
G1 X126.094 Y111.543 E0.03709
G1 X125.949 Y111.798 E0.00829
G1 X126.384 Y111.877 E0.01249
G1 X127.247 Y112.869 E0.03709
G1 X127.102 Y113.124 E0.00829
G1 X127.537 Y113.203 E0.01249
G1 X128.400 Y114.195 E0.03709
G1 X128.254 Y114.450 E0.00829
G1 X128.690 Y114.529 E0.01249
G1 X129.552 Y115.521 E0.03709
G1 X129.407 Y115.776 E0.00829
G1 X129.843 Y115.855 E0.01249
G1 X130.705 Y116.847 E0.03709
G1 X130.560 Y117.102 E0.00829
G1 X130.995 Y117.181 E0.01249
G1 X131.858 Y118.173 E0.03709
G1 X131.713 Y118.429 E0.00829
G1 X132.148 Y118.507 E0.01249
G1 X133.567 Y120.139 E0.06103
G1 X94.945 Y153.713 E1.44408
G1 X94.100 Y152.740 E0.03638
G1 X94.245 Y152.484 E0.00829
G1 X93.809 Y152.406 E0.01249
G1 X92.947 Y151.414 E0.03709
G1 X93.092 Y151.158 E0.00829
G1 X92.656 Y151.080 E0.01249
G1 X91.794 Y150.088 E0.03709
G1 X91.939 Y149.832 E0.00829
G1 X91.504 Y149.754 E0.01249
G1 X90.641 Y148.762 E0.03709
G1 X90.787 Y148.506 E0.00829
G1 X90.351 Y148.428 E0.01249
G1 X89.489 Y147.436 E0.03709
G1 X89.634 Y147.180 E0.00829
G1 X89.198 Y147.102 E0.01249
G1 X88.336 Y146.110 E0.03709
G1 X88.481 Y145.854 E0.00829
G1 X88.046 Y145.776 E0.01249
G1 X87.183 Y144.783 E0.03709
G1 X87.328 Y144.528 E0.00829
G1 X86.893 Y144.450 E0.01249
G1 X86.031 Y143.457 E0.03709
G1 X86.176 Y143.202 E0.00829
G1 X85.740 Y143.123 E0.01249
G1 X84.878 Y142.131 E0.03709
G1 X85.023 Y141.876 E0.00829
G1 X84.587 Y141.797 E0.01249
G1 X83.725 Y140.805 E0.03709
G1 X83.870 Y140.550 E0.00829
G1 X83.435 Y140.471 E0.01249
G1 X82.572 Y139.479 E0.03709
G1 X82.718 Y139.224 E0.00829
G1 X82.282 Y139.145 E0.01249
G1 X81.420 Y138.153 E0.03709
G1 X81.565 Y137.898 E0.00829
G1 X81.129 Y137.819 E0.01249
G1 X80.267 Y136.827 E0.03709
G1 X80.412 Y136.572 E0.00829
G1 X79.977 Y136.493 E0.01249
G1 X79.114 Y135.501 E0.03709
G1 X79.259 Y135.246 E0.00829
G1 X78.824 Y135.167 E0.01249
G1 X77.962 Y134.175 E0.03709
G1 X78.107 Y133.920 E0.00829
G1 X77.671 Y133.841 E0.01249
G1 X76.809 Y132.849 E0.03709
G1 X76.954 Y132.594 E0.00829
G1 X76.519 Y132.515 E0.01249
G1 X75.656 Y131.523 E0.03709
G1 X75.801 Y131.268 E0.00829
G1 X75.366 Y131.189 E0.01249
G1 X74.503 Y130.197 E0.03709
G1 X74.649 Y129.942 E0.00829
G1 X74.213 Y129.863 E0.01249
G1 X73.351 Y128.871 E0.03709
G1 X73.496 Y128.616 E0.00829
G1 X73.060 Y128.537 E0.01249
G1 X72.198 Y127.545 E0.03709
G1 X72.343 Y127.290 E0.00829
G1 X71.908 Y127.211 E0.01249
G1 X71.045 Y126.219 E0.03709
G1 X71.190 Y125.964 E0.00829
G1 X70.755 Y125.885 E0.01249
G1 X69.893 Y124.893 E0.03709
G1 X70.038 Y124.638 E0.00829
G1 X69.602 Y124.559 E0.01249
G1 X68.740 Y123.567 E0.03709
G1 X68.885 Y123.311 E0.00829
G1 X68.450 Y123.233 E0.01249
G1 X67.587 Y122.241 E0.03709
G1 X67.732 Y121.985 E0.00829
G1 X67.297 Y121.907 E0.01249
G1 X66.434 Y120.915 E0.03709
G1 X66.580 Y120.659 E0.00829
G1 X66.144 Y120.581 E0.01249
G1 X65.282 Y119.589 E0.03709
G1 X65.427 Y119.333 E0.00829
G1 X64.991 Y119.255 E0.01249
G1 X64.129 Y118.263 E0.03709
G1 X64.274 Y118.007 E0.00829
G1 X63.839 Y117.929 E0.01249
G1 X62.976 Y116.937 E0.03709
G1 X63.121 Y116.681 E0.00829
G1 X62.686 Y116.603 E0.01249
G1 X61.824 Y115.611 E0.03709
G1 X61.969 Y115.355 E0.00829
G1 X61.223 Y115.221 E0.02139
G1 X99.948 Y81.557 E1.44796
G1 F8640
G1 X100.735 Y82.370 E-0.26115
G1 X100.589 Y82.625 E-0.06782
G1 X101.025 Y82.704 E-0.10219
G1 X101.887 Y83.696 E-0.30350
G1 X101.833 Y83.792 E-0.02534
G1 E-0.04000 F2100.00000
G1 Z0.800 F10800.000
G1 X94.741 Y152.374
G1 Z0.200
G1 E0.80000 F2100.00000
G1 F1200
G1 X95.709 Y152.549 E0.02776
G1 X94.982 Y153.181 E0.02718
G1 X94.559 Y152.694 E0.01820
G1 X94.712 Y152.426 E0.00870
G1 X94.750 Y151.974 F10800.000
G1 F8640
G1 X95.709 Y152.549 E-0.23212
G1 X94.982 Y153.181 E-0.22241
G1 X94.559 Y152.694 E-0.14892
G1 X94.712 Y152.426 E-0.07116
G1 E-0.12540 F2100.00000
G1 Z0.800 F10800.000
G1 X93.407 Y151.368
G1 Z0.200
G1 E0.80000 F2100.00000
G1 F1200
G1 X93.589 Y151.048 E0.01039
G1 X96.774 Y151.623 E0.09135
G1 X95.884 Y152.397 E0.03329
G1 X94.007 Y152.058 E0.05382
G1 X93.446 Y151.413 E0.02412
G1 X93.079 Y151.199 F10800.000
G1 F8640
G1 X93.589 Y151.048 E-0.09056
G1 X96.442 Y151.563 E-0.66944
G1 E-0.04000 F2100.00000
G1 Z0.800 F10800.000
G1 X92.254 Y150.042
G1 Z0.200
G1 E0.80000 F2100.00000
G1 F1200
G1 X92.436 Y149.722 E0.01039
G1 X97.839 Y150.698 E0.15493
G1 X96.948 Y151.472 E0.03329
G1 X92.854 Y150.732 E0.11740
G1 X92.293 Y150.087 E0.02412
G1 X91.921 Y149.884 F10800.000
G1 F8640
G1 X92.436 Y149.722 E-0.09056
G1 X95.289 Y150.237 E-0.66944
G1 E-0.04000 F2100.00000
G1 Z0.800 F10800.000
G1 X91.101 Y148.716
G1 Z0.200
G1 E0.80000 F2100.00000
G1 F1200
G1 X91.283 Y148.396 E0.01039
G1 X98.903 Y149.772 E0.21851
G1 X98.013 Y150.546 E0.03329
G1 X91.701 Y149.406 E0.18099
G1 X91.141 Y148.761 E0.02412
G1 X90.767 Y148.562 F10800.000
G1 F8640
G1 X91.283 Y148.396 E-0.09056
G1 X94.136 Y148.911 E-0.66944
G1 E-0.04000 F2100.00000
G1 Z0.800 F10800.000
G1 X89.948 Y147.390
G1 Z0.200
G1 E0.80000 F2100.00000
G1 F1200
G1 X90.130 Y147.070 E0.01039
G1 X99.968 Y148.847 E0.28210
G1 X99.078 Y149.621 E0.03329
G1 X90.549 Y148.080 E0.24457
G1 X89.988 Y147.435 E0.02412
G1 X89.613 Y147.238 F10800.000
G1 F8640
G1 X90.130 Y147.070 E-0.09056
G1 X92.983 Y147.585 E-0.66944
G1 E-0.04000 F2100.00000
G1 Z0.800 F10800.000
G1 X88.796 Y146.064
G1 Z0.200
G1 E0.80000 F2100.00000
G1 F1200
G1 X88.978 Y145.744 E0.01039
G1 X101.033 Y147.921 E0.34568
G1 X100.142 Y148.695 E0.03329
G1 X89.396 Y146.754 E0.30816
G1 X88.835 Y146.109 E0.02412
G1 X88.460 Y145.913 F10800.000
G1 F8640
G1 X88.978 Y145.744 E-0.09056
G1 X91.831 Y146.259 E-0.66944
G1 E-0.04000 F2100.00000
G1 Z0.800 F10800.000
G1 X87.643 Y144.738
G1 Z0.200
G1 E0.80000 F2100.00000
G1 F1200
G1 X87.825 Y144.418 E0.01039
G1 X102.097 Y146.996 E0.40927
G1 X101.207 Y147.770 E0.03329
G1 X88.243 Y145.428 E0.37174
G1 X87.682 Y144.783 E0.02412
G1 X87.307 Y144.588 F10800.000
G1 F8640
G1 X87.825 Y144.418 E-0.09056
G1 X90.678 Y144.933 E-0.66944
G1 E-0.04000 F2100.00000
G1 Z0.800 F10800.000
G1 X86.490 Y143.412
G1 Z0.200
G1 E0.80000 F2100.00000
G1 F1200
G1 X86.672 Y143.092 E0.01039
G1 X103.162 Y146.070 E0.47285
G1 X102.271 Y146.844 E0.03329
G1 X87.090 Y144.102 E0.43532
G1 X86.530 Y143.457 E0.02412
G1 X86.154 Y143.263 F10800.000
G1 F8640
G1 X86.672 Y143.092 E-0.09056
G1 X89.525 Y143.607 E-0.66944
G1 E-0.04000 F2100.00000
G1 Z0.800 F10800.000
G1 X85.338 Y142.086
G1 Z0.200
G1 E0.80000 F2100.00000
G1 F1200
G1 X85.520 Y141.766 E0.01039
G1 X104.226 Y145.145 E0.53643
G1 X103.336 Y145.919 E0.03329
G1 X85.938 Y142.776 E0.49891
G1 X85.377 Y142.131 E0.02412
G1 X85.001 Y141.937 F10800.000
G1 F8640
G1 X85.520 Y141.766 E-0.09056
G1 X88.373 Y142.281 E-0.66944
G1 E-0.04000 F2100.00000
G1 Z0.800 F10800.000
G1 X84.185 Y140.760
G1 Z0.200
G1 E0.80000 F2100.00000
G1 F1200
G1 X84.367 Y140.440 E0.01039
G1 X105.291 Y144.219 E0.60002
