; generated by Slic3r Prusa Edition 1.41.3+linux64 on 2021-03-02 at 12:52:25

; 

; external perimeters extrusion width = 0.45mm
; perimeters extrusion width = 0.45mm
; infill extrusion width = 0.45mm
; solid infill extrusion width = 0.45mm
; top infill extrusion width = 0.40mm
; first layer extrusion width = 0.42mm

M73 P0 R97
M73 Q0 S97
M201 X1000 Y1000 Z1000 E5000 ; sets maximum accelerations, mm/sec^2
M203 X200 Y200 Z12 E120 ; sets maximum feedrates, mm/sec
M204 P1250 R1250 T1250 ; sets acceleration (P, T) and retract acceleration (R), mm/sec^2
M205 X8.00 Y8.00 Z0.40 E1.50 ; sets the jerk limits, mm/sec
M205 S0 T0 ; sets the minimum extruding and travel feed rate, mm/sec
M107
M115 U3.5.1 ; tell printer latest fw version
M83  ; extruder relative mode
M104 S220 ; set extruder temp
M140 S100 ; set bed temp
M190 S100 ; wait for bed temp
M109 S220 ; wait for extruder temp
G28 W ; home all without mesh bed level
G80 ; mesh bed leveling
G1 Y-3.0 F1000.0 ; go outside print area
G92 E0.0
G1 X60.0 E9.0  F1000.0 ; intro line
M73 Q0 S97
M73 P0 R97
G1 X100.0 E12.5  F1000.0 ; intro line
G92 E0.0
M221 S95
M900 K10; Filament gcode
G21 ; set units to millimeters
G90 ; use absolute coordinates
M83 ; use relative distances for extrusion
;BEFORE_LAYER_CHANGE
G92 E0.0
;0.2


G1 E-0.80000 F2100.00000
G1 Z0.600 F10800.000
;AFTER_LAYER_CHANGE
;0.2
G1 X37.560 Y102.142
G1 Z0.200
G1 E0.80000 F2100.00000
M204 S1000
G1 F1200
G1 X38.402 Y101.965 E0.02428
G1 X108.426 Y101.965 E1.97600
G1 X109.249 Y102.127 E0.02368
G1 X109.953 Y102.590 E0.02378
G1 X110.431 Y103.284 E0.02378
G1 X110.610 Y104.108 E0.02378
G1 X110.611 Y174.172 E1.97714
G1 X110.447 Y174.984 E0.02337
G1 X109.994 Y175.677 E0.02337
G1 X109.278 Y176.168 E0.02449
G1 X108.424 Y176.342 E0.02459
G1 X38.404 Y176.342 E1.97590
G1 X37.592 Y176.179 E0.02337
G1 X36.899 Y175.725 E0.02337
G1 X36.408 Y175.010 E0.02449
G1 X36.234 Y174.156 E0.02459
G1 X36.234 Y104.135 E1.97590
G1 X36.397 Y103.323 E0.02337
G1 X36.851 Y102.630 E0.02337
G1 X37.510 Y102.176 E0.02259
; PURGING FINISHED
G1 F8640
G1 X38.402 Y101.965 E-0.21155
G1 X40.777 Y101.965 E-0.54845
G1 E-0.04000 F2100.00000
G1 Z0.800 F10800.000
G1 X46.851 Y113.189
G1 Z0.200
G1 E0.80000 F2100.00000
G1 F1200
G1 X99.386 Y113.189 E1.48248
G1 X99.386 Y114.963 E0.05005
G1 X99.360 Y114.972 E0.00080
G1 X99.386 Y115.006 E0.00121
G1 X99.386 Y116.720 E0.04837
G1 X99.360 Y116.729 E0.00080
G1 X99.386 Y116.763 E0.00121
G1 X99.386 Y118.477 E0.04837
G1 X99.360 Y118.486 E0.00080
G1 X99.386 Y118.520 E0.00121
G1 X99.386 Y120.234 E0.04837
G1 X99.360 Y120.244 E0.00080
G1 X99.386 Y120.277 E0.00121
G1 X99.386 Y121.991 E0.04837
G1 X99.360 Y122.001 E0.00080
G1 X99.386 Y122.034 E0.00121
G1 X99.386 Y123.748 E0.04837
G1 X99.360 Y123.758 E0.00080
G1 X99.386 Y123.791 E0.00121
G1 X99.386 Y125.505 E0.04837
G1 X99.360 Y125.515 E0.00080
G1 X99.386 Y125.548 E0.00121
G1 X99.386 Y127.262 E0.04837
G1 X99.360 Y127.272 E0.00080
G1 X99.386 Y127.305 E0.00121
G1 X99.386 Y129.019 E0.04837
G1 X99.360 Y129.029 E0.00080
G1 X99.386 Y129.062 E0.00121
G1 X99.386 Y130.776 E0.04837
G1 X99.360 Y130.786 E0.00080
G1 X99.386 Y130.819 E0.00121
G1 X99.386 Y132.533 E0.04837
G1 X99.360 Y132.543 E0.00080
G1 X99.386 Y132.576 E0.00121
G1 X99.386 Y134.290 E0.04837
G1 X99.360 Y134.300 E0.00080
G1 X99.386 Y134.333 E0.00121
G1 X99.386 Y136.047 E0.04837
G1 X99.360 Y136.057 E0.00080
G1 X99.386 Y136.090 E0.00121
G1 X99.386 Y137.804 E0.04837
G1 X99.360 Y137.814 E0.00080
G1 X99.386 Y137.847 E0.00121
G1 X99.386 Y139.561 E0.04837
G1 X99.360 Y139.571 E0.00080
G1 X99.386 Y139.604 E0.00121
G1 X99.386 Y141.318 E0.04837
G1 X99.360 Y141.328 E0.00080
G1 X99.386 Y141.361 E0.00121
G1 X99.386 Y143.075 E0.04837
G1 X99.360 Y143.085 E0.00080
G1 X99.386 Y143.118 E0.00121
G1 X99.386 Y144.832 E0.04837
G1 X99.360 Y144.842 E0.00080
G1 X99.386 Y144.875 E0.00121
G1 X99.386 Y146.589 E0.04837
G1 X99.360 Y146.599 E0.00080
G1 X99.386 Y146.632 E0.00121
G1 X99.386 Y148.346 E0.04837
G1 X99.360 Y148.356 E0.00080
G1 X99.386 Y148.389 E0.00121
G1 X99.386 Y150.103 E0.04837
G1 X99.360 Y150.113 E0.00080
G1 X99.386 Y150.146 E0.00121
G1 X99.386 Y151.860 E0.04837
G1 X99.360 Y151.870 E0.00080
G1 X99.386 Y151.903 E0.00121
G1 X99.386 Y153.618 E0.04837
G1 X99.360 Y153.627 E0.00080
G1 X99.386 Y153.660 E0.00121
G1 X99.386 Y155.375 E0.04837
G1 X99.360 Y155.384 E0.00080
G1 X99.386 Y155.417 E0.00121
G1 X99.386 Y157.132 E0.04837
G1 X99.360 Y157.141 E0.00080
G1 X99.386 Y157.174 E0.00121
G1 X99.386 Y158.889 E0.04837
G1 X99.360 Y158.898 E0.00080
G1 X99.386 Y158.931 E0.00121
G1 X99.386 Y160.646 E0.04837
G1 X99.360 Y160.655 E0.00080
G1 X99.386 Y160.688 E0.00121
G1 X99.386 Y162.403 E0.04837
G1 X99.360 Y162.412 E0.00080
G1 X99.386 Y162.445 E0.00121
G1 X99.386 Y165.118 E0.07541
G1 X47.458 Y165.118 E1.46536
G1 X47.458 Y163.185 E0.05455
G1 X47.485 Y163.175 E0.00080
G1 X47.458 Y163.142 E0.00121
G1 X47.458 Y161.428 E0.04837
G1 X47.485 Y161.418 E0.00080
G1 X47.458 Y161.385 E0.00121
G1 X47.458 Y159.670 E0.04837
G1 X47.485 Y159.661 E0.00080
G1 X47.458 Y159.628 E0.00121
G1 X47.458 Y157.913 E0.04837
G1 X47.485 Y157.904 E0.00080
G1 X47.458 Y157.871 E0.00121
G1 X47.458 Y156.156 E0.04837
G1 X47.485 Y156.147 E0.00080
G1 X47.458 Y156.114 E0.00121
G1 X47.458 Y154.399 E0.04837
G1 X47.485 Y154.390 E0.00080
G1 X47.458 Y154.357 E0.00121
G1 X47.458 Y152.642 E0.04837
G1 X47.485 Y152.633 E0.00080
G1 X47.458 Y152.600 E0.00121
G1 X47.458 Y150.885 E0.04837
G1 X47.485 Y150.876 E0.00080
G1 X47.458 Y150.843 E0.00121
G1 X47.458 Y149.128 E0.04837
G1 X47.485 Y149.119 E0.00080
G1 X47.458 Y149.086 E0.00121
G1 X47.458 Y147.371 E0.04837
G1 X47.485 Y147.362 E0.00080
G1 X47.458 Y147.329 E0.00121
G1 X47.458 Y145.614 E0.04837
G1 X47.485 Y145.605 E0.00080
G1 X47.458 Y145.572 E0.00121
G1 X47.458 Y143.857 E0.04837
G1 X47.485 Y143.848 E0.00080
G1 X47.458 Y143.815 E0.00121
G1 X47.458 Y142.100 E0.04837
G1 X47.485 Y142.091 E0.00080
G1 X47.458 Y142.057 E0.00121
G1 X47.458 Y140.343 E0.04837
G1 X47.485 Y140.334 E0.00080
G1 X47.458 Y140.300 E0.00121
G1 X47.458 Y138.586 E0.04837
G1 X47.485 Y138.577 E0.00080
G1 X47.458 Y138.543 E0.00121
G1 X47.458 Y136.829 E0.04837
G1 X47.485 Y136.820 E0.00080
G1 X47.458 Y136.786 E0.00121
G1 X47.458 Y135.072 E0.04837
G1 X47.485 Y135.063 E0.00080
G1 X47.458 Y135.029 E0.00121
G1 X47.458 Y133.315 E0.04837
G1 X47.485 Y133.306 E0.00080
G1 X47.458 Y133.272 E0.00121
G1 X47.458 Y131.558 E0.04837
G1 X47.485 Y131.549 E0.00080
G1 X47.458 Y131.515 E0.00121
G1 X47.458 Y129.801 E0.04837
G1 X47.485 Y129.792 E0.00080
G1 X47.458 Y129.758 E0.00121
G1 X47.458 Y128.044 E0.04837
G1 X47.485 Y128.035 E0.00080
G1 X47.458 Y128.001 E0.00121
G1 X47.458 Y126.287 E0.04837
G1 X47.485 Y126.278 E0.00080
G1 X47.458 Y126.244 E0.00121
G1 X47.458 Y124.530 E0.04837
G1 X47.485 Y124.521 E0.00080
G1 X47.458 Y124.487 E0.00121
G1 X47.458 Y122.773 E0.04837
G1 X47.485 Y122.764 E0.00080
G1 X47.458 Y122.730 E0.00121
G1 X47.458 Y121.016 E0.04837
G1 X47.485 Y121.007 E0.00080
G1 X47.458 Y120.973 E0.00121
G1 X47.458 Y119.259 E0.04837
G1 X47.485 Y119.250 E0.00080
G1 X47.458 Y119.216 E0.00121
G1 X47.458 Y117.502 E0.04837
G1 X47.485 Y117.493 E0.00080
G1 X47.458 Y117.459 E0.00121
G1 X47.458 Y115.745 E0.04837
G1 X47.485 Y115.736 E0.00080
G1 X47.458 Y115.702 E0.00121
G1 X47.458 Y113.988 E0.04837
G1 X47.485 Y113.979 E0.00080
G1 X46.889 Y113.236 E0.02686
G1 X47.638 Y113.567 F10800.000
G1 F1200
G1 X99.009 Y113.567 E1.44965
G1 X99.009 Y114.696 E0.03187
G1 X98.732 Y114.793 E0.00829
G1 X99.009 Y115.139 E0.01249
G1 X99.009 Y116.453 E0.03709
G1 X98.732 Y116.550 E0.00829
G1 X99.009 Y116.896 E0.01249
G1 X99.009 Y118.210 E0.03709
G1 X98.732 Y118.307 E0.00829
G1 X99.009 Y118.653 E0.01249
G1 X99.009 Y119.967 E0.03709
G1 X98.732 Y120.065 E0.00829
G1 X99.009 Y120.410 E0.01249
G1 X99.009 Y121.724 E0.03709
G1 X98.732 Y121.822 E0.00829
G1 X99.009 Y122.167 E0.01249
G1 X99.009 Y123.481 E0.03709
G1 X98.732 Y123.579 E0.00829
G1 X99.009 Y123.924 E0.01249
G1 X99.009 Y125.238 E0.03709
G1 X98.732 Y125.336 E0.00829
G1 X99.009 Y125.681 E0.01249
G1 X99.009 Y126.995 E0.03709
G1 X98.732 Y127.093 E0.00829
G1 X99.009 Y127.438 E0.01249
G1 X99.009 Y128.752 E0.03709
G1 X98.732 Y128.850 E0.00829
G1 X99.009 Y129.195 E0.01249
G1 X99.009 Y130.509 E0.03709
G1 X98.732 Y130.607 E0.00829
G1 X99.009 Y130.952 E0.01249
G1 X99.009 Y132.266 E0.03709
G1 X98.732 Y132.364 E0.00829
G1 X99.009 Y132.709 E0.01249
G1 X99.009 Y134.023 E0.03709
G1 X98.732 Y134.121 E0.00829
G1 X99.009 Y134.466 E0.01249
G1 X99.009 Y135.780 E0.03709
G1 X98.732 Y135.878 E0.00829
G1 X99.009 Y136.223 E0.01249
G1 X99.009 Y137.537 E0.03709
G1 X98.732 Y137.635 E0.00829
G1 X99.009 Y137.980 E0.01249
G1 X99.009 Y139.294 E0.03709
G1 X98.732 Y139.392 E0.00829
G1 X99.009 Y139.737 E0.01249
G1 X99.009 Y141.051 E0.03709
G1 X98.732 Y141.149 E0.00829
G1 X99.009 Y141.494 E0.01249
G1 X99.009 Y142.808 E0.03709
G1 X98.732 Y142.906 E0.00829
G1 X99.009 Y143.251 E0.01249
G1 X99.009 Y144.565 E0.03709
G1 X98.732 Y144.663 E0.00829
G1 X99.009 Y145.008 E0.01249
G1 X99.009 Y146.322 E0.03709
G1 X98.732 Y146.420 E0.00829
G1 X99.009 Y146.765 E0.01249
G1 X99.009 Y148.079 E0.03709
G1 X98.732 Y148.177 E0.00829
G1 X99.009 Y148.522 E0.01249
G1 X99.009 Y149.836 E0.03709
G1 X98.732 Y149.934 E0.00829
G1 X99.009 Y150.279 E0.01249
G1 X99.009 Y151.593 E0.03709
G1 X98.732 Y151.691 E0.00829
G1 X99.009 Y152.036 E0.01249
G1 X99.009 Y153.350 E0.03709
G1 X98.732 Y153.448 E0.00829
G1 X99.009 Y153.793 E0.01249
G1 X99.009 Y155.107 E0.03709
G1 X98.732 Y155.205 E0.00829
G1 X99.009 Y155.550 E0.01249
G1 X99.009 Y156.864 E0.03709
G1 X98.732 Y156.962 E0.00829
G1 X99.009 Y157.307 E0.01249
G1 X99.009 Y158.621 E0.03709
G1 X98.732 Y158.719 E0.00829
G1 X99.009 Y159.064 E0.01249
G1 X99.009 Y160.379 E0.03709
G1 X98.732 Y160.476 E0.00829
G1 X99.009 Y160.821 E0.01249
G1 X99.009 Y162.136 E0.03709
G1 X98.732 Y162.233 E0.00829
G1 X99.009 Y162.578 E0.01249
G1 X99.009 Y164.741 E0.06103
G1 X47.835 Y164.741 E1.44408
G1 X47.835 Y163.452 E0.03638
G1 X48.112 Y163.354 E0.00829
G1 X47.835 Y163.009 E0.01249
G1 X47.835 Y161.695 E0.03709
G1 X48.112 Y161.597 E0.00829
G1 X47.835 Y161.252 E0.01249
G1 X47.835 Y159.938 E0.03709
G1 X48.112 Y159.840 E0.00829
G1 X47.835 Y159.495 E0.01249
G1 X47.835 Y158.181 E0.03709
G1 X48.112 Y158.083 E0.00829
G1 X47.835 Y157.738 E0.01249
G1 X47.835 Y156.424 E0.03709
G1 X48.112 Y156.326 E0.00829
G1 X47.835 Y155.981 E0.01249
G1 X47.835 Y154.667 E0.03709
G1 X48.112 Y154.569 E0.00829
G1 X47.835 Y154.224 E0.01249
G1 X47.835 Y152.909 E0.03709
G1 X48.112 Y152.812 E0.00829
G1 X47.835 Y152.467 E0.01249
G1 X47.835 Y151.152 E0.03709
G1 X48.112 Y151.055 E0.00829
G1 X47.835 Y150.710 E0.01249
G1 X47.835 Y149.395 E0.03709
G1 X48.112 Y149.298 E0.00829
G1 X47.835 Y148.953 E0.01249
G1 X47.835 Y147.638 E0.03709
G1 X48.112 Y147.541 E0.00829
G1 X47.835 Y147.196 E0.01249
G1 X47.835 Y145.881 E0.03709
G1 X48.112 Y145.784 E0.00829
G1 X47.835 Y145.439 E0.01249
G1 X47.835 Y144.124 E0.03709
G1 X48.112 Y144.027 E0.00829
G1 X47.835 Y143.682 E0.01249
G1 X47.835 Y142.367 E0.03709
G1 X48.112 Y142.270 E0.00829
G1 X47.835 Y141.925 E0.01249
G1 X47.835 Y140.610 E0.03709
G1 X48.112 Y140.513 E0.00829
G1 X47.835 Y140.168 E0.01249
G1 X47.835 Y138.853 E0.03709
G1 X48.112 Y138.756 E0.00829
G1 X47.835 Y138.411 E0.01249
G1 X47.835 Y137.096 E0.03709
G1 X48.112 Y136.999 E0.00829
G1 X47.835 Y136.654 E0.01249
G1 X47.835 Y135.339 E0.03709
G1 X48.112 Y135.242 E0.00829
G1 X47.835 Y134.897 E0.01249
G1 X47.835 Y133.582 E0.03709
G1 X48.112 Y133.485 E0.00829
G1 X47.835 Y133.140 E0.01249
G1 X47.835 Y131.825 E0.03709
G1 X48.112 Y131.728 E0.00829
G1 X47.835 Y131.383 E0.01249
G1 X47.835 Y130.068 E0.03709
G1 X48.112 Y129.971 E0.00829
G1 X47.835 Y129.626 E0.01249
G1 X47.835 Y128.311 E0.03709
G1 X48.112 Y128.214 E0.00829
G1 X47.835 Y127.869 E0.01249
G1 X47.835 Y126.554 E0.03709
G1 X48.112 Y126.457 E0.00829
G1 X47.835 Y126.112 E0.01249
G1 X47.835 Y124.797 E0.03709
G1 X48.112 Y124.700 E0.00829
G1 X47.835 Y124.355 E0.01249
G1 X47.835 Y123.040 E0.03709
G1 X48.112 Y122.943 E0.00829
G1 X47.835 Y122.598 E0.01249
G1 X47.835 Y121.283 E0.03709
G1 X48.112 Y121.186 E0.00829
G1 X47.835 Y120.841 E0.01249
G1 X47.835 Y119.526 E0.03709
G1 X48.112 Y119.429 E0.00829
G1 X47.835 Y119.084 E0.01249
G1 X47.835 Y117.769 E0.03709
G1 X48.112 Y117.672 E0.00829
G1 X47.835 Y117.326 E0.01249
G1 X47.835 Y116.012 E0.03709
G1 X48.112 Y115.915 E0.00829
G1 X47.835 Y115.569 E0.01249
G1 X47.835 Y114.255 E0.03709
G1 X48.112 Y114.158 E0.00829
G1 X47.675 Y113.613 E0.01969
G1 F8640
G1 X50.967 Y113.610 E-0.76000
G1 E-0.04000 F2100.00000
G1 Z0.800 F10800.000
G1 X52.656 Y113.944
G1 Z0.200
G1 E0.80000 F2100.00000
G1 F1200
G1 X53.836 Y113.944 E0.03329
G1 X94.317 Y164.364 E1.82462
G1 X93.137 Y164.364 E0.03329
G1 X52.694 Y113.990 E1.82293
G1 X52.565 Y113.554 F10800.000
G1 F8640
G1 X53.836 Y113.944 E-0.26397
G1 X55.181 Y115.619 E-0.49603
G1 E-0.04000 F2100.00000
G1 Z0.800 F10800.000
G1 X51.245 Y113.944
G1 Z0.200
G1 E0.80000 F2100.00000
G1 F1200
G1 X52.425 Y113.944 E0.03329
G1 X92.906 Y164.364 E1.82462
G1 X91.726 Y164.364 E0.03329
G1 X51.283 Y113.990 E1.82293
G1 X51.154 Y113.554 F10800.000
G1 F8640
G1 X52.425 Y113.944 E-0.26397
G1 X53.770 Y115.619 E-0.49603
G1 E-0.04000 F2100.00000
G1 Z0.800 F10800.000
G1 X49.835 Y113.944
G1 Z0.200
G1 E0.80000 F2100.00000
G1 F1200
G1 X51.015 Y113.944 E0.03329
G1 X91.495 Y164.364 E1.82462
G1 X90.316 Y164.364 E0.03329
G1 X49.872 Y113.990 E1.82293
M73 Q1 S96
M73 P1 R96
G1 X49.744 Y113.554 F10800.000
G1 F8640
G1 X51.015 Y113.944 E-0.26397
G1 X52.359 Y115.619 E-0.49603
G1 E-0.04000 F2100.00000
G1 Z0.800 F10800.000
G1 X48.424 Y113.944
G1 Z0.200
G1 E0.80000 F2100.00000
G1 F1200
G1 X49.604 Y113.944 E0.03329
G1 X90.085 Y164.364 E1.82462
G1 X88.905 Y164.364 E0.03329
G1 X48.462 Y113.990 E1.82293
G1 X48.333 Y113.554 F10800.000
G1 X48.560 Y114.400
G1 F1200
G1 X88.674 Y164.364 E1.80811
G1 X87.494 Y164.364 E0.03329
G1 X48.212 Y115.437 E1.77059
G1 X48.212 Y114.522 E0.02581
G1 X48.503 Y114.420 E0.00870
G1 X48.818 Y114.095 F10800.000
G1 F8640
G1 X50.566 Y116.985 E-0.76000
G1 E-0.04000 F2100.00000
G1 Z0.800 F10800.000
G1 X48.560 Y116.157
G1 Z0.200
G1 E0.80000 F2100.00000
G1 F1200
G1 X87.263 Y164.364 E1.74453
G1 X86.084 Y164.364 E0.03329
G1 X48.212 Y117.194 E1.70700
G1 X48.212 Y116.279 E0.02581
G1 X48.503 Y116.177 E0.00870
G1 X48.818 Y115.852 F10800.000
G1 F8640
G1 X50.566 Y118.742 E-0.76000
G1 E-0.04000 F2100.00000
G1 Z0.800 F10800.000
G1 X48.560 Y117.914
G1 Z0.200
G1 E0.80000 F2100.00000
G1 F1200
G1 X85.853 Y164.364 E1.68094
G1 X84.673 Y164.364 E0.03329
G1 X48.212 Y118.951 E1.64342
G1 X48.212 Y118.036 E0.02581
G1 X48.503 Y117.934 E0.00870
G1 X48.818 Y117.609 F10800.000
G1 F8640
G1 X50.566 Y120.498 E-0.76000
G1 E-0.04000 F2100.00000
G1 Z0.800 F10800.000
G1 X48.560 Y119.671
G1 Z0.200
G1 E0.80000 F2100.00000
G1 F1200
G1 X84.442 Y164.364 E1.61736
G1 X83.262 Y164.364 E0.03329
G1 X48.212 Y120.708 E1.57983
G1 X48.212 Y119.793 E0.02581
G1 X48.503 Y119.691 E0.00870
G1 X48.818 Y119.366 F10800.000
G1 F8640
G1 X50.566 Y122.255 E-0.76000
G1 E-0.04000 F2100.00000
G1 Z0.800 F10800.000
G1 X48.560 Y121.428
G1 Z0.200
G1 E0.80000 F2100.00000
G1 F1200
G1 X83.031 Y164.364 E1.55377
G1 X81.852 Y164.364 E0.03329
G1 X48.212 Y122.465 E1.51625
G1 X48.212 Y121.550 E0.02581
G1 X48.503 Y121.448 E0.00870
G1 X48.818 Y121.123 F10800.000
G1 F8640
G1 X50.566 Y124.012 E-0.76000
G1 E-0.04000 F2100.00000
G1 Z0.800 F10800.000
G1 X48.560 Y123.185
G1 Z0.200
G1 E0.80000 F2100.00000
G1 F1200
G1 X81.621 Y164.364 E1.49019
G1 X80.441 Y164.364 E0.03330
G1 X48.212 Y124.222 E1.45267
G1 X48.212 Y123.307 E0.02581
G1 X48.503 Y123.205 E0.00870
G1 X48.818 Y122.880 F10800.000
G1 F8640
G1 X50.566 Y125.769 E-0.76000
G1 E-0.04000 F2100.00000
G1 Z0.800 F10800.000
G1 X48.560 Y124.942
G1 Z0.200
G1 E0.80000 F2100.00000
G1 F1200
G1 X80.210 Y164.364 E1.42661
G1 X79.030 Y164.364 E0.03329
G1 X48.212 Y125.979 E1.38908
G1 X48.212 Y125.064 E0.02581
G1 X48.503 Y124.962 E0.00870
G1 X48.818 Y124.637 F10800.000
G1 F8640
G1 X50.566 Y127.526 E-0.76000
G1 E-0.04000 F2100.00000
G1 Z0.800 F10800.000
G1 X48.560 Y126.699
G1 Z0.200
G1 E0.80000 F2100.00000
G1 F1200
G1 X78.799 Y164.364 E1.36302
G1 X77.620 Y164.364 E0.03329
