; generated by Slic3r Prusa Edition 1.41.3+linux64 on 2021-02-26 at 16:01:22

; 

; external perimeters extrusion width = 0.45mm
; perimeters extrusion width = 0.45mm
; infill extrusion width = 0.45mm
; solid infill extrusion width = 0.45mm
; top infill extrusion width = 0.40mm
; first layer extrusion width = 0.42mm

M73 P0 R208
M73 Q0 S209
M201 X1000 Y1000 Z1000 E5000 ; sets maximum accelerations, mm/sec^2
M203 X200 Y200 Z12 E120 ; sets maximum feedrates, mm/sec
M204 P1250 R1250 T1250 ; sets acceleration (P, T) and retract acceleration (R), mm/sec^2
M205 X8.00 Y8.00 Z0.40 E1.50 ; sets the jerk limits, mm/sec
M205 S0 T0 ; sets the minimum extruding and travel feed rate, mm/sec
M107
M115 U3.5.1 ; tell printer latest fw version
M83  ; extruder relative mode
M104 S220 ; set extruder temp
M140 S100 ; set bed temp
M190 S100 ; wait for bed temp
M109 S220 ; wait for extruder temp
G28 W ; home all without mesh bed level
G80 ; mesh bed leveling
G1 Y-3.0 F1000.0 ; go outside print area
G92 E0.0
G1 X60.0 E9.0  F1000.0 ; intro line
M73 Q0 S209
M73 P0 R208
G1 X100.0 E12.5  F1000.0 ; intro line
G92 E0.0
M221 S95
M900 K10; Filament gcode
G21 ; set units to millimeters
G90 ; use absolute coordinates
M83 ; use relative distances for extrusion
;BEFORE_LAYER_CHANGE
G92 E0.0
;0.2


G1 E-0.80000 F2100.00000
G1 Z0.600 F10800.000
;AFTER_LAYER_CHANGE
;0.2
G1 X86.599 Y79.438
G1 Z0.200
G1 E0.80000 F2100.00000
M204 S1000
G1 F1200
G1 X87.394 Y78.980 E0.02590
G1 X119.353 Y69.454 E0.94107
G1 X121.781 Y68.942 E0.07002
G1 X124.114 Y68.929 E0.06583
G1 X126.766 Y69.451 E0.07628
G1 X158.718 Y78.974 E0.94084
G1 X159.149 Y79.162 E0.01328
G1 X159.528 Y79.435 E0.01318
G1 X159.840 Y79.783 E0.01318
G1 X160.073 Y80.192 E0.01328
G1 X169.951 Y113.385 E0.97728
G1 X170.253 Y116.064 E0.07608
G1 X169.952 Y118.740 E0.07599
G1 X160.068 Y151.943 E0.97759
G1 X159.742 Y152.469 E0.01747
G1 X159.278 Y152.885 E0.01758
G1 X158.715 Y153.153 E0.01758
G1 X158.100 Y153.251 E0.01758
G1 X88.061 Y153.251 E1.97642
G1 X87.184 Y153.066 E0.02529
G1 X86.779 Y152.834 E0.01318
G1 X86.430 Y152.518 E0.01328
G1 X86.157 Y152.135 E0.01328
G1 X85.972 Y151.703 E0.01328
G1 X76.177 Y118.737 E0.97044
G1 X75.877 Y116.098 E0.07495
G1 X76.178 Y113.386 E0.07701
G1 X86.061 Y80.182 E0.97759
G1 X86.563 Y79.487 E0.02421
; PURGING FINISHED
G1 F8640
G1 X87.394 Y78.980 E-0.22463
G1 X89.616 Y78.318 E-0.53537
G1 E-0.04000 F2100.00000
G1 Z0.800 F10800.000
G1 X97.478 Y90.723
G1 Z0.200
G1 E0.80000 F2100.00000
G1 F1200
G1 X99.507 Y91.068 E0.05808
G1 X99.557 Y90.476 E0.01678
G1 X102.581 Y90.476 E0.08534
G1 X106.062 Y91.068 E0.09965
G1 X106.112 Y90.476 E0.01678
G1 X109.136 Y90.476 E0.08534
G1 X112.618 Y91.068 E0.09965
G1 X112.668 Y90.476 E0.01678
G1 X115.692 Y90.476 E0.08534
G1 X119.173 Y91.068 E0.09965
G1 X119.223 Y90.476 E0.01678
G1 X122.247 Y90.476 E0.08534
G1 X125.728 Y91.068 E0.09964
G1 X125.778 Y90.476 E0.01678
G1 X128.803 Y90.476 E0.08534
G1 X132.284 Y91.068 E0.09964
G1 X132.334 Y90.476 E0.01678
G1 X135.358 Y90.476 E0.08534
G1 X138.839 Y91.068 E0.09965
G1 X138.889 Y90.476 E0.01678
G1 X141.913 Y90.476 E0.08534
G1 X145.394 Y91.068 E0.09965
G1 X145.445 Y90.476 E0.01678
G1 X148.652 Y90.476 E0.09051
G1 X148.652 Y141.301 E1.43424
G1 X147.219 Y141.057 E0.04102
G1 X147.169 Y141.650 E0.01678
G1 X144.145 Y141.650 E0.08534
G1 X140.663 Y141.057 E0.09965
G1 X140.613 Y141.650 E0.01678
G1 X137.589 Y141.650 E0.08534
G1 X134.108 Y141.058 E0.09964
G1 X134.058 Y141.650 E0.01678
G1 X131.034 Y141.650 E0.08534
G1 X127.553 Y141.057 E0.09965
G1 X127.503 Y141.650 E0.01678
G1 X124.478 Y141.650 E0.08534
G1 X120.997 Y141.057 E0.09965
G1 X120.947 Y141.650 E0.01678
G1 X117.923 Y141.650 E0.08534
G1 X114.442 Y141.057 E0.09965
G1 X114.392 Y141.650 E0.01678
G1 X111.368 Y141.650 E0.08534
G1 X107.887 Y141.058 E0.09964
G1 X107.837 Y141.650 E0.01678
G1 X104.812 Y141.650 E0.08534
G1 X101.331 Y141.057 E0.09964
G1 X101.281 Y141.650 E0.01678
G1 X98.257 Y141.650 E0.08534
G1 X97.478 Y141.518 E0.02230
G1 X97.478 Y90.783 E1.43167
G1 F8640
G1 X99.507 Y91.068 E-0.47312
G1 X99.557 Y90.476 E-0.13730
G1 X100.205 Y90.476 E-0.14958
G1 E-0.04000 F2100.00000
G1 Z0.800 F10800.000
G1 X97.855 Y132.455
G1 Z0.200
G1 E0.80000 F2100.00000
G1 F1200
G1 X146.862 Y140.797 E1.40283
G1 X146.822 Y141.273 E0.01348
G1 X144.176 Y141.273 E0.07466
G1 X97.855 Y133.388 E1.32594
G1 X97.855 Y132.515 E0.02464
G1 X97.718 Y132.079 F10800.000
G1 F8640
G1 X101.100 Y133.064 E-0.76000
G1 E-0.04000 F2100.00000
G1 Z0.800 F10800.000
G1 X97.855 Y133.571
G1 Z0.200
G1 E0.80000 F2100.00000
G1 F1200
G1 X140.307 Y140.797 E1.21518
G1 X140.267 Y141.273 E0.01348
G1 X137.621 Y141.273 E0.07466
G1 X97.855 Y134.504 E1.13830
G1 X97.855 Y133.631 E0.02464
G1 X97.719 Y133.195 F10800.000
G1 F8640
G1 X101.100 Y134.179 E-0.76000
G1 E-0.04000 F2100.00000
G1 Z0.800 F10800.000
G1 X97.855 Y134.687
G1 Z0.200
G1 E0.80000 F2100.00000
G1 F1200
G1 X133.752 Y140.797 E1.02754
G1 X133.711 Y141.273 E0.01348
G1 X131.066 Y141.273 E0.07466
G1 X97.855 Y135.620 E0.95065
G1 X97.855 Y134.747 E0.02464
G1 X97.719 Y134.310 F10800.000
G1 F8640
G1 X101.101 Y135.294 E-0.76000
G1 E-0.04000 F2100.00000
G1 Z0.800 F10800.000
G1 X97.855 Y135.803
G1 Z0.200
G1 E0.80000 F2100.00000
G1 F1200
G1 X127.196 Y140.797 E0.83989
G1 X127.156 Y141.273 E0.01348
G1 X124.510 Y141.273 E0.07466
G1 X97.855 Y136.736 E0.76301
G1 X97.855 Y135.863 E0.02464
G1 X97.720 Y135.426 F10800.000
G1 F8640
G1 X101.101 Y136.408 E-0.76000
G1 E-0.04000 F2100.00000
G1 Z0.800 F10800.000
G1 X97.855 Y136.918
G1 Z0.200
G1 E0.80000 F2100.00000
G1 F1200
G1 X120.641 Y140.797 E0.65225
G1 X120.601 Y141.273 E0.01348
G1 X117.955 Y141.273 E0.07466
G1 X97.855 Y137.852 E0.57536
G1 X97.855 Y136.978 E0.02464
G1 X97.721 Y136.541 F10800.000
G1 F8640
G1 X101.101 Y137.522 E-0.76000
G1 E-0.04000 F2100.00000
G1 Z0.800 F10800.000
G1 X97.855 Y138.034
G1 Z0.200
G1 E0.80000 F2100.00000
G1 F1200
G1 X114.086 Y140.797 E0.46460
G1 X114.045 Y141.273 E0.01348
G1 X111.400 Y141.273 E0.07466
G1 X97.855 Y138.967 E0.38771
G1 X97.855 Y138.094 E0.02464
G1 X97.724 Y137.656 F10800.000
G1 F8640
G1 X101.102 Y138.635 E-0.76000
G1 E-0.04000 F2100.00000
G1 Z0.800 F10800.000
G1 X97.855 Y139.150
G1 Z0.200
G1 E0.80000 F2100.00000
G1 F1200
G1 X107.530 Y140.797 E0.27695
G1 X107.490 Y141.273 E0.01348
G1 X104.844 Y141.273 E0.07466
G1 X97.855 Y140.083 E0.20007
G1 X97.855 Y139.210 E0.02464
G1 X97.732 Y138.770 F10800.000
G1 F8640
G1 X101.103 Y139.743 E-0.76000
G1 E-0.04000 F2100.00000
G1 Z0.800 F10800.000
G1 X97.855 Y140.266
G1 Z0.200
G1 E0.80000 F2100.00000
G1 F1200
G1 X100.975 Y140.797 E0.08931
G1 X100.935 Y141.273 E0.01348
G1 X98.289 Y141.273 E0.07466
G1 X97.855 Y141.199 E0.01242
G1 X97.855 Y140.326 E0.02464
G1 X97.846 Y139.866 F10800.000
G1 F8640
G1 X100.975 Y140.797 E-0.72856
G1 X100.963 Y140.933 E-0.03144
G1 E-0.04000 F2100.00000
G1 Z0.800 F10800.000
G1 X97.855 Y132.273
G1 Z0.200
G1 E0.80000 F2100.00000
G1 F1200
G1 X97.855 Y131.339 E0.02633
G1 X148.275 Y139.921 E1.44326
G1 X148.275 Y140.855 E0.02634
G1 X97.914 Y132.283 E1.44157
M73 Q0 S208
M73 P0 R207
G1 X97.455 Y132.252 F10800.000
G1 F8640
G1 X97.855 Y131.339 E-0.21824
G1 X100.168 Y131.733 E-0.54176
G1 E-0.04000 F2100.00000
G1 Z0.800 F10800.000
G1 X97.855 Y131.157
G1 Z0.200
G1 E0.80000 F2100.00000
G1 F1200
G1 X97.855 Y130.223 E0.02633
G1 X148.275 Y138.806 E1.44326
G1 X148.275 Y139.739 E0.02634
G1 X97.914 Y131.167 E1.44157
G1 X97.455 Y131.137 F10800.000
G1 F8640
G1 X97.855 Y130.223 E-0.21824
G1 X100.168 Y130.617 E-0.54176
G1 E-0.04000 F2100.00000
G1 Z0.800 F10800.000
G1 X97.855 Y130.041
G1 Z0.200
G1 E0.80000 F2100.00000
G1 F1200
G1 X97.855 Y129.108 E0.02634
G1 X148.275 Y137.690 E1.44326
G1 X148.275 Y138.623 E0.02634
G1 X97.914 Y130.051 E1.44157
G1 X97.455 Y130.021 F10800.000
G1 F8640
G1 X97.855 Y129.108 E-0.21824
G1 X100.168 Y129.501 E-0.54176
G1 E-0.04000 F2100.00000
G1 Z0.800 F10800.000
G1 X97.855 Y128.925
G1 Z0.200
G1 E0.80000 F2100.00000
G1 F1200
G1 X97.855 Y127.992 E0.02633
G1 X148.275 Y136.574 E1.44326
G1 X148.275 Y137.507 E0.02634
G1 X97.914 Y128.935 E1.44157
G1 X97.455 Y128.905 F10800.000
G1 F8640
G1 X97.855 Y127.992 E-0.21824
G1 X100.168 Y128.385 E-0.54176
G1 E-0.04000 F2100.00000
G1 Z0.800 F10800.000
G1 X97.855 Y127.809
G1 Z0.200
G1 E0.80000 F2100.00000
G1 F1200
G1 X97.855 Y126.876 E0.02633
G1 X148.275 Y135.458 E1.44326
G1 X148.275 Y136.391 E0.02633
G1 X97.914 Y127.819 E1.44157
G1 X97.455 Y127.789 F10800.000
G1 F8640
G1 X97.855 Y126.876 E-0.21824
G1 X100.168 Y127.270 E-0.54176
G1 E-0.04000 F2100.00000
G1 Z0.800 F10800.000
G1 X97.855 Y126.693
G1 Z0.200
G1 E0.80000 F2100.00000
G1 F1200
G1 X97.855 Y125.760 E0.02634
G1 X148.275 Y134.342 E1.44326
G1 X148.275 Y135.276 E0.02634
G1 X97.914 Y126.703 E1.44157
G1 X97.455 Y126.673 F10800.000
G1 F8640
G1 X97.855 Y125.760 E-0.21824
G1 X100.168 Y126.154 E-0.54176
G1 E-0.04000 F2100.00000
G1 Z0.800 F10800.000
G1 X97.855 Y125.578
G1 Z0.200
G1 E0.80000 F2100.00000
G1 F1200
G1 X97.855 Y124.644 E0.02633
G1 X148.275 Y133.227 E1.44326
G1 X148.275 Y134.160 E0.02633
G1 X97.914 Y125.588 E1.44157
G1 X97.455 Y125.558 F10800.000
G1 F8640
G1 X97.855 Y124.644 E-0.21824
G1 X100.168 Y125.038 E-0.54176
G1 E-0.04000 F2100.00000
G1 Z0.800 F10800.000
G1 X97.855 Y124.462
G1 Z0.200
G1 E0.80000 F2100.00000
G1 F1200
G1 X97.855 Y123.529 E0.02633
G1 X148.275 Y132.111 E1.44326
G1 X148.275 Y133.044 E0.02633
G1 X97.914 Y124.472 E1.44157
G1 X97.455 Y124.442 F10800.000
G1 F8640
G1 X97.855 Y123.529 E-0.21822
G1 X100.168 Y123.922 E-0.54178
G1 E-0.04000 F2100.00000
G1 Z0.800 F10800.000
G1 X97.855 Y123.346
G1 Z0.200
G1 E0.80000 F2100.00000
G1 F1200
G1 X97.855 Y122.413 E0.02634
G1 X148.275 Y130.995 E1.44326
G1 X148.275 Y131.928 E0.02633
G1 X97.914 Y123.356 E1.44157
G1 X97.455 Y123.326 F10800.000
G1 F8640
G1 X97.855 Y122.413 E-0.21824
G1 X100.168 Y122.806 E-0.54176
G1 E-0.04000 F2100.00000
G1 Z0.800 F10800.000
G1 X97.855 Y122.230
G1 Z0.200
G1 E0.80000 F2100.00000
G1 F1200
G1 X97.855 Y121.297 E0.02633
G1 X148.275 Y129.879 E1.44326
G1 X148.275 Y130.812 E0.02633
G1 X97.914 Y122.240 E1.44157
G1 X97.455 Y122.210 F10800.000
G1 F8640
G1 X97.855 Y121.297 E-0.21824
G1 X100.168 Y121.691 E-0.54176
G1 E-0.04000 F2100.00000
G1 Z0.800 F10800.000
G1 X97.855 Y121.114
G1 Z0.200
G1 E0.80000 F2100.00000
G1 F1200
G1 X97.855 Y120.181 E0.02633
G1 X148.275 Y128.763 E1.44326
G1 X148.275 Y129.697 E0.02633
G1 X97.914 Y121.124 E1.44157
G1 X97.455 Y121.094 F10800.000
G1 F8640
G1 X97.855 Y120.181 E-0.21824
G1 X100.168 Y120.575 E-0.54176
G1 E-0.04000 F2100.00000
G1 Z0.800 F10800.000
G1 X97.855 Y119.999
G1 Z0.200
G1 E0.80000 F2100.00000
G1 F1200
G1 X97.855 Y119.065 E0.02633
G1 X148.275 Y127.647 E1.44326
G1 X148.275 Y128.581 E0.02634
G1 X97.914 Y120.009 E1.44157
M73 Q1 S206
M73 P1 R206
G1 X97.455 Y119.978 F10800.000
G1 F8640
G1 X97.855 Y119.065 E-0.21824
G1 X100.168 Y119.459 E-0.54176
G1 E-0.04000 F2100.00000
G1 Z0.800 F10800.000
G1 X97.855 Y118.883
G1 Z0.200
G1 E0.80000 F2100.00000
G1 F1200
G1 X97.855 Y117.949 E0.02633
G1 X148.275 Y126.532 E1.44326
G1 X148.275 Y127.465 E0.02633
G1 X97.914 Y118.893 E1.44157
G1 X97.455 Y118.863 F10800.000
G1 F8640
G1 X97.855 Y117.949 E-0.21824
G1 X100.168 Y118.343 E-0.54176
G1 E-0.04000 F2100.00000
G1 Z0.800 F10800.000
G1 X97.855 Y117.767
G1 Z0.200
G1 E0.80000 F2100.00000
G1 F1200
G1 X97.855 Y116.834 E0.02633
G1 X148.275 Y125.416 E1.44326
G1 X148.275 Y126.349 E0.02633
G1 X97.914 Y117.777 E1.44157
G1 X97.455 Y117.747 F10800.000
G1 F8640
G1 X97.855 Y116.834 E-0.21824
G1 X100.168 Y117.227 E-0.54176
G1 E-0.04000 F2100.00000
G1 Z0.800 F10800.000
G1 X97.855 Y116.651
G1 Z0.200
G1 E0.80000 F2100.00000
G1 F1200
G1 X97.855 Y115.718 E0.02633
G1 X148.275 Y124.300 E1.44326
G1 X148.275 Y125.233 E0.02634
G1 X97.914 Y116.661 E1.44157
G1 X97.455 Y116.631 F10800.000
G1 F8640
G1 X97.855 Y115.718 E-0.21824
G1 X100.168 Y116.111 E-0.54176
G1 E-0.04000 F2100.00000
G1 Z0.800 F10800.000
G1 X97.855 Y115.535
G1 Z0.200
G1 E0.80000 F2100.00000
G1 F1200
G1 X97.855 Y114.602 E0.02633
G1 X148.275 Y123.184 E1.44326
G1 X148.275 Y124.117 E0.02633
G1 X97.914 Y115.545 E1.44157
G1 X97.455 Y115.515 F10800.000
G1 F8640
G1 X97.855 Y114.602 E-0.21824
G1 X100.168 Y114.996 E-0.54176
G1 E-0.04000 F2100.00000
G1 Z0.800 F10800.000
G1 X97.855 Y114.419
G1 Z0.200
G1 E0.80000 F2100.00000
G1 F1200
G1 X97.855 Y113.486 E0.02633
G1 X148.275 Y122.068 E1.44326
G1 X148.275 Y123.002 E0.02633
G1 X97.914 Y114.429 E1.44157
G1 X97.455 Y114.399 F10800.000
G1 F8640
G1 X97.855 Y113.486 E-0.21824
G1 X100.168 Y113.880 E-0.54176
G1 E-0.04000 F2100.00000
G1 Z0.800 F10800.000
G1 X97.855 Y113.304
G1 Z0.200
G1 E0.80000 F2100.00000
G1 F1200
G1 X97.855 Y112.370 E0.02634
G1 X148.275 Y120.953 E1.44326
G1 X148.275 Y121.886 E0.02633
G1 X97.914 Y113.314 E1.44157
G1 X97.455 Y113.283 F10800.000
G1 F8640
G1 X97.855 Y112.370 E-0.21824
G1 X100.168 Y112.764 E-0.54176
G1 E-0.04000 F2100.00000
G1 Z0.800 F10800.000
G1 X97.855 Y112.188
G1 Z0.200
G1 E0.80000 F2100.00000
G1 F1200
G1 X97.855 Y111.254 E0.02634
G1 X148.275 Y119.837 E1.44326
G1 X148.275 Y120.770 E0.02633
G1 X97.914 Y112.198 E1.44157
G1 X97.455 Y112.168 F10800.000
G1 F8640
G1 X97.855 Y111.254 E-0.21824
G1 X100.168 Y111.648 E-0.54176
G1 E-0.04000 F2100.00000
G1 Z0.800 F10800.000
G1 X97.855 Y111.072
G1 Z0.200
G1 E0.80000 F2100.00000
G1 F1200
G1 X97.855 Y110.139 E0.02633
G1 X148.275 Y118.721 E1.44326
G1 X148.275 Y119.654 E0.02633
G1 X97.914 Y111.082 E1.44157
G1 X97.455 Y111.052 F10800.000
G1 F8640
G1 X97.855 Y110.139 E-0.21824
G1 X100.168 Y110.532 E-0.54176
G1 E-0.04000 F2100.00000
G1 Z0.800 F10800.000
G1 X97.855 Y109.956
G1 Z0.200
G1 E0.80000 F2100.00000
G1 F1200
G1 X97.855 Y109.023 E0.02633
G1 X148.275 Y117.605 E1.44326
G1 X148.275 Y118.538 E0.02633
G1 X97.914 Y109.966 E1.44157
G1 X97.455 Y109.936 F10800.000
G1 F8640
G1 X97.855 Y109.023 E-0.21824
G1 X100.168 Y109.417 E-0.54176
G1 E-0.04000 F2100.00000
G1 Z0.800 F10800.000
G1 X97.855 Y108.840
G1 Z0.200
G1 E0.80000 F2100.00000
G1 F1200
G1 X97.855 Y107.907 E0.02633
G1 X148.275 Y116.489 E1.44326
G1 X148.275 Y117.423 E0.02634
G1 X97.914 Y108.850 E1.44157
G1 X97.455 Y108.820 F10800.000
G1 F8640
G1 X97.855 Y107.907 E-0.21822
G1 X100.168 Y108.301 E-0.54178
G1 E-0.04000 F2100.00000
G1 Z0.800 F10800.000
G1 X97.855 Y107.724
G1 Z0.200
G1 E0.80000 F2100.00000
G1 F1200
G1 X97.855 Y106.791 E0.02633
G1 X148.275 Y115.373 E1.44326
G1 X148.275 Y116.307 E0.02633
G1 X97.914 Y107.734 E1.44157
M73 Q1 S205
M73 P1 R205
G1 X97.455 Y107.704 F10800.000
G1 F8640
G1 X97.855 Y106.791 E-0.21824
G1 X100.168 Y107.185 E-0.54176
G1 E-0.04000 F2100.00000
G1 Z0.800 F10800.000
G1 X97.855 Y106.609
G1 Z0.200
G1 E0.80000 F2100.00000
G1 F1200
G1 X97.855 Y105.675 E0.02633
G1 X148.275 Y114.258 E1.44326
G1 X148.275 Y115.191 E0.02633
G1 X97.914 Y106.619 E1.44157
G1 X97.455 Y106.589 F10800.000
G1 F8640
G1 X97.855 Y105.675 E-0.21824
G1 X100.168 Y106.069 E-0.54176
G1 E-0.04000 F2100.00000
G1 Z0.800 F10800.000
G1 X97.855 Y105.493
G1 Z0.200
G1 E0.80000 F2100.00000
G1 F1200
G1 X97.855 Y104.560 E0.02634
G1 X148.275 Y113.142 E1.44326
G1 X148.275 Y114.075 E0.02634
G1 X97.914 Y105.503 E1.44157
G1 X97.455 Y105.473 F10800.000
G1 F8640
G1 X97.855 Y104.560 E-0.21824
G1 X100.168 Y104.953 E-0.54176
G1 E-0.04000 F2100.00000
G1 Z0.800 F10800.000
G1 X97.855 Y104.377
G1 Z0.200
G1 E0.80000 F2100.00000
G1 F1200
G1 X97.855 Y103.444 E0.02634
G1 X148.275 Y112.026 E1.44326
G1 X148.275 Y112.959 E0.02633
G1 X97.914 Y104.387 E1.44157
G1 X97.455 Y104.357 F10800.000
G1 F8640
G1 X97.855 Y103.444 E-0.21824
G1 X100.168 Y103.837 E-0.54176
G1 E-0.04000 F2100.00000
G1 Z0.800 F10800.000
G1 X97.855 Y103.261
G1 Z0.200
G1 E0.80000 F2100.00000
G1 F1200
G1 X97.855 Y102.328 E0.02633
G1 X148.275 Y110.910 E1.44326
G1 X148.275 Y111.843 E0.02633
G1 X97.914 Y103.271 E1.44157
G1 X97.455 Y103.241 F10800.000
G1 F8640
G1 X97.855 Y102.328 E-0.21824
G1 X100.168 Y102.722 E-0.54176
G1 E-0.04000 F2100.00000
G1 Z0.800 F10800.000
G1 X97.855 Y102.145
G1 Z0.200
G1 E0.80000 F2100.00000
G1 F1200
G1 X97.855 Y101.212 E0.02633
G1 X148.275 Y109.794 E1.44326
G1 X148.275 Y110.728 E0.02633
G1 X97.914 Y102.155 E1.44157
G1 X97.455 Y102.125 F10800.000
G1 F8640
G1 X97.855 Y101.212 E-0.21824
G1 X100.168 Y101.606 E-0.54176
G1 E-0.04000 F2100.00000
