; generated by Slic3r Prusa Edition 1.41.3+linux64 on 2021-02-26 at 17:12:15

; 

; external perimeters extrusion width = 0.45mm
; perimeters extrusion width = 0.45mm
; infill extrusion width = 0.45mm
; solid infill extrusion width = 0.45mm
; top infill extrusion width = 0.40mm
; first layer extrusion width = 0.42mm

M73 P0 R191
M73 Q0 S191
M201 X1000 Y1000 Z1000 E5000 ; sets maximum accelerations, mm/sec^2
M203 X200 Y200 Z12 E120 ; sets maximum feedrates, mm/sec
M204 P1250 R1250 T1250 ; sets acceleration (P, T) and retract acceleration (R), mm/sec^2
M205 X8.00 Y8.00 Z0.40 E1.50 ; sets the jerk limits, mm/sec
M205 S0 T0 ; sets the minimum extruding and travel feed rate, mm/sec
M107
M115 U3.5.1 ; tell printer latest fw version
M83  ; extruder relative mode
M104 S220 ; set extruder temp
M140 S100 ; set bed temp
M190 S100 ; wait for bed temp
M109 S220 ; wait for extruder temp
G28 W ; home all without mesh bed level
G80 ; mesh bed leveling
G1 Y-3.0 F1000.0 ; go outside print area
G92 E0.0
G1 X60.0 E9.0  F1000.0 ; intro line
M73 Q0 S191
M73 P0 R191
G1 X100.0 E12.5  F1000.0 ; intro line
G92 E0.0
M221 S95
M900 K10; Filament gcode
G21 ; set units to millimeters
G90 ; use absolute coordinates
M83 ; use relative distances for extrusion
;BEFORE_LAYER_CHANGE
G92 E0.0
;0.2


G1 E-0.80000 F2100.00000
G1 Z0.600 F10800.000
;AFTER_LAYER_CHANGE
;0.2
G1 X88.429 Y68.477
G1 Z0.200
G1 E0.80000 F2100.00000
M204 S1000
G1 F1200
G1 X89.137 Y67.989 E0.02428
G1 X89.980 Y67.812 E0.02428
G1 X160.004 Y67.811 E1.97600
G1 X160.827 Y67.974 E0.02368
G1 X161.531 Y68.436 E0.02378
G1 X162.008 Y69.131 E0.02378
G1 X162.188 Y69.954 E0.02378
G1 X162.188 Y140.018 E1.97714
G1 X162.025 Y140.830 E0.02337
G1 X161.571 Y141.523 E0.02337
G1 X160.856 Y142.014 E0.02449
G1 X160.002 Y142.189 E0.02459
G1 X89.982 Y142.188 E1.97590
G1 X89.170 Y142.025 E0.02337
G1 X88.477 Y141.571 E0.02337
G1 X87.986 Y140.856 E0.02449
G1 X87.811 Y140.002 E0.02459
G1 X87.812 Y69.982 E1.97590
G1 X87.975 Y69.170 E0.02337
G1 X88.396 Y68.527 E0.02168
; PURGING FINISHED
G1 F8640
G1 X89.137 Y67.989 E-0.21159
G1 X89.980 Y67.812 E-0.19870
G1 X91.494 Y67.812 E-0.34970
G1 E-0.04000 F2100.00000
G1 Z0.800 F10800.000
G1 X90.210 Y70.210
G1 Z0.200
G1 E0.80000 F2100.00000
G1 F1200
G1 X159.790 Y70.210 E1.96347
G1 X159.790 Y139.790 E1.96347
G1 X90.210 Y139.790 E1.96347
G1 X90.210 Y70.270 E1.96178
G1 X90.596 Y70.314 F10800.000
G1 X90.587 Y70.587
G1 F1200
G1 X159.413 Y70.587 E1.94219
G1 X159.413 Y139.413 E1.94219
G1 X90.587 Y139.413 E1.94219
G1 X90.587 Y70.647 E1.94049
G1 F8640
G1 X93.879 Y70.644 E-0.76000
G1 E-0.04000 F2100.00000
G1 Z0.800 F10800.000
G1 X147.726 Y79.790
G1 Z0.200
G1 E0.80000 F2100.00000
G1 F1200
G1 X150.210 Y79.790 E0.07009
G1 X150.210 Y80.696 E0.02556
G1 X147.686 Y80.266 E0.07225
G1 X147.721 Y79.850 E0.01179
G1 X147.568 Y79.423 F10800.000
G1 F8640
G1 X150.210 Y79.790 E-0.57484
G1 X150.210 Y80.592 E-0.18516
G1 E-0.04000 F2100.00000
G1 Z0.800 F10800.000
G1 X141.171 Y79.790
G1 Z0.200
G1 E0.80000 F2100.00000
G1 F1200
G1 X143.817 Y79.790 E0.07466
G1 X150.210 Y80.878 E0.18301
G1 X150.210 Y81.811 E0.02633
G1 X141.131 Y80.266 E0.25989
G1 X141.166 Y79.850 E0.01179
G1 X140.997 Y79.430 F10800.000
G1 F8640
G1 X143.817 Y79.790 E-0.61224
G1 X144.448 Y79.897 E-0.14776
G1 E-0.04000 F2100.00000
G1 Z0.800 F10800.000
G1 X134.615 Y79.790
G1 Z0.200
G1 E0.80000 F2100.00000
G1 F1200
G1 X137.261 Y79.790 E0.07466
G1 X150.210 Y81.994 E0.37065
G1 X150.210 Y82.927 E0.02634
G1 X134.575 Y80.266 E0.44754
G1 X134.610 Y79.850 E0.01179
G1 X134.439 Y79.431 F10800.000
G1 F8640
G1 X137.261 Y79.790 E-0.61224
G1 X137.892 Y79.897 E-0.14776
G1 E-0.04000 F2100.00000
G1 Z0.800 F10800.000
G1 X128.060 Y79.790
G1 Z0.200
G1 E0.80000 F2100.00000
G1 F1200
G1 X130.706 Y79.790 E0.07466
G1 X150.210 Y83.110 E0.55830
G1 X150.210 Y84.043 E0.02633
G1 X128.020 Y80.266 E0.63519
G1 X128.055 Y79.850 E0.01179
G1 X127.882 Y79.432 F10800.000
G1 F8640
G1 X130.706 Y79.790 E-0.61226
G1 X131.337 Y79.897 E-0.14774
G1 E-0.04000 F2100.00000
G1 Z0.800 F10800.000
G1 X121.505 Y79.790
G1 Z0.200
G1 E0.80000 F2100.00000
G1 F1200
G1 X124.151 Y79.790 E0.07466
G1 X150.210 Y84.226 E0.74595
G1 X150.210 Y85.159 E0.02633
G1 X121.465 Y80.266 E0.82283
G1 X121.500 Y79.850 E0.01179
G1 X121.326 Y79.432 F10800.000
G1 F8640
G1 X124.151 Y79.790 E-0.61224
G1 X124.781 Y79.897 E-0.14776
G1 E-0.04000 F2100.00000
G1 Z0.800 F10800.000
G1 X114.949 Y79.790
G1 Z0.200
G1 E0.80000 F2100.00000
G1 F1200
G1 X117.595 Y79.790 E0.07466
G1 X150.210 Y85.342 E0.93359
M73 Q0 S190
G1 X150.210 Y86.275 E0.02633
G1 X114.909 Y80.266 E1.01048
M73 P0 R190
G1 X114.944 Y79.850 E0.01179
G1 X114.771 Y79.432 F10800.000
G1 F8640
G1 X117.595 Y79.790 E-0.61224
G1 X118.226 Y79.897 E-0.14776
G1 E-0.04000 F2100.00000
G1 Z0.800 F10800.000
G1 X108.394 Y79.790
G1 Z0.200
G1 E0.80000 F2100.00000
G1 F1200
G1 X111.040 Y79.790 E0.07466
G1 X150.210 Y86.457 E1.12124
G1 X150.210 Y87.391 E0.02633
G1 X108.354 Y80.266 E1.19812
G1 X108.389 Y79.850 E0.01179
G1 X108.215 Y79.432 F10800.000
G1 F8640
G1 X111.040 Y79.790 E-0.61224
G1 X111.671 Y79.897 E-0.14776
G1 E-0.04000 F2100.00000
G1 Z0.800 F10800.000
G1 X101.839 Y79.790
G1 Z0.200
G1 E0.80000 F2100.00000
G1 F1200
G1 X104.484 Y79.790 E0.07466
G1 X150.210 Y87.573 E1.30888
G1 X150.210 Y88.506 E0.02633
G1 X101.798 Y80.266 E1.38577
G1 X101.834 Y79.850 E0.01179
G1 X101.659 Y79.432 F10800.000
G1 F8640
G1 X104.484 Y79.790 E-0.61224
G1 X105.115 Y79.897 E-0.14776
G1 E-0.04000 F2100.00000
G1 Z0.800 F10800.000
G1 X99.790 Y81.040
G1 Z0.200
G1 E0.80000 F2100.00000
G1 F1200
G1 X99.790 Y80.107 E0.02634
G1 X150.210 Y88.689 E1.44326
G1 X150.210 Y89.622 E0.02633
G1 X99.849 Y81.050 E1.44157
G1 X99.391 Y81.020 F10800.000
G1 X99.819 Y81.228
G1 F1200
G1 X150.210 Y89.805 E1.44243
G1 X150.210 Y90.738 E0.02633
G1 X99.790 Y82.156 E1.44326
G1 X99.790 Y81.253 E0.02547
G1 X99.682 Y80.852 F10800.000
G1 F8640
G1 X103.035 Y81.804 E-0.76000
G1 E-0.04000 F2100.00000
G1 Z0.800 F10800.000
G1 X99.790 Y82.338
G1 Z0.200
G1 E0.80000 F2100.00000
G1 F1200
G1 X150.210 Y90.921 E1.44326
G1 X150.210 Y91.854 E0.02633
G1 X99.790 Y83.272 E1.44326
G1 X99.790 Y82.398 E0.02464
G1 X99.653 Y81.963 F10800.000
G1 F8640
G1 X103.035 Y82.947 E-0.76000
G1 E-0.04000 F2100.00000
G1 Z0.800 F10800.000
G1 X99.790 Y83.454
G1 Z0.200
G1 E0.80000 F2100.00000
G1 F1200
G1 X150.210 Y92.036 E1.44326
G1 X150.210 Y92.970 E0.02633
G1 X99.790 Y84.387 E1.44326
G1 X99.790 Y83.514 E0.02464
G1 X99.653 Y83.078 F10800.000
G1 F8640
G1 X103.035 Y84.063 E-0.76000
G1 E-0.04000 F2100.00000
G1 Z0.800 F10800.000
G1 X99.790 Y84.570
G1 Z0.200
G1 E0.80000 F2100.00000
G1 F1200
G1 X150.210 Y93.152 E1.44326
G1 X150.210 Y94.085 E0.02633
G1 X99.790 Y85.503 E1.44326
G1 X99.790 Y84.630 E0.02464
G1 X99.653 Y84.194 F10800.000
G1 F8640
G1 X103.035 Y85.179 E-0.76000
G1 E-0.04000 F2100.00000
G1 Z0.800 F10800.000
G1 X99.790 Y85.686
G1 Z0.200
G1 E0.80000 F2100.00000
G1 F1200
G1 X150.210 Y94.268 E1.44326
G1 X150.210 Y95.201 E0.02633
G1 X99.790 Y86.619 E1.44326
G1 X99.790 Y85.746 E0.02464
G1 X99.653 Y85.310 F10800.000
G1 F8640
G1 X103.035 Y86.294 E-0.76000
G1 E-0.04000 F2100.00000
G1 Z0.800 F10800.000
G1 X99.790 Y86.802
G1 Z0.200
G1 E0.80000 F2100.00000
G1 F1200
G1 X150.210 Y95.384 E1.44326
G1 X150.210 Y96.317 E0.02633
G1 X99.790 Y87.735 E1.44326
G1 X99.790 Y86.862 E0.02464
G1 X99.653 Y86.426 F10800.000
G1 F8640
G1 X103.035 Y87.410 E-0.76000
G1 E-0.04000 F2100.00000
G1 Z0.800 F10800.000
G1 X99.790 Y87.918
G1 Z0.200
G1 E0.80000 F2100.00000
G1 F1200
G1 X150.210 Y96.500 E1.44326
G1 X150.210 Y97.433 E0.02633
G1 X99.790 Y88.851 E1.44326
G1 X99.790 Y87.978 E0.02464
G1 X99.653 Y87.542 F10800.000
G1 F8640
G1 X103.035 Y88.526 E-0.76000
G1 E-0.04000 F2100.00000
G1 Z0.800 F10800.000
G1 X99.790 Y89.033
G1 Z0.200
G1 E0.80000 F2100.00000
G1 F1200
G1 X150.210 Y97.616 E1.44326
M73 Q1 S189
G1 X150.210 Y98.549 E0.02633
G1 X99.790 Y89.967 E1.44326
M73 P1 R189
G1 X99.790 Y89.093 E0.02464
G1 X99.653 Y88.657 F10800.000
G1 F8640
G1 X103.035 Y89.642 E-0.76000
G1 E-0.04000 F2100.00000
G1 Z0.800 F10800.000
G1 X99.790 Y90.149
G1 Z0.200
G1 E0.80000 F2100.00000
G1 F1200
G1 X150.210 Y98.731 E1.44326
G1 X150.210 Y99.665 E0.02633
G1 X99.790 Y91.082 E1.44326
G1 X99.790 Y90.209 E0.02464
G1 X99.653 Y89.773 F10800.000
G1 F8640
G1 X103.035 Y90.758 E-0.76000
G1 E-0.04000 F2100.00000
G1 Z0.800 F10800.000
G1 X99.790 Y91.265
G1 Z0.200
G1 E0.80000 F2100.00000
G1 F1200
G1 X150.210 Y99.847 E1.44326
G1 X150.210 Y100.780 E0.02633
G1 X99.790 Y92.198 E1.44326
G1 X99.790 Y91.325 E0.02464
G1 X99.653 Y90.889 F10800.000
G1 F8640
G1 X103.035 Y91.873 E-0.76000
G1 E-0.04000 F2100.00000
G1 Z0.800 F10800.000
G1 X99.790 Y92.381
G1 Z0.200
G1 E0.80000 F2100.00000
G1 F1200
G1 X150.210 Y100.963 E1.44326
G1 X150.210 Y101.896 E0.02633
G1 X99.790 Y93.314 E1.44326
G1 X99.790 Y92.441 E0.02464
G1 X99.653 Y92.005 F10800.000
G1 F8640
G1 X103.035 Y92.989 E-0.76000
G1 E-0.04000 F2100.00000
G1 Z0.800 F10800.000
G1 X99.790 Y93.497
G1 Z0.200
G1 E0.80000 F2100.00000
G1 F1200
G1 X150.210 Y102.079 E1.44326
G1 X150.210 Y103.012 E0.02634
G1 X99.790 Y94.430 E1.44326
G1 X99.790 Y93.557 E0.02464
G1 X99.653 Y93.121 F10800.000
G1 F8640
G1 X103.035 Y94.105 E-0.76000
G1 E-0.04000 F2100.00000
G1 Z0.800 F10800.000
G1 X99.790 Y94.612
G1 Z0.200
G1 E0.80000 F2100.00000
G1 F1200
G1 X150.210 Y103.195 E1.44326
G1 X150.210 Y104.128 E0.02634
G1 X99.790 Y95.546 E1.44326
G1 X99.790 Y94.672 E0.02464
G1 X99.653 Y94.237 F10800.000
G1 F8640
G1 X103.035 Y95.221 E-0.76000
G1 E-0.04000 F2100.00000
G1 Z0.800 F10800.000
G1 X99.790 Y95.728
G1 Z0.200
G1 E0.80000 F2100.00000
G1 F1200
G1 X150.210 Y104.311 E1.44326
G1 X150.210 Y105.244 E0.02633
G1 X99.790 Y96.661 E1.44326
G1 X99.790 Y95.788 E0.02464
G1 X99.653 Y95.352 F10800.000
G1 F8640
G1 X103.035 Y96.337 E-0.76000
G1 E-0.04000 F2100.00000
G1 Z0.800 F10800.000
G1 X99.790 Y96.844
G1 Z0.200
G1 E0.80000 F2100.00000
G1 F1200
G1 X150.210 Y105.426 E1.44326
G1 X150.210 Y106.360 E0.02633
G1 X99.790 Y97.777 E1.44326
G1 X99.790 Y96.904 E0.02464
G1 X99.653 Y96.468 F10800.000
G1 F8640
G1 X103.035 Y97.453 E-0.76000
G1 E-0.04000 F2100.00000
G1 Z0.800 F10800.000
G1 X99.790 Y97.960
G1 Z0.200
G1 E0.80000 F2100.00000
G1 F1200
G1 X150.210 Y106.542 E1.44326
G1 X150.210 Y107.475 E0.02633
G1 X99.790 Y98.893 E1.44326
G1 X99.790 Y98.020 E0.02464
G1 X99.653 Y97.584 F10800.000
G1 F8640
G1 X103.035 Y98.568 E-0.76000
G1 E-0.04000 F2100.00000
G1 Z0.800 F10800.000
G1 X99.790 Y99.076
G1 Z0.200
G1 E0.80000 F2100.00000
G1 F1200
G1 X150.210 Y107.658 E1.44326
G1 X150.210 Y108.591 E0.02633
G1 X99.790 Y100.009 E1.44326
G1 X99.790 Y99.136 E0.02464
G1 X99.653 Y98.700 F10800.000
G1 F8640
G1 X103.035 Y99.684 E-0.76000
G1 E-0.04000 F2100.00000
G1 Z0.800 F10800.000
G1 X99.790 Y100.192
G1 Z0.200
G1 E0.80000 F2100.00000
G1 F1200
G1 X150.210 Y108.774 E1.44326
G1 X150.210 Y109.707 E0.02633
G1 X99.790 Y101.125 E1.44326
G1 X99.790 Y100.252 E0.02464
G1 X99.653 Y99.816 F10800.000
G1 F8640
G1 X103.035 Y100.800 E-0.76000
G1 E-0.04000 F2100.00000
G1 Z0.800 F10800.000
G1 X99.790 Y101.307
G1 Z0.200
G1 E0.80000 F2100.00000
G1 F1200
G1 X150.210 Y109.890 E1.44326
M73 Q1 S188
G1 X150.210 Y110.823 E0.02633
G1 X99.790 Y102.241 E1.44326
M73 P1 R188
G1 X99.790 Y101.367 E0.02464
G1 X99.653 Y100.931 F10800.000
G1 F8640
G1 X103.035 Y101.916 E-0.76000
G1 E-0.04000 F2100.00000
G1 Z0.800 F10800.000
G1 X99.790 Y102.423
G1 Z0.200
G1 E0.80000 F2100.00000
G1 F1200
G1 X150.210 Y111.005 E1.44326
G1 X150.210 Y111.939 E0.02633
G1 X99.790 Y103.356 E1.44326
G1 X99.790 Y102.483 E0.02464
G1 X99.653 Y102.047 F10800.000
G1 F8640
G1 X103.035 Y103.032 E-0.76000
G1 E-0.04000 F2100.00000
G1 Z0.800 F10800.000
G1 X99.790 Y103.539
G1 Z0.200
G1 E0.80000 F2100.00000
G1 F1200
G1 X150.210 Y112.121 E1.44326
G1 X150.210 Y113.054 E0.02633
G1 X99.790 Y104.472 E1.44326
G1 X99.790 Y103.599 E0.02464
G1 X99.653 Y103.163 F10800.000
G1 F8640
G1 X103.035 Y104.148 E-0.76000
G1 E-0.04000 F2100.00000
G1 Z0.800 F10800.000
G1 X99.790 Y104.655
G1 Z0.200
G1 E0.80000 F2100.00000
G1 F1200
G1 X150.210 Y113.237 E1.44326
G1 X150.210 Y114.170 E0.02633
G1 X99.790 Y105.588 E1.44326
G1 X99.790 Y104.715 E0.02464
G1 X99.653 Y104.279 F10800.000
G1 F8640
G1 X103.035 Y105.263 E-0.76000
G1 E-0.04000 F2100.00000
G1 Z0.800 F10800.000
G1 X99.790 Y105.771
G1 Z0.200
G1 E0.80000 F2100.00000
G1 F1200
G1 X150.210 Y114.353 E1.44326
G1 X150.210 Y115.286 E0.02633
G1 X99.790 Y106.704 E1.44326
G1 X99.790 Y105.831 E0.02464
G1 X99.653 Y105.395 F10800.000
G1 F8640
G1 X103.035 Y106.379 E-0.76000
G1 E-0.04000 F2100.00000
G1 Z0.800 F10800.000
G1 X99.790 Y106.886
G1 Z0.200
G1 E0.80000 F2100.00000
G1 F1200
G1 X150.210 Y115.469 E1.44326
G1 X150.210 Y116.402 E0.02633
G1 X99.790 Y107.820 E1.44326
G1 X99.790 Y106.946 E0.02464
G1 X99.653 Y106.511 F10800.000
G1 F8640
G1 X103.035 Y107.495 E-0.76000
G1 E-0.04000 F2100.00000
G1 Z0.800 F10800.000
G1 X99.790 Y108.002
G1 Z0.200
G1 E0.80000 F2100.00000
G1 F1200
G1 X150.210 Y116.585 E1.44326
G1 X150.210 Y117.518 E0.02633
G1 X99.790 Y108.936 E1.44326
G1 X99.790 Y108.062 E0.02464
G1 X99.653 Y107.626 F10800.000
G1 F8640
G1 X103.035 Y108.611 E-0.76000
G1 E-0.04000 F2100.00000
G1 Z0.800 F10800.000
G1 X99.790 Y109.118
G1 Z0.200
G1 E0.80000 F2100.00000
G1 F1200
G1 X150.210 Y117.700 E1.44326
G1 X150.210 Y118.634 E0.02633
G1 X99.790 Y110.051 E1.44326
G1 X99.790 Y109.178 E0.02464
G1 X99.653 Y108.742 F10800.000
G1 F8640
G1 X103.035 Y109.727 E-0.76000
G1 E-0.04000 F2100.00000
G1 Z0.800 F10800.000
G1 X99.790 Y110.234
G1 Z0.200
G1 E0.80000 F2100.00000
G1 F1200
G1 X150.210 Y118.816 E1.44326
G1 X150.210 Y119.749 E0.02633
G1 X99.790 Y111.167 E1.44326
G1 X99.790 Y110.294 E0.02464
G1 X99.653 Y109.858 F10800.000
G1 F8640
G1 X103.035 Y110.842 E-0.76000
G1 E-0.04000 F2100.00000
G1 Z0.800 F10800.000
G1 X99.790 Y111.350
G1 Z0.200
G1 E0.80000 F2100.00000
G1 F1200
G1 X150.210 Y119.932 E1.44326
G1 X150.210 Y120.865 E0.02633
G1 X99.790 Y112.283 E1.44326
G1 X99.790 Y111.410 E0.02464
G1 X99.653 Y110.974 F10800.000
G1 F8640
G1 X103.035 Y111.958 E-0.76000
G1 E-0.04000 F2100.00000
G1 Z0.800 F10800.000
G1 X99.790 Y112.466
G1 Z0.200
G1 E0.80000 F2100.00000
G1 F1200
G1 X150.210 Y121.048 E1.44326
G1 X150.210 Y121.981 E0.02633
G1 X99.790 Y113.399 E1.44326
G1 X99.790 Y112.526 E0.02464
G1 X99.653 Y112.090 F10800.000
G1 F8640
G1 X103.035 Y113.074 E-0.76000
G1 E-0.04000 F2100.00000
G1 Z0.800 F10800.000
G1 X99.790 Y113.581
G1 Z0.200
G1 E0.80000 F2100.00000
G1 F1200
G1 X150.210 Y122.164 E1.44326
M73 Q2 S187
G1 X150.210 Y123.097 E0.02633
G1 X99.790 Y114.515 E1.44326
M73 P2 R187
G1 X99.790 Y113.641 E0.02464
G1 X99.653 Y113.206 F10800.000
G1 F8640
G1 X103.035 Y114.190 E-0.76000
G1 E-0.04000 F2100.00000
G1 Z0.800 F10800.000
G1 X99.790 Y114.697
G1 Z0.200
G1 E0.80000 F2100.00000
G1 F1200
G1 X150.210 Y123.279 E1.44326
G1 X150.210 Y124.213 E0.02633
G1 X99.790 Y115.630 E1.44326
G1 X99.790 Y114.757 E0.02464
G1 X99.653 Y114.321 F10800.000
G1 F8640
G1 X103.035 Y115.306 E-0.76000
G1 E-0.04000 F2100.00000
G1 Z0.800 F10800.000
G1 X99.790 Y115.813
G1 Z0.200
G1 E0.80000 F2100.00000
G1 F1200
G1 X150.210 Y124.395 E1.44326
G1 X150.210 Y125.328 E0.02633
G1 X99.790 Y116.746 E1.44326
G1 X99.790 Y115.873 E0.02464
G1 X99.653 Y115.437 F10800.000
G1 F8640
G1 X103.035 Y116.422 E-0.76000
G1 E-0.04000 F2100.00000
G1 Z0.800 F10800.000
G1 X99.790 Y116.929
G1 Z0.200
G1 E0.80000 F2100.00000
G1 F1200
G1 X150.210 Y125.511 E1.44326
G1 X150.210 Y126.444 E0.02633
G1 X99.790 Y117.862 E1.44326
G1 X99.790 Y116.989 E0.02464
G1 X99.653 Y116.553 F10800.000
G1 F8640
G1 X103.035 Y117.537 E-0.76000
G1 E-0.04000 F2100.00000
G1 Z0.800 F10800.000
G1 X99.790 Y118.045
G1 Z0.200
G1 E0.80000 F2100.00000
G1 F1200
G1 X150.210 Y126.627 E1.44326
G1 X150.210 Y127.560 E0.02633
G1 X99.790 Y118.978 E1.44326
G1 X99.790 Y118.105 E0.02464
G1 X99.653 Y117.669 F10800.000
G1 F8640
G1 X103.035 Y118.653 E-0.76000
G1 E-0.04000 F2100.00000
G1 Z0.800 F10800.000
G1 X99.790 Y119.161
G1 Z0.200
G1 E0.80000 F2100.00000
G1 F1200
G1 X150.210 Y127.743 E1.44326
G1 X150.210 Y128.676 E0.02633
G1 X99.790 Y120.094 E1.44326
G1 X99.790 Y119.221 E0.02464
G1 X99.653 Y118.785 F10800.000
G1 F8640
G1 X103.035 Y119.769 E-0.76000
G1 E-0.04000 F2100.00000
