; generated by Slic3r Prusa Edition 1.41.3+linux64 on 2021-03-01 at 12:03:29

; 

; external perimeters extrusion width = 0.45mm
; perimeters extrusion width = 0.45mm
; infill extrusion width = 0.45mm
; solid infill extrusion width = 0.45mm
; top infill extrusion width = 0.40mm
; first layer extrusion width = 0.42mm

M73 P0 R160
M73 Q0 S160
M201 X1000 Y1000 Z1000 E5000 ; sets maximum accelerations, mm/sec^2
M203 X200 Y200 Z12 E120 ; sets maximum feedrates, mm/sec
M204 P1250 R1250 T1250 ; sets acceleration (P, T) and retract acceleration (R), mm/sec^2
M205 X8.00 Y8.00 Z0.40 E1.50 ; sets the jerk limits, mm/sec
M205 S0 T0 ; sets the minimum extruding and travel feed rate, mm/sec
M107
M115 U3.5.1 ; tell printer latest fw version
M83  ; extruder relative mode
M104 S220 ; set extruder temp
M140 S100 ; set bed temp
M190 S100 ; wait for bed temp
M109 S220 ; wait for extruder temp
G28 W ; home all without mesh bed level
G80 ; mesh bed leveling
G1 Y-3.0 F1000.0 ; go outside print area
G92 E0.0
G1 X60.0 E9.0  F1000.0 ; intro line
M73 Q0 S160
M73 P0 R160
G1 X100.0 E12.5  F1000.0 ; intro line
G92 E0.0
M221 S95
M900 K10; Filament gcode
G21 ; set units to millimeters
G90 ; use absolute coordinates
M83 ; use relative distances for extrusion
;BEFORE_LAYER_CHANGE
G92 E0.0
;0.2


G1 E-0.80000 F2100.00000
G1 Z0.600 F10800.000
;AFTER_LAYER_CHANGE
;0.2
G1 X88.429 Y68.477
G1 Z0.200
G1 E0.80000 F2100.00000
M204 S1000
G1 F1200
G1 X89.137 Y67.989 E0.02428
G1 X89.980 Y67.812 E0.02428
G1 X160.004 Y67.811 E1.97600
G1 X160.827 Y67.974 E0.02368
G1 X161.531 Y68.436 E0.02378
G1 X162.008 Y69.131 E0.02378
G1 X162.188 Y69.954 E0.02378
G1 X162.188 Y140.018 E1.97714
G1 X162.025 Y140.830 E0.02337
G1 X161.571 Y141.523 E0.02337
G1 X160.856 Y142.014 E0.02449
G1 X160.002 Y142.189 E0.02459
G1 X89.982 Y142.188 E1.97590
G1 X89.170 Y142.025 E0.02337
G1 X88.477 Y141.571 E0.02337
G1 X87.986 Y140.856 E0.02449
G1 X87.811 Y140.002 E0.02459
G1 X87.812 Y69.982 E1.97590
G1 X87.975 Y69.170 E0.02337
G1 X88.396 Y68.527 E0.02168
; PURGING FINISHED
G1 F8640
G1 X89.137 Y67.989 E-0.21159
G1 X89.980 Y67.812 E-0.19870
G1 X91.494 Y67.812 E-0.34970
G1 E-0.04000 F2100.00000
G1 Z0.800 F10800.000
G1 X99.363 Y130.943
G1 Z0.200
G1 E0.80000 F2100.00000
G1 F1200
G1 X107.173 Y138.753 E0.31239
G1 X107.707 Y138.753 E0.01512
G1 X100.201 Y131.247 E0.30025
G1 X100.736 Y131.247 E0.01512
G1 X108.242 Y138.753 E0.30025
G1 X108.776 Y138.753 E0.01512
G1 X101.270 Y131.247 E0.30025
G1 X101.805 Y131.247 E0.01512
G1 X109.311 Y138.753 E0.30025
G1 X109.845 Y138.753 E0.01512
G1 X102.339 Y131.247 E0.30025
G1 X102.874 Y131.247 E0.01512
G1 X110.380 Y138.753 E0.30025
G1 X110.914 Y138.753 E0.01512
G1 X103.408 Y131.247 E0.30025
G1 X103.823 Y131.247 E0.01172
G1 X103.832 Y131.136 E0.00314
G1 X111.449 Y138.753 E0.30467
G1 X111.983 Y138.753 E0.01512
G1 X104.023 Y130.793 E0.31842
G1 X104.667 Y130.902 E0.01848
G1 X112.518 Y138.753 E0.31403
G1 X113.052 Y138.753 E0.01512
G1 X105.311 Y131.012 E0.30965
G1 X105.955 Y131.122 E0.01848
G1 X113.587 Y138.753 E0.30526
G1 X114.121 Y138.753 E0.01512
G1 X106.600 Y131.231 E0.30087
G1 X106.692 Y131.247 E0.00264
G1 X107.150 Y131.247 E0.01296
G1 X114.656 Y138.753 E0.30025
G1 X115.190 Y138.753 E0.01512
G1 X107.684 Y131.247 E0.30025
G1 X108.219 Y131.247 E0.01512
G1 X115.725 Y138.753 E0.30025
G1 X116.259 Y138.753 E0.01512
G1 X108.753 Y131.247 E0.30025
G1 X109.288 Y131.247 E0.01512
G1 X116.794 Y138.753 E0.30025
G1 X117.328 Y138.753 E0.01512
G1 X109.822 Y131.247 E0.30025
G1 X110.357 Y131.247 E0.01512
G1 X117.863 Y138.753 E0.30025
G1 X118.398 Y138.753 E0.01512
G1 X110.419 Y130.766 E0.31933
G1 X111.052 Y130.873 E0.01818
G1 X118.932 Y138.753 E0.31519
G1 X119.467 Y138.753 E0.01512
G1 X111.696 Y130.983 E0.31080
G1 X112.341 Y131.093 E0.01848
G1 X120.001 Y138.753 E0.30642
G1 X120.536 Y138.753 E0.01512
G1 X112.985 Y131.202 E0.30203
G1 X113.247 Y131.247 E0.00752
G1 X113.564 Y131.247 E0.00896
G1 X121.070 Y138.753 E0.30025
G1 X121.605 Y138.753 E0.01512
G1 X114.098 Y131.247 E0.30025
G1 X114.633 Y131.247 E0.01512
G1 X122.139 Y138.753 E0.30025
G1 X122.674 Y138.753 E0.01512
G1 X115.167 Y131.247 E0.30025
G1 X115.702 Y131.247 E0.01512
G1 X123.208 Y138.753 E0.30025
G1 X123.743 Y138.753 E0.01512
G1 X116.237 Y131.247 E0.30025
G1 X116.771 Y131.247 E0.01512
G1 X124.277 Y138.753 E0.30025
G1 X124.812 Y138.753 E0.01512
G1 X116.962 Y130.904 E0.31397
G1 X116.974 Y130.766 E0.00393
G1 X117.438 Y130.844 E0.01329
G1 X125.346 Y138.753 E0.31635
G1 X125.881 Y138.753 E0.01512
G1 X118.082 Y130.954 E0.31196
G1 X118.726 Y131.064 E0.01848
G1 X126.415 Y138.753 E0.30758
G1 X126.950 Y138.753 E0.01512
G1 X119.370 Y131.173 E0.30319
G1 X119.802 Y131.247 E0.01241
G1 X119.978 Y131.247 E0.00497
G1 X127.484 Y138.753 E0.30025
G1 X128.019 Y138.753 E0.01512
G1 X120.513 Y131.247 E0.30025
G1 X121.047 Y131.247 E0.01512
G1 X128.553 Y138.753 E0.30025
G1 X129.088 Y138.753 E0.01512
G1 X121.582 Y131.247 E0.30025
G1 X122.116 Y131.247 E0.01512
G1 X129.622 Y138.753 E0.30025
G1 X130.157 Y138.753 E0.01512
G1 X122.651 Y131.247 E0.30025
G1 X123.185 Y131.247 E0.01512
G1 X130.691 Y138.753 E0.30025
G1 X131.226 Y138.753 E0.01512
G1 X123.507 Y131.034 E0.30876
G1 X123.530 Y130.766 E0.00762
G1 X123.823 Y130.815 E0.00841
G1 X131.760 Y138.753 E0.31751
G1 X132.295 Y138.753 E0.01512
G1 X124.467 Y130.925 E0.31312
G1 X125.111 Y131.035 E0.01848
G1 X132.829 Y138.753 E0.30874
G1 X133.364 Y138.753 E0.01512
G1 X125.755 Y131.144 E0.30435
G1 X126.392 Y131.247 E0.01825
G1 X133.898 Y138.753 E0.30025
G1 X134.433 Y138.753 E0.01512
G1 X126.927 Y131.247 E0.30025
G1 X127.461 Y131.247 E0.01512
G1 X134.967 Y138.753 E0.30025
G1 X135.502 Y138.753 E0.01512
G1 X127.996 Y131.247 E0.30025
G1 X128.530 Y131.247 E0.01512
G1 X136.036 Y138.753 E0.30025
G1 X136.571 Y138.753 E0.01512
G1 X129.065 Y131.247 E0.30025
G1 X129.599 Y131.247 E0.01512
G1 X137.105 Y138.753 E0.30025
G1 X137.640 Y138.753 E0.01512
G1 X130.051 Y131.164 E0.30355
G1 X130.085 Y130.766 E0.01132
G1 X130.208 Y130.786 E0.00353
G1 X138.174 Y138.753 E0.31867
G1 X138.709 Y138.753 E0.01512
G1 X130.852 Y130.896 E0.31428
G1 X131.496 Y131.006 E0.01848
G1 X139.243 Y138.753 E0.30990
G1 X139.778 Y138.753 E0.01512
G1 X132.140 Y131.115 E0.30551
G1 X132.784 Y131.225 E0.01848
G1 X140.312 Y138.753 E0.30112
G1 X140.847 Y138.753 E0.01512
G1 X133.341 Y131.247 E0.30025
G1 X133.875 Y131.247 E0.01512
G1 X141.382 Y138.753 E0.30025
G1 X141.916 Y138.753 E0.01512
G1 X134.410 Y131.247 E0.30025
G1 X134.944 Y131.247 E0.01512
G1 X142.451 Y138.753 E0.30025
G1 X142.985 Y138.753 E0.01512
G1 X135.479 Y131.247 E0.30025
G1 X136.013 Y131.247 E0.01512
G1 X143.520 Y138.753 E0.30025
G1 X144.054 Y138.753 E0.01512
G1 X136.548 Y131.247 E0.30025
G1 X136.600 Y131.247 E0.00146
G1 X136.637 Y130.802 E0.01264
G1 X144.589 Y138.753 E0.31806
M73 Q0 S159
G1 X145.123 Y138.753 E0.01512
G1 X137.237 Y130.867 E0.31544
M73 P0 R159
G1 X137.881 Y130.977 E0.01848
G1 X145.658 Y138.753 E0.31105
G1 X146.192 Y138.753 E0.01512
G1 X138.525 Y131.086 E0.30667
G1 X139.170 Y131.196 E0.01848
G1 X146.727 Y138.753 E0.30228
G1 X147.261 Y138.753 E0.01512
G1 X139.755 Y131.247 E0.30025
G1 X140.290 Y131.247 E0.01512
G1 X147.796 Y138.753 E0.30025
G1 X148.330 Y138.753 E0.01512
G1 X140.824 Y131.247 E0.30025
G1 X141.359 Y131.247 E0.01512
G1 X148.865 Y138.753 E0.30025
G1 X149.399 Y138.753 E0.01512
G1 X141.893 Y131.247 E0.30025
G1 X142.428 Y131.247 E0.01512
G1 X149.934 Y138.753 E0.30025
G1 X150.468 Y138.753 E0.01512
G1 X142.962 Y131.247 E0.30025
G1 X143.155 Y131.247 E0.00545
G1 X143.182 Y130.932 E0.00894
G1 X151.003 Y138.753 E0.31285
G1 X151.537 Y138.753 E0.01512
G1 X143.622 Y130.838 E0.31660
G1 X144.267 Y130.948 E0.01848
G1 X152.072 Y138.753 E0.31221
G1 X152.606 Y138.753 E0.01512
G1 X144.911 Y131.057 E0.30783
G1 X145.555 Y131.167 E0.01848
G1 X153.141 Y138.753 E0.30344
G1 X153.675 Y138.753 E0.01512
G1 X146.169 Y131.247 E0.30025
G1 X146.704 Y131.247 E0.01512
G1 X154.210 Y138.753 E0.30025
G1 X154.744 Y138.753 E0.01512
G1 X147.238 Y131.247 E0.30025
G1 X147.773 Y131.247 E0.01512
G1 X155.279 Y138.753 E0.30025
G1 X155.813 Y138.753 E0.01512
G1 X148.307 Y131.247 E0.30025
G1 X148.842 Y131.247 E0.01512
G1 X156.348 Y138.753 E0.30025
G1 X156.882 Y138.753 E0.01512
G1 X149.376 Y131.247 E0.30025
G1 X149.710 Y131.247 E0.00945
G1 X149.726 Y131.062 E0.00525
G1 X157.417 Y138.753 E0.30764
G1 X157.951 Y138.753 E0.01512
G1 X150.007 Y130.809 E0.31776
G1 X150.652 Y130.919 E0.01848
G1 X158.486 Y138.753 E0.31337
G1 X158.753 Y138.753 E0.00756
G1 X158.753 Y138.486 E0.00756
G1 X151.247 Y130.980 E0.30025
G1 X151.247 Y130.445 E0.01512
G1 X158.753 Y137.951 E0.30025
G1 X158.753 Y137.417 E0.01512
G1 X151.247 Y129.911 E0.30025
G1 X151.247 Y129.376 E0.01512
G1 X158.753 Y136.882 E0.30025
G1 X158.753 Y136.348 E0.01512
G1 X151.247 Y128.842 E0.30025
G1 X151.247 Y128.307 E0.01512
G1 X158.753 Y135.813 E0.30025
G1 X158.753 Y135.279 E0.01512
G1 X151.247 Y127.773 E0.30025
G1 X151.247 Y127.238 E0.01512
G1 X158.753 Y134.744 E0.30025
G1 X158.753 Y134.210 E0.01512
G1 X151.247 Y126.703 E0.30025
G1 X151.247 Y126.169 E0.01512
G1 X158.753 Y133.675 E0.30025
G1 X158.753 Y133.141 E0.01512
G1 X151.247 Y125.634 E0.30025
G1 X151.247 Y125.100 E0.01512
G1 X158.753 Y132.606 E0.30025
G1 X158.753 Y132.072 E0.01512
G1 X151.247 Y124.565 E0.30025
G1 X151.247 Y124.031 E0.01512
G1 X158.753 Y131.537 E0.30025
G1 X158.753 Y131.003 E0.01512
G1 X151.247 Y123.496 E0.30025
G1 X151.247 Y122.962 E0.01512
G1 X158.753 Y130.468 E0.30025
G1 X158.753 Y129.934 E0.01512
G1 X151.247 Y122.427 E0.30025
G1 X151.247 Y121.893 E0.01512
G1 X158.753 Y129.399 E0.30025
G1 X158.753 Y128.864 E0.01512
G1 X151.247 Y121.358 E0.30025
G1 X151.247 Y120.824 E0.01512
G1 X158.753 Y128.330 E0.30025
G1 X158.753 Y127.795 E0.01512
G1 X151.247 Y120.289 E0.30025
G1 X151.247 Y119.755 E0.01512
G1 X158.753 Y127.261 E0.30025
G1 X158.753 Y126.726 E0.01512
G1 X151.247 Y119.220 E0.30025
G1 X151.247 Y118.686 E0.01512
G1 X158.753 Y126.192 E0.30025
G1 X158.753 Y125.657 E0.01512
G1 X151.247 Y118.151 E0.30025
G1 X151.247 Y117.617 E0.01512
G1 X158.753 Y125.123 E0.30025
G1 X158.753 Y124.588 E0.01512
G1 X151.247 Y117.082 E0.30025
G1 X151.247 Y116.548 E0.01512
G1 X158.753 Y124.054 E0.30025
G1 X158.753 Y123.519 E0.01512
G1 X151.247 Y116.013 E0.30025
G1 X151.247 Y115.479 E0.01512
G1 X158.753 Y122.985 E0.30025
G1 X158.753 Y122.450 E0.01512
G1 X151.247 Y114.944 E0.30025
G1 X151.247 Y114.410 E0.01512
G1 X158.753 Y121.916 E0.30025
G1 X158.753 Y121.381 E0.01512
G1 X151.247 Y113.875 E0.30025
G1 X151.247 Y113.341 E0.01512
G1 X158.753 Y120.847 E0.30025
G1 X158.753 Y120.312 E0.01512
G1 X151.247 Y112.806 E0.30025
G1 X151.247 Y112.272 E0.01512
G1 X158.753 Y119.778 E0.30025
G1 X158.753 Y119.243 E0.01512
G1 X151.247 Y111.737 E0.30025
G1 X151.247 Y111.203 E0.01512
G1 X158.753 Y118.709 E0.30025
G1 X158.753 Y118.174 E0.01512
G1 X151.247 Y110.668 E0.30025
G1 X151.247 Y110.134 E0.01512
G1 X158.753 Y117.640 E0.30025
G1 X158.753 Y117.105 E0.01512
G1 X151.247 Y109.599 E0.30025
G1 X151.247 Y109.065 E0.01512
G1 X158.753 Y116.571 E0.30025
G1 X158.753 Y116.036 E0.01512
G1 X151.247 Y108.530 E0.30025
G1 X151.247 Y107.996 E0.01512
G1 X158.753 Y115.502 E0.30025
G1 X158.753 Y114.967 E0.01512
G1 X151.247 Y107.461 E0.30025
G1 X151.247 Y106.927 E0.01512
G1 X158.753 Y114.433 E0.30025
G1 X158.753 Y113.898 E0.01512
G1 X151.247 Y106.392 E0.30025
G1 X151.247 Y105.858 E0.01512
G1 X158.753 Y113.364 E0.30025
G1 X158.753 Y112.829 E0.01512
G1 X151.247 Y105.323 E0.30025
G1 X151.247 Y104.789 E0.01512
G1 X158.753 Y112.295 E0.30025
G1 X158.753 Y111.760 E0.01512
G1 X151.247 Y104.254 E0.30025
G1 X151.247 Y103.719 E0.01512
G1 X158.753 Y111.226 E0.30025
G1 X158.753 Y110.691 E0.01512
G1 X151.247 Y103.185 E0.30025
G1 X151.247 Y102.650 E0.01512
G1 X158.753 Y110.157 E0.30025
G1 X158.753 Y109.622 E0.01512
G1 X151.247 Y102.116 E0.30025
G1 X151.247 Y101.581 E0.01512
G1 X158.753 Y109.088 E0.30025
G1 X158.753 Y108.553 E0.01512
G1 X151.247 Y101.047 E0.30025
G1 X151.247 Y100.512 E0.01512
G1 X158.753 Y108.019 E0.30025
G1 X158.753 Y107.484 E0.01512
G1 X151.247 Y99.978 E0.30025
G1 X151.247 Y99.443 E0.01512
G1 X158.753 Y106.949 E0.30025
G1 X158.753 Y106.415 E0.01512
G1 X151.247 Y98.909 E0.30025
G1 X151.247 Y98.374 E0.01512
G1 X158.753 Y105.880 E0.30025
G1 X158.753 Y105.346 E0.01512
G1 X151.247 Y97.840 E0.30025
G1 X151.247 Y97.305 E0.01512
G1 X158.753 Y104.811 E0.30025
G1 X158.753 Y104.277 E0.01512
G1 X151.247 Y96.771 E0.30025
G1 X151.247 Y96.236 E0.01512
G1 X158.753 Y103.742 E0.30025
G1 X158.753 Y103.208 E0.01512
G1 X151.247 Y95.702 E0.30025
G1 X151.247 Y95.167 E0.01512
G1 X158.753 Y102.673 E0.30025
G1 X158.753 Y102.139 E0.01512
G1 X151.247 Y94.633 E0.30025
G1 X151.247 Y94.098 E0.01512
G1 X158.753 Y101.604 E0.30025
G1 X158.753 Y101.070 E0.01512
G1 X151.247 Y93.564 E0.30025
G1 X151.247 Y93.029 E0.01512
G1 X158.753 Y100.535 E0.30025
G1 X158.753 Y100.001 E0.01512
G1 X151.247 Y92.495 E0.30025
G1 X151.247 Y91.960 E0.01512
G1 X158.753 Y99.466 E0.30025
G1 X158.753 Y98.932 E0.01512
G1 X151.247 Y91.426 E0.30025
G1 X151.247 Y90.891 E0.01512
G1 X158.753 Y98.397 E0.30025
G1 X158.753 Y97.863 E0.01512
G1 X151.247 Y90.357 E0.30025
G1 X151.247 Y89.822 E0.01512
G1 X158.753 Y97.328 E0.30025
G1 X158.753 Y96.794 E0.01512
G1 X151.247 Y89.288 E0.30025
G1 X151.247 Y88.753 E0.01512
M73 Q1 S158
G1 X158.753 Y96.259 E0.30025
G1 X158.753 Y95.725 E0.01512
G1 X151.247 Y88.219 E0.30025
M73 P1 R158
G1 X151.247 Y87.684 E0.01512
G1 X158.753 Y95.190 E0.30025
G1 X158.753 Y94.656 E0.01512
G1 X151.247 Y87.150 E0.30025
G1 X151.247 Y86.615 E0.01512
G1 X158.753 Y94.121 E0.30025
G1 X158.753 Y93.587 E0.01512
G1 X151.247 Y86.081 E0.30025
G1 X151.247 Y85.546 E0.01512
G1 X158.753 Y93.052 E0.30025
G1 X158.753 Y92.518 E0.01512
G1 X151.247 Y85.012 E0.30025
G1 X151.247 Y84.477 E0.01512
G1 X158.753 Y91.983 E0.30025
G1 X158.753 Y91.449 E0.01512
G1 X151.247 Y83.943 E0.30025
G1 X151.247 Y83.408 E0.01512
G1 X158.753 Y90.914 E0.30025
G1 X158.753 Y90.380 E0.01512
G1 X151.247 Y82.874 E0.30025
G1 X151.247 Y82.339 E0.01512
G1 X158.753 Y89.845 E0.30025
G1 X158.753 Y89.311 E0.01512
G1 X151.247 Y81.804 E0.30025
G1 X151.247 Y81.270 E0.01512
G1 X158.753 Y88.776 E0.30025
G1 X158.753 Y88.242 E0.01512
G1 X151.247 Y80.735 E0.30025
G1 X151.247 Y80.201 E0.01512
G1 X158.753 Y87.707 E0.30025
G1 X158.753 Y87.173 E0.01512
G1 X151.247 Y79.666 E0.30025
G1 X151.247 Y79.132 E0.01512
G1 X158.753 Y86.638 E0.30025
G1 X158.753 Y86.104 E0.01512
G1 X143.896 Y71.247 E0.59427
G1 X144.431 Y71.247 E0.01512
G1 X158.753 Y85.569 E0.57289
G1 X158.753 Y85.035 E0.01512
G1 X144.965 Y71.247 E0.55151
G1 X145.500 Y71.247 E0.01512
G1 X158.753 Y84.500 E0.53013
G1 X158.753 Y83.965 E0.01512
G1 X146.035 Y71.247 E0.50875
G1 X146.569 Y71.247 E0.01512
G1 X158.753 Y83.431 E0.48737
G1 X158.753 Y82.896 E0.01512
G1 X147.104 Y71.247 E0.46598
G1 X147.638 Y71.247 E0.01512
G1 X158.753 Y82.362 E0.44460
G1 X158.753 Y81.827 E0.01512
G1 X148.173 Y71.247 E0.42322
G1 X148.707 Y71.247 E0.01512
G1 X158.753 Y81.293 E0.40184
G1 X158.753 Y80.758 E0.01512
G1 X149.242 Y71.247 E0.38046
G1 X149.776 Y71.247 E0.01512
G1 X158.753 Y80.224 E0.35908
G1 X158.753 Y79.689 E0.01512
G1 X150.311 Y71.247 E0.33770
G1 X150.845 Y71.247 E0.01512
G1 X158.753 Y79.155 E0.31632
G1 X158.753 Y78.620 E0.01512
G1 X151.380 Y71.247 E0.29494
G1 X151.914 Y71.247 E0.01512
G1 X158.753 Y78.086 E0.27356
G1 X158.753 Y77.551 E0.01512
G1 X152.449 Y71.247 E0.25218
G1 X152.983 Y71.247 E0.01512
G1 X158.753 Y77.017 E0.23080
G1 X158.753 Y76.482 E0.01512
G1 X153.518 Y71.247 E0.20942
G1 X154.052 Y71.247 E0.01512
G1 X158.753 Y75.948 E0.18804
G1 X158.753 Y75.413 E0.01512
G1 X154.587 Y71.247 E0.16666
G1 X155.121 Y71.247 E0.01512
G1 X158.753 Y74.879 E0.14527
G1 X158.753 Y74.344 E0.01512
G1 X155.656 Y71.247 E0.12389
G1 X156.190 Y71.247 E0.01512
G1 X158.753 Y73.810 E0.10251
G1 X158.753 Y73.275 E0.01512
G1 X156.725 Y71.247 E0.08113
G1 X157.259 Y71.247 E0.01512
G1 X158.753 Y72.741 E0.05975
G1 X158.753 Y72.206 E0.01512
G1 X157.794 Y71.247 E0.03837
G1 X158.328 Y71.247 E0.01512
G1 X158.923 Y71.841 E0.02378
G1 F8640
G1 X158.328 Y71.247 E-0.19411
G1 X157.794 Y71.247 E-0.12342
G1 X158.753 Y72.206 E-0.31325
G1 X158.753 Y72.741 E-0.12342
G1 X158.735 Y72.723 E-0.00580
