; generated by Slic3r Prusa Edition 1.41.3+linux64 on 2021-07-16 at 16:54:35

; 

; external perimeters extrusion width = 0.45mm
; perimeters extrusion width = 0.45mm
; infill extrusion width = 0.45mm
; solid infill extrusion width = 0.45mm
; top infill extrusion width = 0.40mm
; first layer extrusion width = 0.42mm

M73 P0 R352
M73 Q0 S353
M201 X1000 Y1000 Z1000 E5000 ; sets maximum accelerations, mm/sec^2
M203 X200 Y200 Z12 E120 ; sets maximum feedrates, mm/sec
M204 P1250 R1250 T1250 ; sets acceleration (P, T) and retract acceleration (R), mm/sec^2
M205 X8.00 Y8.00 Z0.40 E1.50 ; sets the jerk limits, mm/sec
M205 S0 T0 ; sets the minimum extruding and travel feed rate, mm/sec
M107
M115 U3.5.1 ; tell printer latest fw version
M83  ; extruder relative mode
M104 S220 ; set extruder temp
M140 S100 ; set bed temp
M190 S100 ; wait for bed temp
M109 S220 ; wait for extruder temp
G28 W ; home all without mesh bed level
G80 ; mesh bed leveling
G1 Y-3.0 F1000.0 ; go outside print area
G92 E0.0
G1 X60.0 E9.0  F1000.0 ; intro line
M73 Q0 S353
M73 P0 R352
G1 X100.0 E12.5  F1000.0 ; intro line
G92 E0.0
M221 S95
M900 K10; Filament gcode
G21 ; set units to millimeters
G90 ; use absolute coordinates
M83 ; use relative distances for extrusion
;BEFORE_LAYER_CHANGE
G92 E0.0
;0.2


G1 E-0.80000 F2100.00000
G1 Z0.600 F10800.000
;AFTER_LAYER_CHANGE
;0.2
G1 X88.429 Y68.477
G1 Z0.200
G1 E0.80000 F2100.00000
M204 S1000
G1 F1200
G1 X89.137 Y67.989 E0.02428
G1 X89.980 Y67.812 E0.02428
G1 X160.004 Y67.811 E1.97600
G1 X160.827 Y67.974 E0.02368
G1 X161.531 Y68.436 E0.02378
G1 X162.008 Y69.131 E0.02378
G1 X162.188 Y69.954 E0.02378
G1 X162.188 Y140.018 E1.97714
G1 X162.025 Y140.830 E0.02337
G1 X161.571 Y141.523 E0.02337
G1 X160.856 Y142.014 E0.02449
G1 X160.002 Y142.189 E0.02459
G1 X89.982 Y142.188 E1.97590
G1 X89.170 Y142.025 E0.02337
G1 X88.477 Y141.571 E0.02337
G1 X87.986 Y140.856 E0.02449
G1 X87.811 Y140.002 E0.02459
G1 X87.812 Y69.982 E1.97590
G1 X87.975 Y69.170 E0.02337
G1 X88.396 Y68.527 E0.02168
; PURGING FINISHED
G1 F8640
G1 X89.137 Y67.989 E-0.21159
G1 X89.980 Y67.812 E-0.19870
G1 X91.494 Y67.812 E-0.34970
G1 E-0.04000 F2100.00000
G1 Z0.800 F10800.000
G1 X99.913 Y79.413
G1 Z0.200
G1 E0.80000 F2100.00000
G1 F1200
G1 X149.987 Y79.413 E1.41304
G1 X149.987 Y130.587 E1.44408
G1 X99.913 Y130.587 E1.41304
G1 X99.913 Y79.473 E1.44238
G1 F8640
G1 X103.204 Y79.469 E-0.76000
G1 E-0.04000 F2100.00000
G1 Z0.800 F10800.000
G1 X142.090 Y79.790
G1 Z0.200
G1 E0.80000 F2100.00000
G1 F1200
G1 X143.010 Y79.790 E0.02596
G1 X143.010 Y130.210 E1.42280
G1 X142.090 Y130.210 E0.02596
G1 X142.090 Y79.850 E1.42110
G1 X142.088 Y79.390 F10800.000
G1 F8640
G1 X143.010 Y79.790 E-0.21288
G1 X143.010 Y82.159 E-0.54712
G1 E-0.04000 F2100.00000
G1 Z0.800 F10800.000
G1 X143.190 Y79.850
G1 Z0.200
G1 E0.80000 F2100.00000
G1 F1200
G1 X143.190 Y79.790 E0.00169
G1 X144.110 Y79.790 E0.02596
G1 X144.110 Y130.210 E1.42280
G1 X143.190 Y130.210 E0.02596
G1 X143.190 Y79.910 E1.41941
G1 X143.138 Y79.820 F10800.000
G1 F8640
G1 X143.190 Y79.790 E-0.02771
G1 X144.110 Y79.790 E-0.21243
G1 X144.110 Y82.041 E-0.51986
G1 E-0.04000 F2100.00000
G1 Z0.800 F10800.000
G1 X144.290 Y79.910
G1 Z0.200
G1 E0.80000 F2100.00000
G1 F1200
G1 X144.290 Y79.790 E0.00339
G1 X145.210 Y79.790 E0.02596
G1 X145.210 Y130.210 E1.42280
G1 X144.290 Y130.210 E0.02596
G1 X144.290 Y79.970 E1.41772
G1 X144.186 Y79.851 F10800.000
G1 F8640
G1 X144.290 Y79.790 E-0.04156
G1 X145.210 Y79.790 E-0.21243
G1 X145.210 Y81.981 E-0.50601
G1 E-0.04000 F2100.00000
G1 Z0.800 F10800.000
G1 X145.390 Y79.970
G1 Z0.200
G1 E0.80000 F2100.00000
G1 F1200
G1 X145.390 Y79.790 E0.00508
G1 X146.310 Y79.790 E0.02596
G1 X146.310 Y130.210 E1.42280
G1 X145.390 Y130.210 E0.02596
G1 X145.390 Y80.030 E1.41602
G1 X145.234 Y79.881 F10800.000
G1 F8640
G1 X145.390 Y79.790 E-0.05542
G1 X146.310 Y79.790 E-0.21243
G1 X146.310 Y81.921 E-0.49215
G1 E-0.04000 F2100.00000
G1 Z0.800 F10800.000
G1 X146.490 Y79.790
G1 Z0.200
G1 E0.80000 F2100.00000
G1 F1200
G1 X147.410 Y79.790 E0.02596
G1 X147.410 Y130.210 E1.42280
G1 X146.490 Y130.210 E0.02596
G1 X146.490 Y79.850 E1.42110
G1 X146.488 Y79.390 F10800.000
G1 F8640
G1 X147.410 Y79.790 E-0.21288
G1 X147.410 Y82.159 E-0.54712
G1 E-0.04000 F2100.00000
G1 Z0.800 F10800.000
G1 X147.590 Y79.850
G1 Z0.200
G1 E0.80000 F2100.00000
G1 F1200
G1 X147.590 Y79.790 E0.00169
G1 X148.510 Y79.790 E0.02596
G1 X148.510 Y130.210 E1.42280
M73 Q0 S352
G1 X147.590 Y130.210 E0.02596
G1 X147.590 Y79.910 E1.41941
M73 P0 R351
G1 X147.538 Y79.820 F10800.000
G1 F8640
G1 X147.590 Y79.790 E-0.02771
G1 X148.510 Y79.790 E-0.21243
G1 X148.510 Y82.041 E-0.51986
G1 E-0.04000 F2100.00000
G1 Z0.800 F10800.000
G1 X148.690 Y79.910
G1 Z0.200
G1 E0.80000 F2100.00000
G1 F1200
G1 X148.690 Y79.790 E0.00339
G1 X149.610 Y79.790 E0.02596
G1 X149.610 Y130.210 E1.42280
G1 X148.690 Y130.210 E0.02596
G1 X148.690 Y79.970 E1.41772
G1 X148.586 Y79.851 F10800.000
G1 F8640
G1 X148.690 Y79.790 E-0.04156
G1 X149.610 Y79.790 E-0.21243
G1 X149.610 Y81.981 E-0.50601
G1 E-0.04000 F2100.00000
G1 Z0.800 F10800.000
G1 X141.910 Y79.970
G1 Z0.200
G1 E0.80000 F2100.00000
G1 F1200
G1 X141.910 Y130.210 E1.41772
G1 X140.990 Y130.210 E0.02596
G1 X140.990 Y79.790 E1.42280
G1 X141.910 Y79.790 E0.02596
G1 X141.910 Y79.910 E0.00339
G1 X142.309 Y79.996 F10800.000
G1 F8640
G1 X141.910 Y83.201 E-0.76000
G1 E-0.04000 F2100.00000
G1 Z0.800 F10800.000
G1 X140.810 Y79.910
G1 Z0.200
G1 E0.80000 F2100.00000
G1 F1200
G1 X140.810 Y130.210 E1.41941
G1 X139.890 Y130.210 E0.02596
G1 X139.890 Y79.790 E1.42280
G1 X140.810 Y79.790 E0.02596
G1 X140.810 Y79.850 E0.00169
G1 X141.210 Y79.927 F10800.000
G1 F8640
G1 X140.810 Y83.141 E-0.76000
G1 E-0.04000 F2100.00000
G1 Z0.800 F10800.000
G1 X139.710 Y79.850
G1 Z0.200
G1 E0.80000 F2100.00000
G1 F1200
G1 X139.710 Y130.210 E1.42110
G1 X138.790 Y130.210 E0.02596
G1 X138.790 Y79.790 E1.42280
G1 X139.710 Y79.790 E0.02596
G1 X140.058 Y79.652 F10800.000
G1 F8640
G1 X139.710 Y83.081 E-0.76000
G1 E-0.04000 F2100.00000
G1 Z0.800 F10800.000
G1 X138.610 Y79.790
G1 Z0.200
G1 E0.80000 F2100.00000
G1 F1200
G1 X138.610 Y130.210 E1.42280
G1 X137.690 Y130.210 E0.02596
G1 X137.690 Y79.790 E1.42280
G1 X138.550 Y79.790 E0.02427
G1 X138.958 Y79.592 F10800.000
G1 F8640
G1 X138.554 Y83.081 E-0.76000
G1 E-0.04000 F2100.00000
G1 Z0.800 F10800.000
G1 X137.510 Y79.790
G1 Z0.200
G1 E0.80000 F2100.00000
G1 F1200
G1 X137.510 Y130.210 E1.42280
G1 X136.590 Y130.210 E0.02596
G1 X136.590 Y79.790 E1.42280
G1 X137.450 Y79.790 E0.02427
G1 X137.858 Y79.592 F10800.000
G1 F8640
G1 X137.454 Y83.081 E-0.76000
G1 E-0.04000 F2100.00000
G1 Z0.800 F10800.000
G1 X136.410 Y79.790
G1 Z0.200
G1 E0.80000 F2100.00000
G1 F1200
G1 X136.410 Y130.210 E1.42280
G1 X135.490 Y130.210 E0.02596
G1 X135.490 Y79.790 E1.42280
G1 X136.350 Y79.790 E0.02427
G1 X136.758 Y79.592 F10800.000
G1 F8640
G1 X136.354 Y83.081 E-0.76000
G1 E-0.04000 F2100.00000
G1 Z0.800 F10800.000
G1 X135.310 Y79.790
G1 Z0.200
G1 E0.80000 F2100.00000
G1 F1200
G1 X135.310 Y130.210 E1.42280
G1 X134.390 Y130.210 E0.02596
G1 X134.390 Y79.790 E1.42280
G1 X135.250 Y79.790 E0.02427
G1 X135.658 Y79.592 F10800.000
G1 F8640
G1 X135.254 Y83.081 E-0.76000
G1 E-0.04000 F2100.00000
G1 Z0.800 F10800.000
G1 X134.210 Y79.790
G1 Z0.200
G1 E0.80000 F2100.00000
G1 F1200
G1 X134.210 Y130.210 E1.42280
G1 X133.290 Y130.210 E0.02596
G1 X133.290 Y79.790 E1.42280
G1 X134.150 Y79.790 E0.02427
G1 X134.558 Y79.592 F10800.000
G1 F8640
G1 X134.154 Y83.081 E-0.76000
G1 E-0.04000 F2100.00000
G1 Z0.800 F10800.000
G1 X133.110 Y79.790
G1 Z0.200
G1 E0.80000 F2100.00000
G1 F1200
G1 X133.110 Y130.210 E1.42280
G1 X132.190 Y130.210 E0.02596
G1 X132.190 Y79.790 E1.42280
G1 X133.050 Y79.790 E0.02427
G1 X133.458 Y79.592 F10800.000
G1 F8640
G1 X133.054 Y83.081 E-0.76000
G1 E-0.04000 F2100.00000
G1 Z0.800 F10800.000
G1 X132.010 Y79.790
G1 Z0.200
G1 E0.80000 F2100.00000
G1 F1200
G1 X132.010 Y130.210 E1.42280
M73 Q0 S351
G1 X131.090 Y130.210 E0.02596
G1 X131.090 Y79.790 E1.42280
M73 P0 R350
G1 X131.950 Y79.790 E0.02427
G1 X132.358 Y79.592 F10800.000
G1 F8640
G1 X131.954 Y83.081 E-0.76000
G1 E-0.04000 F2100.00000
G1 Z0.800 F10800.000
G1 X130.910 Y79.790
G1 Z0.200
G1 E0.80000 F2100.00000
G1 F1200
G1 X130.910 Y130.210 E1.42280
G1 X129.990 Y130.210 E0.02596
G1 X129.990 Y79.790 E1.42280
G1 X130.850 Y79.790 E0.02427
G1 X131.258 Y79.592 F10800.000
G1 F8640
G1 X130.854 Y83.081 E-0.76000
G1 E-0.04000 F2100.00000
G1 Z0.800 F10800.000
G1 X129.810 Y79.790
G1 Z0.200
G1 E0.80000 F2100.00000
G1 F1200
G1 X129.810 Y130.210 E1.42280
G1 X128.890 Y130.210 E0.02596
G1 X128.890 Y79.790 E1.42280
G1 X129.750 Y79.790 E0.02427
G1 X130.158 Y79.592 F10800.000
G1 F8640
G1 X129.754 Y83.081 E-0.76000
G1 E-0.04000 F2100.00000
G1 Z0.800 F10800.000
G1 X128.710 Y79.790
G1 Z0.200
G1 E0.80000 F2100.00000
G1 F1200
G1 X128.710 Y130.210 E1.42280
G1 X127.790 Y130.210 E0.02596
G1 X127.790 Y79.790 E1.42280
G1 X128.650 Y79.790 E0.02427
G1 X129.058 Y79.592 F10800.000
G1 F8640
G1 X128.654 Y83.081 E-0.76000
G1 E-0.04000 F2100.00000
G1 Z0.800 F10800.000
G1 X127.610 Y79.790
G1 Z0.200
G1 E0.80000 F2100.00000
G1 F1200
G1 X127.610 Y130.210 E1.42280
G1 X126.690 Y130.210 E0.02596
G1 X126.690 Y79.790 E1.42280
G1 X127.550 Y79.790 E0.02427
G1 X127.958 Y79.592 F10800.000
G1 F8640
G1 X127.554 Y83.081 E-0.76000
G1 E-0.04000 F2100.00000
G1 Z0.800 F10800.000
G1 X126.510 Y79.790
G1 Z0.200
G1 E0.80000 F2100.00000
G1 F1200
G1 X126.510 Y130.210 E1.42280
G1 X125.590 Y130.210 E0.02596
G1 X125.590 Y79.790 E1.42280
G1 X126.450 Y79.790 E0.02427
G1 X126.858 Y79.592 F10800.000
G1 F8640
G1 X126.454 Y83.081 E-0.76000
G1 E-0.04000 F2100.00000
G1 Z0.800 F10800.000
G1 X125.410 Y79.790
G1 Z0.200
G1 E0.80000 F2100.00000
G1 F1200
G1 X125.410 Y130.210 E1.42280
G1 X124.490 Y130.210 E0.02596
G1 X124.490 Y79.790 E1.42280
G1 X125.350 Y79.790 E0.02427
G1 X125.758 Y79.592 F10800.000
G1 F8640
G1 X125.354 Y83.081 E-0.76000
G1 E-0.04000 F2100.00000
G1 Z0.800 F10800.000
G1 X124.310 Y79.790
G1 Z0.200
G1 E0.80000 F2100.00000
G1 F1200
G1 X124.310 Y130.210 E1.42280
G1 X123.390 Y130.210 E0.02596
G1 X123.390 Y79.790 E1.42280
G1 X124.250 Y79.790 E0.02427
G1 X124.658 Y79.592 F10800.000
G1 F8640
G1 X124.254 Y83.081 E-0.76000
G1 E-0.04000 F2100.00000
G1 Z0.800 F10800.000
G1 X123.210 Y79.790
G1 Z0.200
G1 E0.80000 F2100.00000
G1 F1200
G1 X123.210 Y130.210 E1.42280
G1 X122.290 Y130.210 E0.02596
G1 X122.290 Y79.790 E1.42280
G1 X123.150 Y79.790 E0.02427
G1 X123.558 Y79.592 F10800.000
G1 F8640
G1 X123.154 Y83.081 E-0.76000
G1 E-0.04000 F2100.00000
G1 Z0.800 F10800.000
G1 X122.110 Y79.790
G1 Z0.200
G1 E0.80000 F2100.00000
G1 F1200
G1 X122.110 Y130.210 E1.42280
G1 X121.190 Y130.210 E0.02596
G1 X121.190 Y79.790 E1.42280
G1 X122.050 Y79.790 E0.02427
G1 X122.458 Y79.592 F10800.000
G1 F8640
G1 X122.054 Y83.081 E-0.76000
G1 E-0.04000 F2100.00000
G1 Z0.800 F10800.000
G1 X121.010 Y79.790
G1 Z0.200
G1 E0.80000 F2100.00000
G1 F1200
G1 X121.010 Y130.210 E1.42280
G1 X120.090 Y130.210 E0.02596
G1 X120.090 Y79.790 E1.42280
G1 X120.950 Y79.790 E0.02427
G1 X121.358 Y79.592 F10800.000
G1 F8640
G1 X120.954 Y83.081 E-0.76000
G1 E-0.04000 F2100.00000
G1 Z0.800 F10800.000
G1 X119.910 Y79.790
G1 Z0.200
G1 E0.80000 F2100.00000
G1 F1200
G1 X119.910 Y130.210 E1.42280
M73 Q0 S350
G1 X118.990 Y130.210 E0.02596
G1 X118.990 Y79.790 E1.42280
M73 P0 R349
G1 X119.850 Y79.790 E0.02427
G1 X120.258 Y79.592 F10800.000
G1 F8640
G1 X119.854 Y83.081 E-0.76000
G1 E-0.04000 F2100.00000
G1 Z0.800 F10800.000
G1 X118.810 Y79.790
G1 Z0.200
G1 E0.80000 F2100.00000
G1 F1200
G1 X118.810 Y130.210 E1.42280
G1 X117.890 Y130.210 E0.02596
G1 X117.890 Y79.790 E1.42280
G1 X118.750 Y79.790 E0.02427
G1 X119.158 Y79.592 F10800.000
G1 F8640
G1 X118.754 Y83.081 E-0.76000
G1 E-0.04000 F2100.00000
G1 Z0.800 F10800.000
G1 X117.710 Y79.790
G1 Z0.200
G1 E0.80000 F2100.00000
G1 F1200
G1 X117.710 Y130.210 E1.42280
G1 X116.790 Y130.210 E0.02596
G1 X116.790 Y79.790 E1.42280
G1 X117.650 Y79.790 E0.02427
G1 X118.058 Y79.592 F10800.000
G1 F8640
G1 X117.654 Y83.081 E-0.76000
G1 E-0.04000 F2100.00000
G1 Z0.800 F10800.000
G1 X116.610 Y79.790
G1 Z0.200
G1 E0.80000 F2100.00000
G1 F1200
G1 X116.610 Y130.210 E1.42280
G1 X115.690 Y130.210 E0.02596
G1 X115.690 Y79.790 E1.42280
G1 X116.550 Y79.790 E0.02427
G1 X116.958 Y79.592 F10800.000
G1 F8640
G1 X116.554 Y83.081 E-0.76000
G1 E-0.04000 F2100.00000
G1 Z0.800 F10800.000
G1 X115.510 Y79.790
G1 Z0.200
G1 E0.80000 F2100.00000
G1 F1200
G1 X115.510 Y130.210 E1.42280
G1 X114.590 Y130.210 E0.02596
G1 X114.590 Y79.790 E1.42280
G1 X115.450 Y79.790 E0.02427
G1 X115.858 Y79.592 F10800.000
G1 F8640
G1 X115.454 Y83.081 E-0.76000
G1 E-0.04000 F2100.00000
G1 Z0.800 F10800.000
G1 X114.410 Y79.790
G1 Z0.200
G1 E0.80000 F2100.00000
G1 F1200
G1 X114.410 Y130.210 E1.42280
G1 X113.490 Y130.210 E0.02596
G1 X113.490 Y79.790 E1.42280
G1 X114.350 Y79.790 E0.02427
G1 X114.758 Y79.592 F10800.000
G1 F8640
G1 X114.354 Y83.081 E-0.76000
G1 E-0.04000 F2100.00000
G1 Z0.800 F10800.000
G1 X113.310 Y79.790
G1 Z0.200
G1 E0.80000 F2100.00000
G1 F1200
G1 X113.310 Y130.210 E1.42280
G1 X112.390 Y130.210 E0.02596
G1 X112.390 Y79.790 E1.42280
G1 X113.250 Y79.790 E0.02427
G1 X113.658 Y79.592 F10800.000
G1 F8640
G1 X113.254 Y83.081 E-0.76000
G1 E-0.04000 F2100.00000
G1 Z0.800 F10800.000
G1 X112.210 Y79.790
G1 Z0.200
G1 E0.80000 F2100.00000
G1 F1200
G1 X112.210 Y130.210 E1.42280
G1 X111.290 Y130.210 E0.02596
G1 X111.290 Y79.790 E1.42280
G1 X112.150 Y79.790 E0.02427
G1 X112.558 Y79.592 F10800.000
G1 F8640
G1 X112.154 Y83.081 E-0.76000
G1 E-0.04000 F2100.00000
G1 Z0.800 F10800.000
G1 X111.110 Y79.790
G1 Z0.200
G1 E0.80000 F2100.00000
G1 F1200
G1 X111.110 Y130.210 E1.42280
G1 X110.190 Y130.210 E0.02596
G1 X110.190 Y79.790 E1.42280
G1 X111.050 Y79.790 E0.02427
G1 X111.458 Y79.592 F10800.000
G1 F8640
G1 X111.054 Y83.081 E-0.76000
G1 E-0.04000 F2100.00000
G1 Z0.800 F10800.000
G1 X110.010 Y79.790
G1 Z0.200
G1 E0.80000 F2100.00000
G1 F1200
G1 X110.010 Y130.210 E1.42280
G1 X109.090 Y130.210 E0.02596
G1 X109.090 Y79.790 E1.42280
G1 X109.950 Y79.790 E0.02427
G1 X110.358 Y79.592 F10800.000
G1 F8640
G1 X109.954 Y83.081 E-0.76000
G1 E-0.04000 F2100.00000
G1 Z0.800 F10800.000
G1 X108.910 Y79.790
G1 Z0.200
G1 E0.80000 F2100.00000
G1 F1200
G1 X108.910 Y130.210 E1.42280
G1 X107.990 Y130.210 E0.02596
G1 X107.990 Y79.790 E1.42280
G1 X108.850 Y79.790 E0.02427
G1 X109.258 Y79.592 F10800.000
G1 F8640
G1 X108.854 Y83.081 E-0.76000
G1 E-0.04000 F2100.00000
G1 Z0.800 F10800.000
G1 X107.810 Y79.790
G1 Z0.200
G1 E0.80000 F2100.00000
G1 F1200
G1 X107.810 Y130.210 E1.42280
M73 Q1 S349
G1 X106.890 Y130.210 E0.02596
G1 X106.890 Y79.790 E1.42280
M73 P1 R348
G1 X107.750 Y79.790 E0.02427
G1 X108.158 Y79.592 F10800.000
G1 F8640
G1 X107.754 Y83.081 E-0.76000
G1 E-0.04000 F2100.00000
G1 Z0.800 F10800.000
G1 X106.710 Y79.790
G1 Z0.200
G1 E0.80000 F2100.00000
G1 F1200
G1 X106.710 Y130.210 E1.42280
G1 X105.790 Y130.210 E0.02596
G1 X105.790 Y79.790 E1.42280
G1 X106.650 Y79.790 E0.02427
G1 X107.058 Y79.592 F10800.000
G1 F8640
G1 X106.654 Y83.081 E-0.76000
G1 E-0.04000 F2100.00000
G1 Z0.800 F10800.000
G1 X105.610 Y79.790
G1 Z0.200
G1 E0.80000 F2100.00000
G1 F1200
G1 X105.610 Y130.210 E1.42280
G1 X104.690 Y130.210 E0.02596
G1 X104.690 Y79.790 E1.42280
G1 X105.550 Y79.790 E0.02427
G1 X105.958 Y79.592 F10800.000
G1 F8640
G1 X105.554 Y83.081 E-0.76000
G1 E-0.04000 F2100.00000
G1 Z0.800 F10800.000
G1 X104.510 Y79.790
G1 Z0.200
G1 E0.80000 F2100.00000
G1 F1200
G1 X104.510 Y130.210 E1.42280
G1 X103.590 Y130.210 E0.02596
G1 X103.590 Y79.790 E1.42280
G1 X104.450 Y79.790 E0.02427
G1 X104.858 Y79.592 F10800.000
G1 F8640
G1 X104.454 Y83.081 E-0.76000
G1 E-0.04000 F2100.00000
G1 Z0.800 F10800.000
G1 X103.410 Y79.790
G1 Z0.200
G1 E0.80000 F2100.00000
G1 F1200
G1 X103.410 Y130.210 E1.42280
G1 X102.490 Y130.210 E0.02596
G1 X102.490 Y79.790 E1.42280
G1 X103.350 Y79.790 E0.02427
G1 X103.758 Y79.592 F10800.000
G1 F8640
G1 X103.354 Y83.081 E-0.76000
G1 E-0.04000 F2100.00000
G1 Z0.800 F10800.000
G1 X102.310 Y79.790
G1 Z0.200
G1 E0.80000 F2100.00000
G1 F1200
G1 X102.310 Y130.210 E1.42280
G1 X101.390 Y130.210 E0.02596
